!!!COM: 梶浦由記 (Yuki Kajiura)
!!!OTL: 炎
**kern	**dynam	**kern	**dynam	**kern	**dynam	**kern	**dynam	**kern	**dynam	**kern	**dynam	**kern	**dynam	**kern	**dynam	**kern	**dynam	**kern	**dynam	**kern	**dynam	**kern	**dynam	**kern	**kern	**dynam	**kern	**dynam
*part14	*part14	*part13	*part13	*part12	*part12	*part11	*part11	*part10	*part10	*part9	*part9	*part8	*part8	*part7	*part7	*part6	*part6	*part5	*part5	*part4	*part4	*part3	*part3	*part2	*part2	*part2	*part1	*part1
*staff15	*	*staff14	*	*staff13	*	*staff12	*	*staff11	*	*staff10	*	*staff9	*	*staff8	*	*staff7	*	*staff6	*	*staff5	*	*staff4	*	*staff3	*staff2	*	*staff1	*
*I"Contrabass	*	*I"Violoncello	*	*I"Viola	*	*I"Violin	*	*I"Violin	*	*I"Electric Bass	*	*I"Electric Guitar	*	*I"Drumset	*	*I"Cymbal	*	*I"Concert Bass Drum	*	*I"Glockenspiel	*	*I"Vibraphone	*	*I"Piano	*	*	*I"Melody	*
*I'Cb.	*	*I'Vc.	*	*I'Vla.	*	*I'Vln.	*	*I'Vln.	*	*I'El. B.	*	*I'El. Guit.	*	*I'D. Set	*	*I'Cym.	*	*I'Con. BD	*	*I'Glock.	*	*I'Vib.	*	*I'Pno.	*	*	*I'Melody	*
*	*	*	*	*	*	*	*	*	*	*	*	*	*	*	*	*stria1	*	*stria1	*	*	*	*	*	*	*	*	*	*
*clefF4	*	*clefF4	*	*clefC3	*	*clefG2	*	*clefG2	*	*clefF4	*	*clefGv2	*	*clefX	*	*clefX	*	*clefX	*	*clefG2	*	*clefG2	*	*clefF4	*clefG2	*	*clefG2	*
*Trd0c0	*	*	*	*	*	*	*	*	*	*Trd0c0	*	*	*	*	*	*	*	*	*	*Trd0c0	*	*	*	*	*	*	*	*
*k[f#c#]	*	*k[f#c#]	*	*k[f#c#]	*	*k[f#c#]	*	*k[f#c#]	*	*k[f#c#]	*	*k[f#c#]	*	*k[]	*	*k[]	*	*k[]	*	*k[f#c#]	*	*k[f#c#]	*	*k[f#c#]	*k[f#c#]	*	*k[f#c#]	*
*M4/4	*	*M4/4	*	*M4/4	*	*M4/4	*	*M4/4	*	*M4/4	*	*M4/4	*	*M4/4	*	*M4/4	*	*M4/4	*	*M4/4	*	*M4/4	*	*M4/4	*M4/4	*	*M4/4	*
*MM76	*MM76	*	*MM76	*	*MM76	*	*MM76	*	*MM76	*	*MM76	*	*MM76	*	*MM76	*	*MM76	*	*MM76	*	*MM76	*	*MM76	*	*MM76	*	*MM76	*
=1	=1	=1	=1	=1	=1	=1	=1	=1	=1	=1	=1	=1	=1	=1	=1	=1	=1	=1	=1	=1	=1	=1	=1	=1	=1	=1	=1	=1
1r	.	1r	.	1r	.	1r	.	1r	.	1r	.	1r	.	1r	.	1r	.	1r	.	4b 4dd	p	4b 4dd	mf	1r	1r	.	1r	.
.	.	.	.	.	.	.	.	.	.	.	.	.	.	.	.	.	.	.	.	4d	pp	4d	mp	.	.	.	.	.
.	.	.	.	.	.	.	.	.	.	.	.	.	.	.	.	.	.	.	.	4a 4cc#	p	4a 4cc#	mf	.	.	.	.	.
.	.	.	.	.	.	.	.	.	.	.	.	.	.	.	.	.	.	.	.	4aa	pp	4aa	mp	.	.	.	.	.
=2	=2	=2	=2	=2	=2	=2	=2	=2	=2	=2	=2	=2	=2	=2	=2	=2	=2	=2	=2	=2	=2	=2	=2	=2	=2	=2	=2	=2
1r	.	1r	.	1r	.	1r	.	1r	.	1r	.	1r	.	1r	.	1r	.	1r	.	8eL 8g 8b	p	8eL 8g 8b	.	1r	1r	.	1r	.
.	.	.	.	.	.	.	.	.	.	.	.	.	.	.	.	.	.	.	.	8a	.	8a	.	.	.	.	.	.
.	.	.	.	.	.	.	.	.	.	.	.	.	.	.	.	.	.	.	.	8g	.	8g	.	.	.	.	.	.
.	.	.	.	.	.	.	.	.	.	.	.	.	.	.	.	.	.	.	.	[8dJ [8f# [8a	.	[8dJ [8f# [8a	.	.	.	.	.	.
.	.	.	.	.	.	.	.	.	.	.	.	.	.	.	.	.	.	.	.	2d] 2f#] 2a]	.	2d] 2f#] 2a]	.	.	.	.	.	.
=3	=3	=3	=3	=3	=3	=3	=3	=3	=3	=3	=3	=3	=3	=3	=3	=3	=3	=3	=3	=3	=3	=3	=3	=3	=3	=3	=3	=3
1r	.	1r	.	1r	.	1r	.	1r	.	2B	p	8r	.	1r	.	1r	.	1r	.	4b 4dd	.	4b 4dd	.	1r	1r	.	1r	.
.	.	.	.	.	.	.	.	.	.	.	.	8DL	p	.	.	.	.	.	.	.	.	.	.	.	.	.	.	.
.	.	.	.	.	.	.	.	.	.	.	.	8F#	.	.	.	.	.	.	.	4d	pp	4d	mp	.	.	.	.	.
.	.	.	.	.	.	.	.	.	.	.	.	[8dJ	.	.	.	.	.	.	.	.	.	.	.	.	.	.	.	.
.	.	.	.	.	.	.	.	.	.	2A	.	8dL]	.	.	.	.	.	.	.	4a 4cc#	p	4a 4cc#	mf	.	.	.	.	.
.	.	.	.	.	.	.	.	.	.	.	.	8C#	.	.	.	.	.	.	.	.	.	.	.	.	.	.	.	.
.	.	.	.	.	.	.	.	.	.	.	.	8E	.	.	.	.	.	.	.	4aa	pp	4aa	mp	.	.	.	.	.
.	.	.	.	.	.	.	.	.	.	.	.	8c#J	.	.	.	.	.	.	.	.	.	.	.	.	.	.	.	.
=4	=4	=4	=4	=4	=4	=4	=4	=4	=4	=4	=4	=4	=4	=4	=4	=4	=4	=4	=4	=4	=4	=4	=4	=4	=4	=4	=4	=4
1r	.	1r	.	1r	.	1r	.	1r	.	4.G	.	8BL	.	1r	.	1r	.	1r	.	8eL 8g 8b	p	8eL 8g 8b	mf	1r	1r	.	1r	.
.	.	.	.	.	.	.	.	.	.	.	.	8D	.	.	.	.	.	.	.	8f#	.	8f#	.	.	.	.	.	.
.	.	.	.	.	.	.	.	.	.	.	.	8B	.	.	.	.	.	.	.	8g	.	8g	.	.	.	.	.	.
*	*	*	*	*	*	*	*	*	*	*	*	*	*	*	*	*	*	*	*	*^	*	*^	*	*	*	*	*	*
.	.	.	.	.	.	.	.	.	.	[8D	.	[8AJ	.	.	.	.	.	.	.	[8f#J [8a	[8d	.	[8f#J [8a	[8d	.	.	.	.	.	.
.	.	.	.	.	.	.	.	.	.	2D_	.	2A_	.	.	.	.	.	.	.	2f#] 2a]	4d]	.	2f#] 2a]	4d]	.	.	.	.	.	.
.	.	.	.	.	.	.	.	.	.	.	.	.	.	.	.	.	.	.	.	.	[4d	.	.	[4d	.	.	.	.	.	.
*	*	*	*	*	*	*	*	*	*	*	*	*	*	*	*	*	*	*	*	*v	*v	*	*	*	*	*	*	*	*	*
*	*	*	*	*	*	*	*	*	*	*	*	*	*	*	*	*	*	*	*	*	*	*v	*v	*	*	*	*	*	*
=5	=5	=5	=5	=5	=5	=5	=5	=5	=5	=5	=5	=5	=5	=5	=5	=5	=5	=5	=5	=5	=5	=5	=5	=5	=5	=5	=5	=5
1r	.	1r	.	1r	.	1r	.	2r	.	1D]	.	1A]	.	2r	.	1r	.	1r	.	4d]	.	4d]	.	1r	1r	.	2r	.
.	.	.	.	.	.	.	.	.	.	.	.	.	.	.	.	.	.	.	.	2.dd	.	2.dd	.	.	.	.	.	.
.	.	.	.	.	.	.	.	4r	.	.	.	.	.	8r	.	.	.	.	.	.	.	.	.	.	.	.	4r	.
.	.	.	.	.	.	.	.	.	.	.	.	.	.	16Rf\LL	pp	.	.	.	.	.	.	.	.	.	.	.	.	.
.	.	.	.	.	.	.	.	.	.	.	.	.	.	16Rf\JJ	.	.	.	.	.	.	.	.	.	.	.	.	.	.
.	.	.	.	.	.	.	.	8r	.	.	.	.	.	8Rf\L	.	.	.	.	.	.	.	.	.	.	.	.	8r	.
.	.	.	.	.	.	.	.	8d	mp	.	.	.	.	8Rf\J	.	.	.	.	.	.	.	.	.	.	.	.	8d	mp
=6	=6	=6	=6	=6	=6	=6	=6	=6	=6	=6	=6	=6	=6	=6	=6	=6	=6	=6	=6	=6	=6	=6	=6	=6	=6	=6	=6	=6
1r	.	1r	.	1r	.	1r	.	8eL	.	1r	.	1r	.	4Rf\	.	1r	.	1r	.	1r	.	1r	.	2D 2F# 2A	2d	p	8eL	.
.	.	.	.	.	.	.	.	16dL	.	.	.	.	.	.	.	.	.	.	.	.	.	.	.	.	.	.	16dL	.
.	.	.	.	.	.	.	.	[16dJJ	.	.	.	.	.	.	.	.	.	.	.	.	.	.	.	.	.	.	[16dJJ	.
.	.	.	.	.	.	.	.	8dL]	.	.	.	.	.	4r	.	.	.	.	.	.	.	.	.	.	.	.	8dL]	.
.	.	.	.	.	.	.	.	8dJ	.	.	.	.	.	.	.	.	.	.	.	.	.	.	.	.	.	.	8dJ	.
.	.	.	.	.	.	.	.	8eL	.	.	.	.	.	4r	.	.	.	.	.	.	.	.	.	2BB 2D 2F#	4.F#	.	8eL	.
.	.	.	.	.	.	.	.	16dL	.	.	.	.	.	.	.	.	.	.	.	.	.	.	.	.	.	.	16dL	.
.	.	.	.	.	.	.	.	[16dJJ	.	.	.	.	.	.	.	.	.	.	.	.	.	.	.	.	.	.	[16dJJ	.
.	.	.	.	.	.	.	.	8dL]	.	.	.	.	.	8Rf\L	.	.	.	.	.	.	.	.	.	.	.	.	8dL]	.
.	.	.	.	.	.	.	.	8dJ	.	.	.	.	.	16Rf\L	.	.	.	.	.	.	.	.	.	.	8G	.	8dJ	.
.	.	.	.	.	.	.	.	.	.	.	.	.	.	16Rf\JJ	.	.	.	.	.	.	.	.	.	.	.	.	.	.
=7	=7	=7	=7	=7	=7	=7	=7	=7	=7	=7	=7	=7	=7	=7	=7	=7	=7	=7	=7	=7	=7	=7	=7	=7	=7	=7	=7	=7
1r	.	1r	.	1r	.	1r	.	8c#L	.	1r	.	1r	.	4Rf\	.	1r	.	1r	.	1r	.	1r	.	4.AA 4.C# 4.E	4.A	.	8c#L	.
.	.	.	.	.	.	.	.	16BL	.	.	.	.	.	.	.	.	.	.	.	.	.	.	.	.	.	.	16BL	.
.	.	.	.	.	.	.	.	[16BJJ	.	.	.	.	.	.	.	.	.	.	.	.	.	.	.	.	.	.	[16BJJ	.
.	.	.	.	.	.	.	.	16BLL]	.	.	.	.	.	4r	.	.	.	.	.	.	.	.	.	.	.	.	16BLL]	.
.	.	.	.	.	.	.	.	16AJ	.	.	.	.	.	.	.	.	.	.	.	.	.	.	.	.	.	.	16AJ	.
.	.	.	.	.	.	.	.	[8AJ	.	.	.	.	.	.	.	.	.	.	.	.	.	.	.	[8FF# [8AA [8D	[8d	.	[8AJ	.
.	.	.	.	.	.	.	.	4.A]	.	.	.	.	.	4r	.	.	.	.	.	.	.	.	.	2FF#] 2AA] 2D]	8dL]	.	4.A]	.
.	.	.	.	.	.	.	.	.	.	.	.	.	.	.	.	.	.	.	.	.	.	.	.	.	8BJ	.	.	.
.	.	.	.	.	.	.	.	.	.	.	.	.	.	4r	.	.	.	.	.	.	.	.	.	.	4G	.	.	.
.	.	.	.	.	.	.	.	16dLL	.	.	.	.	.	.	.	.	.	.	.	.	.	.	.	.	.	.	16dLL	.
.	.	.	.	.	.	.	.	16eJJ	.	.	.	.	.	.	.	.	.	.	.	.	.	.	.	.	.	.	16eJJ	.
=8	=8	=8	=8	=8	=8	=8	=8	=8	=8	=8	=8	=8	=8	=8	=8	=8	=8	=8	=8	=8	=8	=8	=8	=8	=8	=8	=8	=8
1r	.	1r	.	1r	.	1r	.	8f#L	.	1r	.	1r	.	4Rf\	.	1r	.	1r	.	1r	.	1r	.	2D 2F# 2A	4.d	.	8f#L	.
.	.	.	.	.	.	.	.	16f#L	.	.	.	.	.	.	.	.	.	.	.	.	.	.	.	.	.	.	16f#L	.
.	.	.	.	.	.	.	.	[16f#JJ	.	.	.	.	.	.	.	.	.	.	.	.	.	.	.	.	.	.	[16f#JJ	.
.	.	.	.	.	.	.	.	8f#L]	.	.	.	.	.	4r	.	.	.	.	.	.	.	.	.	.	.	.	8f#L]	.
.	.	.	.	.	.	.	.	8gJ	.	.	.	.	.	.	.	.	.	.	.	.	.	.	.	.	8B 8d	.	8gJ	.
.	.	.	.	.	.	.	.	8f#	.	.	.	.	.	2r	.	.	.	.	.	.	.	.	.	2F# 2A 2c#	4.f#	.	8f#	.
.	.	.	.	.	.	.	.	4d	.	.	.	.	.	.	.	.	.	.	.	.	.	.	.	.	.	.	4d	.
.	.	.	.	.	.	.	.	8d	.	.	.	.	.	.	.	.	.	.	.	.	.	.	.	.	8G 8B	.	8d	.
=9	=9	=9	=9	=9	=9	=9	=9	=9	=9	=9	=9	=9	=9	=9	=9	=9	=9	=9	=9	=9	=9	=9	=9	=9	=9	=9	=9	=9
1r	.	1r	.	1r	.	1r	.	8c#L	.	1r	.	1r	.	8Rf\L	.	1r	.	1r	.	1r	.	1r	.	[4AA [4D [4F#	[4A	.	8c#L	.
.	.	.	.	.	.	.	.	16dL	.	.	.	.	.	16Rf\L	.	.	.	.	.	.	.	.	.	.	.	.	16dL	.
.	.	.	.	.	.	.	.	[16eJJ	.	.	.	.	.	16Rf\JJ	.	.	.	.	.	.	.	.	.	.	.	.	[16eJJ	.
.	.	.	.	.	.	.	.	16eLL]	.	.	.	.	.	16Rf\LL	.	.	.	.	.	.	.	.	.	8AA] 8D] 8F#]	8A]	.	16eLL]	.
.	.	.	.	.	.	.	.	[16dJ	.	.	.	.	.	16Rf\J	.	.	.	.	.	.	.	.	.	.	.	.	[16dJ	.
.	.	.	.	.	.	.	.	8dJ_	.	.	.	.	.	8Rf\J	.	.	.	.	.	.	.	.	.	4D 4F# 4A	4d	.	8dJ_	.
.	.	.	.	.	.	.	.	4.d]	.	.	.	.	.	2r	.	.	.	.	.	.	.	.	.	.	.	.	4.d]	.
.	.	.	.	.	.	.	.	.	.	.	.	.	.	.	.	.	.	.	.	.	.	.	.	8D 8G	8B	.	.	.
.	.	.	.	.	.	.	.	.	.	.	.	.	.	.	.	.	.	.	.	.	.	.	.	4D 4F#	4F#	.	.	.
.	.	.	.	.	.	.	.	8d	.	.	.	.	.	.	.	.	.	.	.	.	.	.	.	.	.	.	8d	.
=10	=10	=10	=10	=10	=10	=10	=10	=10	=10	=10	=10	=10	=10	=10	=10	=10	=10	=10	=10	=10	=10	=10	=10	=10	=10	=10	=10	=10
1r	.	1r	.	1r	.	1r	.	8eL	.	1r	.	1r	.	4Rf\	.	1r	.	1r	.	1r	.	1r	.	2BB 2E 2G	4G	.	8eL	.
.	.	.	.	.	.	.	.	16dL	.	.	.	.	.	.	.	.	.	.	.	.	.	.	.	.	.	.	16dL	.
.	.	.	.	.	.	.	.	[16dJJ	.	.	.	.	.	.	.	.	.	.	.	.	.	.	.	.	.	.	[16dJJ	.
.	.	.	.	.	.	.	.	8dL]	.	.	.	.	.	4r	.	.	.	.	.	.	.	.	.	.	8AL	.	8dL]	.
.	.	.	.	.	.	.	.	8dJ	.	.	.	.	.	.	.	.	.	.	.	.	.	.	.	.	8dJ	.	8dJ	.
.	.	.	.	.	.	.	.	8eL	.	.	.	.	.	4Rf\	.	.	.	.	.	.	.	.	.	2FF# 2AA 2D	4F#	.	8eL	.
.	.	.	.	.	.	.	.	16dL	.	.	.	.	.	.	.	.	.	.	.	.	.	.	.	.	.	.	16dL	.
.	.	.	.	.	.	.	.	[16dJJ	.	.	.	.	.	.	.	.	.	.	.	.	.	.	.	.	.	.	[16dJJ	.
.	.	.	.	.	.	.	.	8dL]	.	.	.	.	.	4r	.	.	.	.	.	.	.	.	.	.	8f#L	.	8dL]	.
.	.	.	.	.	.	.	.	8dJ	.	.	.	.	.	.	.	.	.	.	.	.	.	.	.	.	8dJ	.	8dJ	.
=11	=11	=11	=11	=11	=11	=11	=11	=11	=11	=11	=11	=11	=11	=11	=11	=11	=11	=11	=11	=11	=11	=11	=11	=11	=11	=11	=11	=11
1r	.	1r	.	1r	.	1r	.	8c#L	.	1r	.	1r	.	8Rf\L	.	1r	.	1r	.	1r	.	1r	.	2D 2F# 2A	4.c#	.	8c#L	.
.	.	.	.	.	.	.	.	16dL	.	.	.	.	.	16Rf\L	.	.	.	.	.	.	.	.	.	.	.	.	16dL	.
.	.	.	.	.	.	.	.	[16eJJ	.	.	.	.	.	16Rf\JJ	.	.	.	.	.	.	.	.	.	.	.	.	[16eJJ	.
.	.	.	.	.	.	.	.	16eLL]	.	.	.	.	.	16Rf\LL	.	.	.	.	.	.	.	.	.	.	.	.	16eLL]	.
.	.	.	.	.	.	.	.	16dJ	.	.	.	.	.	16Rf\J	.	.	.	.	.	.	.	.	.	.	.	.	16dJ	.
.	.	.	.	.	.	.	.	[8f#J	.	.	.	.	.	8Rf\J	.	.	.	.	.	.	.	.	.	.	8d	.	[8f#J	.
.	.	.	.	.	.	.	.	4.f#]	.	.	.	.	.	2r	.	.	.	.	.	.	.	.	.	2F# 2B 2d	4f#	.	4.f#]	.
.	.	.	.	.	.	.	.	.	.	.	.	.	.	.	.	.	.	.	.	.	.	.	.	.	4f# 4a	.	.	.
.	.	.	.	.	.	.	.	16f#LL	.	.	.	.	.	.	.	.	.	.	.	.	.	.	.	.	.	.	16f#LL	.
.	.	.	.	.	.	.	.	16gJJ	.	.	.	.	.	.	.	.	.	.	.	.	.	.	.	.	.	.	16gJJ	.
=12	=12	=12	=12	=12	=12	=12	=12	=12	=12	=12	=12	=12	=12	=12	=12	=12	=12	=12	=12	=12	=12	=12	=12	=12	=12	=12	=12	=12
1r	.	1r	.	1r	.	1r	.	8aL	<	1r	.	1r	.	8Rf\L	.	1r	.	1r	.	1r	.	1r	.	2AA 2D 2F#	4f#	<	8aL	<
.	.	.	.	.	.	.	.	16aL	.	.	.	.	.	16Rf\L	.	.	.	.	.	.	.	.	.	.	.	.	16aL	.
.	.	.	.	.	.	.	.	[16aJJ	.	.	.	.	.	16Rf\JJ	.	.	.	.	.	.	.	.	.	.	.	.	[16aJJ	.
.	.	.	.	.	.	.	.	8aL]	.	.	.	.	.	16Rf\LL	.	.	.	.	.	.	.	.	.	.	4a	.	8aL]	.
.	.	.	.	.	.	.	.	.	.	.	.	.	.	16Rf\J	.	.	.	.	.	.	.	.	.	.	.	.	.	.
.	.	.	.	.	.	.	.	8bJ	.	.	.	.	.	8Rf\J	.	.	.	.	.	.	.	.	.	.	.	.	8bJ	.
.	.	.	.	.	.	.	.	8aL	.	.	.	.	.	4Rf\	.	.	.	.	.	.	.	.	.	2AA 2C# 2E	4A	.	8aL	.
.	.	.	.	.	.	.	.	16dL	.	.	.	.	.	.	.	.	.	.	.	.	.	.	.	.	.	.	16dL	.
.	.	.	.	.	.	.	.	[16dJJ	.	.	.	.	.	.	.	.	.	.	.	.	.	.	.	.	.	.	[16dJJ	.
.	.	.	.	.	.	.	.	8dL]	.	.	.	.	.	4r	.	.	.	.	.	.	.	.	.	.	8dL	.	8dL]	.
.	.	.	.	.	.	.	.	16eL	.	.	.	.	.	.	.	.	.	.	.	.	.	.	.	.	8f#J	.	16eL	.
.	.	.	.	.	.	.	.	16f#JJ	.	.	.	.	.	.	.	.	.	.	.	.	.	.	.	.	.	.	16f#JJ	.
=13	=13	=13	=13	=13	=13	=13	=13	=13	=13	=13	=13	=13	=13	=13	=13	=13	=13	=13	=13	=13	=13	=13	=13	=13	=13	=13	=13	=13
2r	.	2r	.	2r	.	2r	.	8gL	.	2AA	pp <	2D	pp <	8Rf\L	.	1r	.	1r	.	1r	.	1r	.	2AA 2D 2F#	4A 4d	.	8gL	.
.	.	.	.	.	.	.	.	16f#K	.	.	.	.	.	16Rf\L	.	.	.	.	.	.	.	.	.	.	.	.	16f#K	.
.	.	.	.	.	.	.	.	8e	.	.	.	.	.	16Rf\JJ	.	.	.	.	.	.	.	.	.	.	.	.	8e	.
.	.	.	.	.	.	.	.	.	.	.	.	.	.	16Rf\LL	.	.	.	.	.	.	.	.	.	.	8f#L	.	.	.
.	.	.	.	.	.	.	.	[16dK	.	.	.	.	.	16Rf\J	.	.	.	.	.	.	.	.	.	.	.	.	[16dK	.
.	.	.	.	.	.	.	.	8dJ]	.	.	.	.	.	8Rf\J	.	.	.	.	.	.	.	.	.	.	8eJ	.	8dJ]	.
*	*	*	*	*	*	*	*	*	*	*	*	*	*	*^	*	*	*	*	*	*	*	*	*	*	*	*	*	*
2r	.	2r	.	2r	.	8BL	mp	8dL	[ ff	2D	[ p	4GG	[ p	8Rcc/L 8Raa	4Rf\	f	.	.	.	.	.	.	.	.	2BB 2D 2G	2d	[ mf	8dL	[ ff
.	.	.	.	.	.	8c#	.	8e	.	.	.	.	.	8Ra/J	.	.	.	.	.	.	.	.	.	.	.	.	.	8e	.
.	.	.	.	.	.	8d	.	8f#	.	.	.	4D	.	16Ra/LL	4Rf\	.	.	.	.	.	.	.	.	.	.	.	.	8f#	.
.	.	.	.	.	.	.	.	.	.	.	.	.	.	16Ra/J	.	.	.	.	.	.	.	.	.	.	.	.	.	.	.
.	.	.	.	.	.	8eJ	.	8gJ	.	.	.	.	.	8Ra/J	.	.	.	.	.	.	.	.	.	.	.	.	.	8gJ	.
=14	=14	=14	=14	=14	=14	=14	=14	=14	=14	=14	=14	=14	=14	=14	=14	=14	=14	=14	=14	=14	=14	=14	=14	=14	=14	=14	=14	=14	=14
1r	.	1r	.	1r	.	8dL	.	8f#L	.	8DL	.	8DL	.	8Ra/L 8Rgg	4Rf\	p	1r	.	1r	.	1r	.	1r	.	2FF# 2AA 2D	4f# 4a	.	8f#L	.
.	.	.	.	.	.	8d	.	8f#	.	8F#J	.	8D	.	8Rgg/	.	.	.	.	.	.	.	.	.	.	.	.	.	8f#	.
.	.	.	.	.	.	8c#	.	8e	.	4A	.	8C#	.	8Ra/ 8Rgg	4Rf\	.	.	.	.	.	.	.	.	.	.	4e 4g	.	8e	.
.	.	.	.	.	.	8c#J	.	8eJ	.	.	.	8C#J	.	8Rgg/J	.	.	.	.	.	.	.	.	.	.	.	.	.	8eJ	.
.	.	.	.	.	.	8B	.	8d	.	8BBL	.	8BBL	.	8Ra/L 8Rgg	4Rf\	.	.	.	.	.	.	.	.	.	2BB 2D 2G	8d 8f#	.	8d	.
.	.	.	.	.	.	4A	.	4c#	.	8D	.	8AA	.	8Ra/ 8Rgg	.	.	.	.	.	.	.	.	.	.	.	4e	.	4c#	.
.	.	.	.	.	.	.	.	.	.	8F#	.	8GG	.	8Ra/ 8Rgg	4Rf\	.	.	.	.	.	.	.	.	.	.	.	.	.	.
.	.	.	.	.	.	[8G	.	[8B	.	[8GJ	.	[8GGJ	.	8Rgg/J	.	.	.	.	.	.	.	.	.	.	.	[8B [8e	.	[8B	.
=15	=15	=15	=15	=15	=15	=15	=15	=15	=15	=15	=15	=15	=15	=15	=15	=15	=15	=15	=15	=15	=15	=15	=15	=15	=15	=15	=15	=15	=15
1r	.	1r	.	1r	.	8G]	.	8B]	.	8GL]	.	8GGL]	.	8Ra/L 8Rgg	4Rf\	.	1r	.	1r	.	1r	.	1r	.	4D 4A	4.B] 4.e]	.	8B]	.
.	.	.	.	.	.	4A	.	4A	.	8F#	.	8AA	.	8Rgg/	.	.	.	.	.	.	.	.	.	.	.	.	.	4A	.
.	.	.	.	.	.	.	.	.	.	8EJ	.	8D	.	8Ra/ 8Rgg	4Rf\	.	.	.	.	.	.	.	.	.	8EL 8G	.	.	.	.
.	.	.	.	.	.	8A	.	8A	.	4F#	.	8C#J	.	8Rgg/J	.	.	.	.	.	.	.	.	.	.	8F#J	8B 8e	.	8A	.
.	.	.	.	.	.	8BL	.	8dL	.	.	.	8DL	.	8Ra/L 8Rgg	4Rf\	.	.	.	.	.	.	.	.	.	2D 2F# 2A	4d 4a	.	8dL	.
.	.	.	.	.	.	8c#	.	8e	.	8EL	.	8E	.	8Ra/ 8Rgg	.	.	.	.	.	.	.	.	.	.	.	.	.	8e	.
.	.	.	.	.	.	8d	.	8f#	.	8D	.	8F#	.	8Ra/ 8Rgg	4Rf\	.	.	.	.	.	.	.	.	.	.	4f# 4cc#	.	8f#	.
.	.	.	.	.	.	8eJ	.	8gJ	.	8C#J	.	8DJ	.	8Rgg/J	.	.	.	.	.	.	.	.	.	.	.	.	.	8gJ	.
=16	=16	=16	=16	=16	=16	=16	=16	=16	=16	=16	=16	=16	=16	=16	=16	=16	=16	=16	=16	=16	=16	=16	=16	=16	=16	=16	=16	=16	=16
1r	.	1r	.	1r	.	8dL	.	8f#L	.	8DL	.	8DL	.	8Ra/L 8Rgg	4Rf\	.	1r	.	1r	.	1r	.	1r	.	2FF# 2AA 2D	4a 4dd	.	8f#L	.
.	.	.	.	.	.	8d	.	8f#	.	8F#J	.	8D	.	8Rgg/	.	.	.	.	.	.	.	.	.	.	.	.	.	8f#	.
.	.	.	.	.	.	8c#	.	8e	.	4A	.	8C#	.	8Ra/ 8Rgg	4Rf\	.	.	.	.	.	.	.	.	.	.	4g 4b	.	8e	.
.	.	.	.	.	.	8c#J	.	8eJ	.	.	.	8C#J	.	8Rgg/J	.	.	.	.	.	.	.	.	.	.	.	.	.	8eJ	.
.	.	.	.	.	.	8B	.	8d	.	8BBL	.	8BBL	.	8Ra/L 8Rgg	4Rf\	.	.	.	.	.	.	.	.	.	2BB 2D 2G	8f# 8cc#	.	8d	.
.	.	.	.	.	.	4c#	.	4c#	.	8D	.	8AA	.	8Ra/ 8Rgg	.	.	.	.	.	.	.	.	.	.	.	4a	.	4c#	.
.	.	.	.	.	.	.	.	.	.	8F#	.	8GG	.	8Ra/ 8Rgg	4Rf\	.	.	.	.	.	.	.	.	.	.	.	.	.	.
.	.	.	.	.	.	[8c#	.	[8c#	.	[8GJ	.	[8AAJ	.	8Rgg/J	.	.	.	.	.	.	.	.	.	.	.	[8e [8g	.	[8c#	.
=17	=17	=17	=17	=17	=17	=17	=17	=17	=17	=17	=17	=17	=17	=17	=17	=17	=17	=17	=17	=17	=17	=17	=17	=17	=17	=17	=17	=17	=17
1r	.	1r	.	1r	.	8c#L]	.	8c#L]	.	8GL]	.	8AAL]	.	8Ra/L 8Rgg	4Rf\	.	1r	.	1r	.	1r	.	1r	.	4A 4d	4.e] 4.g]	.	8c#L]	.
.	.	.	.	.	.	[8dJ	.	[8dJ	.	8F#	.	8BB	.	8Rgg/	.	.	.	.	.	.	.	.	.	.	.	.	.	[8dJ	.
.	.	.	.	.	.	4d_	.	4d_	.	8EJ	.	8D	.	8Ra/ 8Rgg	4Rf\	.	.	.	.	.	.	.	.	.	4D 4F# 4A	.	.	4d_	.
.	.	.	.	.	.	.	.	.	.	4F#	.	8BJ	.	8Rgg/J	.	.	.	.	.	.	.	.	.	.	.	8B 8e	.	.	.
.	.	.	.	.	.	4.d]	.	4.d]	.	.	.	8dL	.	8Ra/L 8Rgg	4Rf\	.	.	.	.	.	.	.	.	.	8DL 8F# 8A	4d 4a	.	4.d]	.
.	.	.	.	.	.	.	.	.	.	8GL	.	8c#	.	8Ra/ 8Rgg	.	.	.	.	.	.	.	.	.	.	8F# 8c#	.	.	.	.
.	.	.	.	.	.	.	.	.	.	8F#	.	8B	.	8Ra/ 8Rgg	4Rf\	.	.	.	.	.	.	.	.	.	8D 8B	8dL 8g	.	.	.
.	.	.	.	.	.	16ALL	.	16dLL	.	8DJ	.	8AJ	.	8Rgg/J	.	.	.	.	.	.	.	.	.	.	8EJ 8A	8c#J 8f#	.	16dLL	.
.	.	.	.	.	.	16AJJ	.	16eJJ	.	.	.	.	.	.	.	.	.	.	.	.	.	.	.	.	.	.	.	16eJJ	.
*	*	*	*	*	*	*	*	*	*	*	*	*	*	*v	*v	*	*	*	*	*	*	*	*	*	*	*	*	*	*
=18||	=18||	=18||	=18||	=18||	=18||	=18||	=18||	=18||	=18||	=18||	=18||	=18||	=18||	=18||	=18||	=18||	=18||	=18||	=18||	=18||	=18||	=18||	=18||	=18||	=18||	=18||	=18||	=18||
*k[b-]	*	*k[b-]	*	*k[b-]	*	*k[b-]	*	*k[b-]	*	*k[b-]	*	*k[b-]	*	*	*	*	*	*	*	*k[b-]	*	*k[b-]	*	*k[b-]	*k[b-]	*	*k[b-]	*
*	*	*	*	*	*	*	*	*	*	*	*	*	*	*^	*	*	*	*	*	*	*	*	*	*	*	*	*	*
1r	.	1r	.	1r	.	2B-	.	6f	.	2C 2F	.	2B- 2d	.	8Ra/L 8Rgg	4Rf\	.	1r	.	1r	.	1r	.	1r	.	2D 2F 2B-	2B-	<	6f	.
.	.	.	.	.	.	.	.	.	.	.	.	.	.	8Rgg/	.	.	.	.	.	.	.	.	.	.	.	.	.	.	.
.	.	.	.	.	.	.	.	6e	.	.	.	.	.	.	.	.	.	.	.	.	.	.	.	.	.	.	.	6e	.
.	.	.	.	.	.	.	.	.	.	.	.	.	.	8Ra/ 8Rgg	4Rf\	.	.	.	.	.	.	.	.	.	.	.	.	.	.
.	.	.	.	.	.	.	.	[6d	.	.	.	.	.	.	.	.	.	.	.	.	.	.	.	.	.	.	.	[6d	.
.	.	.	.	.	.	.	.	.	.	.	.	.	.	8Rgg/J	.	.	.	.	.	.	.	.	.	.	.	.	.	.	.
.	.	.	.	.	.	6B-^	f	4.d]	.	4AA 4E	.	4A 4c	.	8Ra/L 8Rgg	4Rf\	.	.	.	.	.	.	.	.	.	2D 2G 2B-	6b- 6ff	.	4.d]	.
.	.	.	.	.	.	.	.	.	.	.	.	.	.	8Ra/ 8Rgg	.	.	.	.	.	.	.	.	.	.	.	.	.	.	.
.	.	.	.	.	.	6A^	.	.	.	.	.	.	.	.	.	.	.	.	.	.	.	.	.	.	.	6a 6ee	.	.	.
.	.	.	.	.	.	.	.	.	.	8DL	.	8B-L	.	8Rcc/ 8Rgg	4Rf\	.	.	.	.	.	.	.	.	.	.	.	.	.	.
.	.	.	.	.	.	6G^	.	.	.	.	.	.	.	.	.	.	.	.	.	.	.	.	.	.	.	6g 6dd	.	.	.
.	.	.	.	.	.	.	.	16eLL	.	8CJ	.	8AJ	.	8Ra/J 8Rgg	.	.	.	.	.	.	.	.	.	.	.	.	.	16eLL	.
.	.	.	.	.	.	.	.	16fJJ	.	.	.	.	.	.	.	.	.	.	.	.	.	.	.	.	.	.	.	16fJJ	.
=19	=19	=19	=19	=19	=19	=19	=19	=19	=19	=19	=19	=19	=19	=19	=19	=19	=19	=19	=19	=19	=19	=19	=19	=19	=19	=19	=19	=19	=19
1r	.	1r	.	1r	.	2c	mp	6g	.	2AA 2D	.	2G 2B-	.	8Ra/L 8Rgg	4Rf\	.	1r	.	1r	.	1r	.	1r	.	2E 2G 2c	2c	.	6g	.
.	.	.	.	.	.	.	.	.	.	.	.	.	.	8Rgg/	.	.	.	.	.	.	.	.	.	.	.	.	.	.	.
.	.	.	.	.	.	.	.	6f	.	.	.	.	.	.	.	.	.	.	.	.	.	.	.	.	.	.	.	6f	.
.	.	.	.	.	.	.	.	.	.	.	.	.	.	8Ra/ 8Rgg	4Rf\	.	.	.	.	.	.	.	.	.	.	.	.	.	.
.	.	.	.	.	.	.	.	[6e	.	.	.	.	.	.	.	.	.	.	.	.	.	.	.	.	.	.	.	[6e	.
.	.	.	.	.	.	.	.	.	.	.	.	.	.	8Rgg/J	.	.	.	.	.	.	.	.	.	.	.	.	.	.	.
.	.	.	.	.	.	6c^	f	4.e]	.	4GG 4C	.	4F 4A	.	8Ra/L 8Rgg	4Rf\	.	.	.	.	.	.	.	.	.	2E 2A 2c	6cc 6gg	.	4.e]	.
.	.	.	.	.	.	.	.	.	.	.	.	.	.	8Ra/ 8Rgg	.	.	.	.	.	.	.	.	.	.	.	.	.	.	.
.	.	.	.	.	.	6B-^	.	.	.	.	.	.	.	.	.	.	.	.	.	.	.	.	.	.	.	6b- 6ff	.	.	.
.	.	.	.	.	.	.	.	.	.	8AAL	.	8FL	.	8Rcc/ 8Rgg	4Rf\	.	.	.	.	.	.	.	.	.	.	.	.	.	.
.	.	.	.	.	.	6A^	.	.	.	.	.	.	.	.	.	.	.	.	.	.	.	.	.	.	.	6a 6ee	.	.	.
.	.	.	.	.	.	.	.	16fLL	.	8DJ	.	8B-J	.	8Ra/J 8Rgg	.	.	.	.	.	.	.	.	.	.	.	.	.	16fLL	.
.	.	.	.	.	.	.	.	16gJJ	.	.	.	.	.	.	.	.	.	.	.	.	.	.	.	.	.	.	.	16gJJ	.
=20	=20	=20	=20	=20	=20	=20	=20	=20	=20	=20	=20	=20	=20	=20	=20	=20	=20	=20	=20	=20	=20	=20	=20	=20	=20	=20	=20	=20	=20
1r	.	1r	.	1r	.	4d	mp	8aL	<	8FL	<	8GL	.	8Rgg/L	4Rf\	<	1r	.	1r	.	1r	.	1r	.	2AA 2C 2F	4c	.	8aL	<
.	.	.	.	.	.	.	.	8g	.	8D	.	8G	.	8Rgg/	.	.	.	.	.	.	.	.	.	.	.	.	.	8g	.
.	.	.	.	.	.	4c	.	8g	.	8E	.	8A	.	8Ra/ 8Rgg	4Rf\	.	.	.	.	.	.	.	.	.	.	4g	.	8g	.
.	.	.	.	.	.	.	.	8fJ	.	8FJ	.	8AJ	.	8Rgg/J	.	.	.	.	.	.	.	.	.	.	.	.	.	8fJ	.
.	.	.	.	.	.	4B-	.	8fL	.	8EL	.	8B-L	.	8Ra/L 8Rgg	4Rf\	.	.	.	.	.	.	.	.	.	2BB- 2D 2G	4d	.	8fL	.
.	.	.	.	.	.	.	.	8d	.	8F	.	8B-	.	8Ra/ 8Rgg	.	.	.	.	.	.	.	.	.	.	.	.	.	8d	.
.	.	.	.	.	.	[4c	.	8a	.	8G	.	8c	.	8Ra/ 8Rgg	4Rf\	.	.	.	.	.	.	.	.	.	.	4a	.	8a	.
.	.	.	.	.	.	.	.	[8gJ	.	8B-J	.	8dJ	.	8Ra/J 8Raa	.	.	.	.	.	.	.	.	.	.	.	.	.	[8gJ	.
=21	=21	=21	=21	=21	=21	=21	=21	=21	=21	=21	=21	=21	=21	=21	=21	=21	=21	=21	=21	=21	=21	=21	=21	=21	=21	=21	=21	=21	=21
1r	.	1r	.	1r	.	8cL]	.	8gL]	.	2.A	.	[4e	.	8Ra/L 8Rgg	4Rf\	[ mf	1r	.	1r	.	1r	.	1r	.	4C 4F 4A	8aL	.	8gL]	.
.	.	.	.	.	.	[8AJ	.	8aJ	.	.	.	.	.	8Ra/ 8Rgg	.	.	.	.	.	.	.	.	.	.	.	8g	.	8aJ	.
.	.	.	.	.	.	4A_	.	16gLL	.	.	.	8eL]	.	8Ra/ 8Raa	4Rf\	.	.	.	.	.	.	.	.	.	16CLL	8f	.	16gLL	.
.	.	.	.	.	.	.	.	16fJJ	.	.	.	.	.	.	.	.	.	.	.	.	.	.	.	.	16F	.	.	16fJJ	.
.	.	.	.	.	.	.	.	4.e	.	.	.	[8fJ	.	8Ra/J	.	.	.	.	.	.	.	.	.	.	16G	8eJ	.	4.e	.
.	.	.	.	.	.	.	.	.	.	.	.	.	.	.	.	.	.	.	.	.	.	.	.	.	16AJJ	.	.	.	.
.	.	.	.	.	.	8AL]	.	.	.	.	.	4f]	.	8Raa/L	4Rf\	.	.	.	.	.	.	.	.	.	16ALL	16ccLL	.	.	.
.	.	.	.	.	.	.	.	.	.	.	.	.	.	.	.	.	.	.	.	.	.	.	.	.	16G	16ff	.	.	.
.	.	.	.	.	.	8eJ	.	.	.	.	.	.	.	16Ra/L	.	.	.	.	.	.	.	.	.	.	16F	16gg	.	.	.
.	.	.	.	.	.	.	.	.	.	.	.	.	.	16Ra/JJ	.	.	.	.	.	.	.	.	.	.	16EJJ	16aaJJ	.	.	.
.	.	.	.	.	.	16fLL	.	16fLL	[ fff	4C	[ mf	4d	.	16Ra/LL 16Raa	4Rf\	.	.	.	.	.	.	.	.	.	8FL 8A 8c	4ccc	[ f	16fLL	[ fff
.	.	.	.	.	.	16g	.	16e	.	.	.	.	.	16Ra/J	.	.	.	.	.	.	.	.	.	.	.	.	.	16e	.
.	.	.	.	.	.	16a	.	16f	.	.	.	.	.	8Ra/J	.	.	.	.	.	.	.	.	.	.	8EJ 8A	.	.	16f	.
.	.	.	.	.	.	16b-JJ	.	16gJJ	.	.	.	.	.	.	.	.	.	.	.	.	.	.	.	.	.	.	.	16gJJ	.
=22	=22	=22	=22	=22	=22	=22	=22	=22	=22	=22	=22	=22	=22	=22	=22	=22	=22	=22	=22	=22	=22	=22	=22	=22	=22	=22	=22	=22	=22
1r	.	1r	.	1r	.	4cc	.	4f	.	4F	.	8fL	.	8Ra/L 8Raa	4Rf\	f	1Re	.	4Re\	p	1r	.	1r	.	4D 4F 4B-	2d 2a	.	4f	.
.	.	.	.	.	.	.	.	.	.	.	.	8f	.	8Ra/	.	.	.	.	.	.	.	.	.	.	.	.	.	.	.
.	.	.	.	.	.	16fLL	.	16fLL	.	4C	.	8f	.	8Rcc/ 8Rgg	4Rf\	.	.	.	4Re\	.	.	.	.	.	4E 4G 4B-	.	.	16fLL	.
.	.	.	.	.	.	16g	.	16e	.	.	.	.	.	.	.	.	.	.	.	.	.	.	.	.	.	.	.	16e	.
.	.	.	.	.	.	16a	.	16f	.	.	.	8fJ	.	8Ra/J	.	.	.	.	.	.	.	.	.	.	.	.	.	16f	.
.	.	.	.	.	.	16b-JJ	.	16gJJ	.	.	.	.	.	.	.	.	.	.	.	.	.	.	.	.	.	.	.	16gJJ	.
.	.	.	.	.	.	4cc	.	4f	.	4F	.	8dL	.	8Ra/L	4Rf\	.	.	.	4Re\	.	.	.	.	.	4C 4F 4A	2a 2cc	.	4f	.
.	.	.	.	.	.	.	.	.	.	.	.	8d	.	8Ra/	.	.	.	.	.	.	.	.	.	.	.	.	.	.	.
.	.	.	.	.	.	16fLL	.	16fLL	.	8CL	.	8d	.	8Rcc/ 8Rgg	4Rf\	.	.	.	4Re\	.	.	.	.	.	4C 4E 4G	.	.	16fLL	.
.	.	.	.	.	.	16g	.	16e	.	.	.	.	.	.	.	.	.	.	.	.	.	.	.	.	.	.	.	16e	.
.	.	.	.	.	.	16a	.	16f	.	8EJ	.	8dJ	.	8Ra/J	.	.	.	.	.	.	.	.	.	.	.	.	.	16f	.
.	.	.	.	.	.	16ccJJ	.	16gJJ	.	.	.	.	.	.	.	.	.	.	.	.	.	.	.	.	.	.	.	16gJJ	.
=23	=23	=23	=23	=23	=23	=23	=23	=23	=23	=23	=23	=23	=23	=23	=23	=23	=23	=23	=23	=23	=23	=23	=23	=23	=23	=23	=23	=23	=23
1r	.	1r	.	1r	.	[8fL	.	8aL	.	[8CL	.	8dL	.	8Ra/L	4Rf\	.	1r	.	4Re\	.	1r	.	1r	.	2AA 2C 2F	[8aL [8cc	.	8aL	.
.	.	.	.	.	.	16fL]	.	16b-L	.	16CL]	.	16dL	.	8Ra/	.	.	.	.	.	.	.	.	.	.	.	16aL] 16cc]	.	16b-L	.
.	.	.	.	.	.	[16gJJ	.	[16gJJ	.	[16FJJ	.	16dJJ	.	.	.	.	.	.	.	.	.	.	.	.	.	[16gJJ [16b-	.	[16gJJ	.
.	.	.	.	.	.	8gL]	.	8gL]	.	8FL]	.	8cL	.	8Rcc/ 8Rgg	4Rf\	.	.	.	4Re\	.	.	.	.	.	.	8gL] 8b-]	.	8gL]	.
.	.	.	.	.	.	8aJ	.	8fJ	.	8AJ	.	8B-J	.	8Ra/J	.	.	.	.	.	.	.	.	.	.	.	8fJ 8a	.	8fJ	.
.	.	.	.	.	.	4.cc	.	4.a	.	4.c	.	8AL	.	8Ra/L	4Rf\	.	.	.	4Re\	.	.	.	.	.	[8CL	[4d [4f [4a	.	4.a	.
.	.	.	.	.	.	.	.	.	.	.	.	8AJ	.	8Ra/	.	.	.	.	.	.	.	.	.	.	16CL]	.	.	.	.
.	.	.	.	.	.	.	.	.	.	.	.	.	.	.	.	.	.	.	.	.	.	.	.	.	[16BB-JJ	.	.	.	.
.	.	.	.	.	.	.	.	.	.	.	.	8GL	.	8Rcc/ 8Rgg	4Rf\	.	.	.	4Re\	.	.	.	.	.	8BB-L]	16dLL] 16f] 16a]	.	.	.
.	.	.	.	.	.	.	.	.	.	.	.	.	.	.	.	.	.	.	.	.	.	.	.	.	.	16a	.	.	.
.	.	.	.	.	.	16fLL	.	16aLL	.	8F	.	16cL	.	8Ra/J	.	.	.	.	.	.	.	.	.	.	8AAJ	16a	.	16aLL	.
.	.	.	.	.	.	16gJJ	.	16b-JJ	.	.	.	16eJJ	.	.	.	.	.	.	.	.	.	.	.	.	.	16b-JJ	.	16b-JJ	.
=24	=24	=24	=24	=24	=24	=24	=24	=24	=24	=24	=24	=24	=24	=24	=24	=24	=24	=24	=24	=24	=24	=24	=24	=24	=24	=24	=24	=24	=24
1r	.	1r	.	1r	.	8aL	.	8ccL	.	[8dL	.	8fL	.	8Ra/L	4Rf\	.	1r	.	4Re\	.	1r	.	1r	.	8.DL 8.G 8.B-	16ffLL	.	8ccL	.
.	.	.	.	.	.	.	.	.	.	.	.	.	.	.	.	.	.	.	.	.	.	.	.	.	.	16ee	.	.	.
.	.	.	.	.	.	16aL	.	16ccL	.	16dL]	.	16fL	.	8Ra/	.	.	.	.	.	.	.	.	.	.	.	16dd	.	16ccL	.
.	.	.	.	.	.	[16aJJ	.	[16ccJJ	.	[16cJJ	.	16fJJ	.	.	.	.	.	.	.	.	.	.	.	.	16FJk 16A	16ccJJ	.	[16ccJJ	.
.	.	.	.	.	.	8aL]	.	8ccL]	.	8cL]	.	8gL	.	8Rcc/ 8Rgg	4Rf\	.	.	.	4Re\	.	.	.	.	.	8GL 8c	16b-LL	.	8ccL]	.
.	.	.	.	.	.	.	.	.	.	.	.	.	.	.	.	.	.	.	.	.	.	.	.	.	.	16a	.	.	.
.	.	.	.	.	.	8b-J	.	8ddJ	.	8B-J	.	8fJ	.	8Ra/J	.	.	.	.	.	.	.	.	.	.	8FJ 8B-	16b-	.	8ddJ	.
.	.	.	.	.	.	.	.	.	.	.	.	.	.	.	.	.	.	.	.	.	.	.	.	.	.	16ddJJ	.	.	.
.	.	.	.	.	.	4a	.	8ccL	.	8cL	.	8eL	.	8Ra/L	4Rf\	.	.	.	4Re\	.	.	.	.	.	8FL 8A	8ccL	.	8ccL	.
.	.	.	.	.	.	.	.	8f	.	8B-	.	8c	.	8Ra/	.	.	.	.	.	.	.	.	.	.	8D 8G	8f	.	8f	.
.	.	.	.	.	.	8ddL	.	8ff	.	8A	.	8f	.	8Rcc/ 8Raa	4Rf\	.	.	.	4Re\	.	.	.	.	.	8C 8E 8G	8b- 8dd 8ff	.	8ff	.
.	.	.	.	.	.	[8ccJ	.	[8eeJ	.	[8B-J	.	[8eJ	.	8Ra/J 8Raa	.	.	.	.	.	.	.	.	.	.	[8AAJ [8D [8F	[8aJ [8cc [8ee	.	[8eeJ	.
=25	=25	=25	=25	=25	=25	=25	=25	=25	=25	=25	=25	=25	=25	=25	=25	=25	=25	=25	=25	=25	=25	=25	=25	=25	=25	=25	=25	=25	=25
1r	.	1r	.	1r	.	8ccL]	.	8eeL]	.	8B-L]	.	8eL]	.	8Ra/L	4Rf\	.	1r	.	4Re\	.	1r	.	1r	.	8AAL] 8D] 8F]	8aL] 8cc] 8ee]	.	8eeL]	.
.	.	.	.	.	.	8a	.	8ccJ	.	[8A	.	8dJ	.	8Ra/	.	.	.	.	.	.	.	.	.	.	8BB-J 8D	8b-J 8dd	.	8ccJ	.
.	.	.	.	.	.	8g	.	16gLL	.	8A]	.	16cLL	.	8Rcc/ 8Rgg	4Rf\	.	.	.	4Re\	.	.	.	.	.	16CLL	4a 4cc	.	16gLL	.
.	.	.	.	.	.	.	.	16ccJ	.	.	.	16B-	.	.	.	.	.	.	.	.	.	.	.	.	16F	.	.	16ccJ	.
.	.	.	.	.	.	8aJ	.	[8aJ	.	[8GJ	.	16A	.	8Ra/J	.	.	.	.	.	.	.	.	.	.	16G	.	.	[8aJ	.
.	.	.	.	.	.	.	.	.	.	.	.	16GJJ	.	.	.	.	.	.	.	.	.	.	.	.	16AJJ	.	.	.	.
.	.	.	.	.	.	16ccLL	.	4a]	.	4G]	.	8AL	.	8Ra/L 8Raa	4Rf\	.	.	.	4Re\	.	.	.	.	.	8FL	16cLL	.	4a]	.
.	.	.	.	.	.	16b-	.	.	.	.	.	.	.	.	.	.	.	.	.	.	.	.	.	.	.	16f	.	.	.
.	.	.	.	.	.	16a	.	.	.	.	.	8A	.	8Ra/J	.	.	.	.	.	.	.	.	.	.	8EJ	16g	.	.	.
.	.	.	.	.	.	16gJJ	.	.	.	.	.	.	.	.	.	.	.	.	.	.	.	.	.	.	.	16aJJ	.	.	.
.	.	.	.	.	.	16fLL	.	16fLL	.	8FL	.	8c	.	16Ra/LL 16Rcc	4Rf\	.	.	.	4Re\	.	.	.	.	.	4C 4F 4A	8ccL	.	16fLL	.
.	.	.	.	.	.	16g	.	16e	.	.	.	.	.	16Ra/	.	.	.	.	.	.	.	.	.	.	.	.	.	16e	.
.	.	.	.	.	.	16a	.	16f	.	8EJ	.	8eJ	.	16Ra/	.	.	.	.	.	.	.	.	.	.	.	8b-J	.	16f	.
.	.	.	.	.	.	16b-JJ	.	16gJJ	.	.	.	.	.	16Ra/JJ	.	.	.	.	.	.	.	.	.	.	.	.	.	16gJJ	.
=26	=26	=26	=26	=26	=26	=26	=26	=26	=26	=26	=26	=26	=26	=26	=26	=26	=26	=26	=26	=26	=26	=26	=26	=26	=26	=26	=26	=26	=26
1r	.	1r	.	1r	.	4cc	.	4f	.	4F	.	8fL	.	8Ra/L 8Raa	4Rf\	.	1r	.	4Re\	.	1r	.	1r	.	4AA 4D 4F	2d 2f 2a	.	4f	.
.	.	.	.	.	.	.	.	.	.	.	.	8f	.	8Ra/	.	.	.	.	.	.	.	.	.	.	.	.	.	.	.
.	.	.	.	.	.	16fLL	.	16fLL	.	4C	.	8f	.	8Rcc/ 8Rgg	4Rf\	.	.	.	4Re\	.	.	.	.	.	4AA 4C 4E	.	.	16fLL	.
.	.	.	.	.	.	16g	.	16e	.	.	.	.	.	.	.	.	.	.	.	.	.	.	.	.	.	.	.	16e	.
.	.	.	.	.	.	16a	.	16f	.	.	.	8fJ	.	8Ra/J	.	.	.	.	.	.	.	.	.	.	.	.	.	16f	.
.	.	.	.	.	.	16b-JJ	.	16gJJ	.	.	.	.	.	.	.	.	.	.	.	.	.	.	.	.	.	.	.	16gJJ	.
.	.	.	.	.	.	4cc	.	4.a	.	4F	.	8eL	.	8Ra/L	4Rf\	.	.	.	4Re\	.	.	.	.	.	4C 4F 4A	2e 2g 2cc	.	4.a	.
.	.	.	.	.	.	.	.	.	.	.	.	8e	.	8Ra/	.	.	.	.	.	.	.	.	.	.	.	.	.	.	.
.	.	.	.	.	.	16fLL	.	.	.	8CL	.	8e	.	8Rcc/ 8Rgg	4Rf\	.	.	.	4Re\	.	.	.	.	.	4D 4F 4A	.	.	.	.
.	.	.	.	.	.	16g	.	.	.	.	.	.	.	.	.	.	.	.	.	.	.	.	.	.	.	.	.	.	.
.	.	.	.	.	.	16a	.	16aLL	.	8EJ	.	8eJ	.	8Ra/J	.	.	.	.	.	.	.	.	.	.	.	.	.	16aLL	.
.	.	.	.	.	.	16ccJJ	.	16b-JJ	.	.	.	.	.	.	.	.	.	.	.	.	.	.	.	.	.	.	.	16b-JJ	.
=27	=27	=27	=27	=27	=27	=27	=27	=27	=27	=27	=27	=27	=27	=27	=27	=27	=27	=27	=27	=27	=27	=27	=27	=27	=27	=27	=27	=27	=27
1r	.	1r	.	1r	.	8aL	.	8ccL	.	[8FL	.	8dL	.	8Ra/L	4Rf\	.	1r	.	4Re\	.	1r	.	1r	.	2F 2A 2c	[8AL [8d	.	8ccL	.
.	.	.	.	.	.	16aL	.	16ccL	.	16FL]	.	16cL	.	8Ra/	.	.	.	.	.	.	.	.	.	.	.	16AL] 16d]	.	16ccL	.
.	.	.	.	.	.	[16gJJ	.	[16ccJJ	.	[16GJJ	.	16dJJ	.	.	.	.	.	.	.	.	.	.	.	.	.	[16dJJ [16f	.	[16ccJJ	.
.	.	.	.	.	.	8gL]	.	8ccL]	.	8GL]	.	8B-L	.	8Rcc/ 8Rgg	4Rf\	.	.	.	4Re\	.	.	.	.	.	.	8dL] 8f]	.	8ccL]	.
.	.	.	.	.	.	8fJ	.	8ccJ	.	8AJ	.	[8AJ	.	8Ra/J	.	.	.	.	.	.	.	.	.	.	.	8fJ 8a	.	8ccJ	.
.	.	.	.	.	.	8fL	.	8ccL	.	8F	.	8AL]	.	8Ra/L	4Rf\	.	.	.	4Re\	.	.	.	.	.	8EL 8G	8ccL	.	8ccL	.
.	.	.	.	.	.	8a	.	8dd	.	4E	.	8B-	.	8Ra/	.	.	.	.	.	.	.	.	.	.	8D 8F	8dd	.	8dd	.
.	.	.	.	.	.	8cc	.	8ee	.	.	.	8A	.	8Rcc/ 8Raa	4Rf\	.	.	.	4Re\	.	.	.	.	.	8AA 8C 8E	8g 8cc 8ee	.	8ee	.
.	.	.	.	.	.	[8ddJ	.	[8ffJ	.	[8C	.	8FJ	.	8Ra/J 8Raa	.	.	.	.	.	.	.	.	.	.	[8CJ [8F [8A	[8aJ [8cc [8ff	.	[8ffJ	.
=28	=28	=28	=28	=28	=28	=28	=28	=28	=28	=28	=28	=28	=28	=28	=28	=28	=28	=28	=28	=28	=28	=28	=28	=28	=28	=28	=28	=28	=28
1r	.	1r	.	1r	.	8ddL]	.	8ffL]	.	8CL]	.	8FL	.	8Ra/L	4Rf\	.	1r	.	4Re\	.	1r	.	1r	.	8CL] 8F] 8A]	8aL] 8cc] 8ff]	.	8ffL]	.
.	.	.	.	.	.	8b-	.	8dd	.	8C	.	8F	.	8Ra/	.	.	.	.	.	.	.	.	.	.	8E 8G	8b-J 8dd	.	8dd	.
.	.	.	.	.	.	8a	.	8cc	.	8D	.	8F	.	8Rcc/ 8Rgg	4Rf\	.	.	.	4Re\	.	.	.	.	.	8C 8F	4cc	.	8cc	.
.	.	.	.	.	.	8gJ	.	8b-J	.	8EJ	.	8FJ	.	8Ra/J	.	.	.	.	.	.	.	.	.	.	8CJ 8E	.	.	8b-J	.
.	.	.	.	.	.	8a	.	8ccL	.	4F	.	8AL	.	8Ra/L	4Rf\	.	.	.	4Re\	.	.	.	.	.	4AA 4D	8aL	.	8ccL	.
.	.	.	.	.	.	4f	.	16fL	.	.	.	8A	.	8Ra/	.	.	.	.	.	.	.	.	.	.	.	8ddJ	.	16fL	.
.	.	.	.	.	.	.	.	[16fJJ	.	.	.	.	.	.	.	.	.	.	.	.	.	.	.	.	.	.	.	[16fJJ	.
.	.	.	.	.	.	.	.	8fL]	.	4BB-	.	8B-	.	8Rcc/ 8Rgg	4Rf\	.	.	.	4Re\	.	.	.	.	.	4C 4F	4f 4a 4cc	.	8fL]	.
.	.	.	.	.	.	8d	.	8fJ	.	.	.	8cJ	.	8Ra/J	.	.	.	.	.	.	.	.	.	.	.	.	.	8fJ	.
=29	=29	=29	=29	=29	=29	=29	=29	=29	=29	=29	=29	=29	=29	=29	=29	=29	=29	=29	=29	=29	=29	=29	=29	=29	=29	=29	=29	=29	=29
1r	.	1r	.	1r	.	8.cL	.	8gL	.	8GL	.	8AL	.	8Ra/L	4Rf\	.	1r	.	4Re\	.	1r	.	1r	.	4.AA 4.C 4.E	4.cc 4.ee	.	8gL	.
.	.	.	.	.	.	.	.	16aL	.	16FL	.	16AL	.	8Ra/	.	.	.	.	.	.	.	.	.	.	.	.	.	16aL	.
.	.	.	.	.	.	8.f	.	[16b-JJ	.	[16EJJ	.	16B-JJ	.	.	.	.	.	.	.	.	.	.	.	.	.	.	.	[16b-JJ	.
.	.	.	.	.	.	.	.	16b-LL]	.	8EL]	.	16cLL	.	8Rcc/ 8Rgg	4Rf\	.	.	.	4Re\	.	.	.	.	.	.	.	.	16b-LL]	.
.	.	.	.	.	.	.	.	16aJ	.	.	.	16B-	.	.	.	.	.	.	.	.	.	.	.	.	.	.	.	16aJ	.
.	.	.	.	.	.	[8eJ	.	[8aJ	.	8CJ	.	16A	.	8Ra/J 8Raa	.	.	.	.	.	.	.	.	.	.	4.AA 4.D 4.F	4.dd 4.ff	.	[8aJ	.
.	.	.	.	.	.	.	.	.	.	.	.	16GJJ	.	.	.	.	.	.	.	.	.	.	.	.	.	.	.	.	.
.	.	.	.	.	.	4.e]	.	4.a]	.	[8FL	.	[8AL	.	8Ra/L	4Rf\	.	.	.	4Re\	.	.	.	.	.	.	.	.	4.a]	.
.	.	.	.	.	.	.	.	.	.	16FL]	.	16AL]	.	8Ra/J	.	.	.	.	.	.	.	.	.	.	.	.	.	.	.
.	.	.	.	.	.	.	.	.	.	[16EJJ	.	[16B-JJ	.	.	.	.	.	.	.	.	.	.	.	.	.	.	.	.	.
.	.	.	.	.	.	.	.	.	.	8EL]	.	8B-L]	.	16Ra/LL 16Rgg	4Rf\	.	.	.	4Re\	.	.	.	.	.	8AAL 8C 8F	8cL 8f	.	.	.
.	.	.	.	.	.	.	.	.	.	.	.	.	.	16Ra/	.	.	.	.	.	.	.	.	.	.	.	.	.	.	.
.	.	.	.	.	.	16dLL	.	16aLL	.	8CJ	.	16AL	.	16Ra/	.	.	.	.	.	.	.	.	.	.	16EL	16eL	.	16aLL	.
.	.	.	.	.	.	16gJJ	.	16gJJ	.	.	.	16GJJ	.	16Ra/JJ	.	.	.	.	.	.	.	.	.	.	16DJJ	16dJJ	.	16gJJ	.
=30	=30	=30	=30	=30	=30	=30	=30	=30	=30	=30	=30	=30	=30	=30	=30	=30	=30	=30	=30	=30	=30	=30	=30	=30	=30	=30	=30	=30	=30
1r	.	1r	.	1r	.	2cc	.	4.f	.	4D	.	8FL	.	8Ra/L 8Raa	4Rf\	.	1r	.	4Re\	.	1r	.	1r	.	2FF 2AA 2C	8c	.	4.f	.
.	.	.	.	.	.	.	.	.	.	.	.	8F	.	8Ra/	.	.	.	.	.	.	.	.	.	.	.	4d 4f	.	.	.
.	.	.	.	.	.	.	.	.	.	4BB-	.	8F	.	8Rcc/ 8Rgg	4Rf\	.	.	.	4Re\	.	.	.	.	.	.	.	.	.	.
.	.	.	.	.	.	.	.	8f	.	.	.	8FJ	.	8Ra/J	.	.	.	.	.	.	.	.	.	.	.	8a 8cc	.	8f	.
.	.	.	.	.	.	2b-	.	8gL	.	4C	.	8GL	.	8Ra/L 8Raa	4Rf\	.	.	.	4Re\	.	.	.	.	.	2GG 2C	4f 4b-	.	8gL	.
.	.	.	.	.	.	.	.	8fJ	.	.	.	8A	.	8Ra/J	.	.	.	.	.	.	.	.	.	.	.	.	.	8fJ	.
.	.	.	.	.	.	.	.	4e	.	4D	.	8B-	.	4Rcc/ 4Rgg	4Rf\	.	.	.	4Re\	.	.	.	.	.	.	4e 4g	.	4e	.
.	.	.	.	.	.	.	.	.	.	.	.	8GJ	.	.	.	.	.	.	.	.	.	.	.	.	.	.	.	.	.
*	*	*	*	*	*	*	*	*	*	*	*	*	*	*v	*v	*	*	*	*	*	*	*	*	*	*	*	*	*	*
=31	=31	=31	=31	=31	=31	=31	=31	=31	=31	=31	=31	=31	=31	=31	=31	=31	=31	=31	=31	=31	=31	=31	=31	=31	=31	=31	=31	=31
1r	.	1r	.	1r	.	2a	.	2f	.	2F	.	2A	.	4Rf\	.	1r	.	4Re\	.	1r	.	1r	.	2FF 2C	4f 4a	.	2f	.
.	.	.	.	.	.	.	.	.	.	.	.	.	.	4r	.	.	.	4r	.	.	.	.	.	.	4A	.	.	.
.	.	.	.	.	.	4.g	.	4.e	.	8FL	.	4G	.	2r	.	.	.	2r	.	.	.	.	.	4C 4E	4.e 4.g	.	4.e	.
.	.	.	.	.	.	.	.	.	.	8D	.	.	.	.	.	.	.	.	.	.	.	.	.	.	.	.	.	.
.	.	.	.	.	.	.	.	.	.	8C	.	8FL	.	.	.	.	.	.	.	.	.	.	.	8FL	.	.	.	.
.	.	.	.	.	.	[8f	.	[8c	>	[8CJ	.	[8EJ	.	.	.	.	.	.	.	.	.	.	.	[8CJ	[8c [8f [8a	.	[8c	>
=32	=32	=32	=32	=32	=32	=32	=32	=32	=32	=32	=32	=32	=32	=32	=32	=32	=32	=32	=32	=32	=32	=32	=32	=32	=32	=32	=32	=32
2r	.	2r	.	2r	.	2f]	<	1c]	]]	8C]	.	8EL]	.	8r	p	1r	.	1r	.	1r	.	1r	.	1C]	1c] 1f] 1a]	.	1c]	]]
.	.	.	.	.	.	.	.	.	.	4.BB-	mf	8B-	mf	8Rgg/	.	.	.	.	.	.	.	.	.	.	.	.	.	.
.	.	.	.	.	.	.	.	.	.	.	.	8F	.	8r	.	.	.	.	.	.	.	.	.	.	.	.	.	.
.	.	.	.	.	.	.	.	.	.	.	.	8GJ	.	8r	.	.	.	.	.	.	.	.	.	.	.	.	.	.
2r	.	2r	.	2r	.	4ee	.	.	.	2C	>]	2A	>]	8Rgg/	.	.	.	.	.	.	.	.	.	.	.	.	.	.
.	.	.	.	.	.	.	.	.	.	.	.	.	.	8r	.	.	.	.	.	.	.	.	.	.	.	.	.	.
.	.	.	.	.	.	4aa	[[	.	.	.	.	.	.	8r	.	.	.	.	.	.	.	.	.	.	.	.	.	.
.	.	.	.	.	.	.	.	.	.	.	.	.	.	16Rgg/LL	.	.	.	.	.	.	.	.	.	.	.	.	.	.
.	.	.	.	.	.	.	.	.	.	.	.	.	.	16Rgg/JJ	.	.	.	.	.	.	.	.	.	.	.	.	.	.
=33||	=33||	=33||	=33||	=33||	=33||	=33||	=33||	=33||	=33||	=33||	=33||	=33||	=33||	=33||	=33||	=33||	=33||	=33||	=33||	=33||	=33||	=33||	=33||	=33||	=33||	=33||	=33||	=33||
*k[f#c#]	*	*k[f#c#]	*	*k[f#c#]	*	*k[f#c#]	*	*k[f#c#]	*	*k[f#c#]	*	*k[f#c#]	*	*	*	*	*	*	*	*k[f#c#]	*	*k[f#c#]	*	*k[f#c#]	*k[f#c#]	*	*k[f#c#]	*
2E	p	2G	p	4g	p	4bb	mp	4bb	mf	2B	p	2E	p	4Ra/ 4Rgg	.	1r	.	4Re\	.	2dd	p	2dd	mf	1r	1r	.	4bb	mf
.	.	.	.	4f#	.	4bb	.	4ddd	.	.	.	.	.	8Rgg/L	.	.	.	4r	.	.	.	.	.	.	.	.	4ddd	.
.	.	.	.	.	.	.	.	.	.	.	.	.	.	16Rgg/L	.	.	.	.	.	.	.	.	.	.	.	.	.	.
.	.	.	.	.	.	.	.	.	.	.	.	.	.	16Rgg/JJ	.	.	.	.	.	.	.	.	.	.	.	.	.	.
2AA	.	2E	.	4e	.	4aa	.	4ccc#	.	2A	.	2C#	.	4Ra/ 4Rgg	.	.	.	4Re\	.	2cc#	.	2cc#	.	.	.	.	4ccc#	.
.	.	.	.	4d	.	8ggL	.	8bbL	.	.	.	.	.	8Rgg/L	.	.	.	4r	.	.	.	.	.	.	.	.	8bbL	.
.	.	.	.	.	.	8aaJ	.	8aaJ	.	.	.	.	.	8Rgg/J	.	.	.	.	.	.	.	.	.	.	.	.	8aaJ	.
=34	=34	=34	=34	=34	=34	=34	=34	=34	=34	=34	=34	=34	=34	=34	=34	=34	=34	=34	=34	=34	=34	=34	=34	=34	=34	=34	=34	=34
2E	.	2G	.	8eL	.	8bbL	.	8ggL	.	4.G	.	4.BB	.	8Ra/L 8Rgg	.	1r	.	8Re\	.	4.b	.	4.b	.	1r	1r	.	8ggL	.
.	.	.	.	8d	.	8aa	.	8dd	.	.	.	.	.	8Rgg/	.	.	.	8r	.	.	.	.	.	.	.	.	8dd	.
.	.	.	.	8B	.	8gg	.	8ee	.	.	.	.	.	8Rgg/	.	.	.	8r	.	.	.	.	.	.	.	.	8ee	.
.	.	.	.	[8AJ	.	[8ff#J	.	[8aaJ	.	[8F#	.	[8AA	.	8Ra/J 8Rgg	.	.	.	8Re\	.	[8a	.	[8a	.	.	.	.	[8aaJ	.
2D	.	2D	.	2A]	>]	2ff#]	>]	2aa]	>]	2F#]	.	2AA]	.	2r	.	.	.	2r	.	2a]	.	2a]	.	.	.	.	2aa]	>]
=35	=35	=35	=35	=35	=35	=35	=35	=35	=35	=35	=35	=35	=35	=35	=35	=35	=35	=35	=35	=35	=35	=35	=35	=35	=35	=35	=35	=35
[2.D~	>	[2.FF#~	>	[2.d~	p >	[2.f#~	p >	[2.dd~	mp	2F#	.	2FF#	.	1r	.	1r	.	1r	.	1r	.	1r	.	1r	1r	.	[2.dd~	mp
.	.	.	.	.	.	.	.	.	.	2D	.	4.AA	.	.	.	.	.	.	.	.	.	.	.	.	.	.	.	.
8DL]	.	8FF#L]	.	8dL]	.	8f#L]	.	8ddL]	.	.	.	.	.	.	.	.	.	.	.	.	.	.	.	.	.	.	8ddL]	.
8BJ	]]	8BBJ	]]	8BJ	]]	8dJ	]]	8bJ	.	.	.	8D	.	.	.	.	.	.	.	.	.	.	.	.	.	.	8bJ	.
=36	=36	=36	=36	=36	=36	=36	=36	=36	=36	=36	=36	=36	=36	=36	=36	=36	=36	=36	=36	=36	=36	=36	=36	=36	=36	=36	=36	=36
1A~	pp	1E~	pp	1A~	pp	1e~	pp	[2.a~	.	2..E	.	2..E	.	2r	.	1r	.	1r	.	1r	.	1r	.	1r	1r	.	[2.a~	.
.	.	.	.	.	.	.	.	.	.	.	.	.	.	8r	.	.	.	.	.	.	.	.	.	.	.	.	.	.
.	.	.	.	.	.	.	.	.	.	.	.	.	.	16Rgg/LL	p	.	.	.	.	.	.	.	.	.	.	.	.	.
.	.	.	.	.	.	.	.	.	.	.	.	.	.	16Rgg/JJ	.	.	.	.	.	.	.	.	.	.	.	.	.	.
.	.	.	.	.	.	.	.	8aL]	.	.	.	.	.	4Rgg/	.	.	.	.	.	.	.	.	.	.	.	.	8aL]	.
.	.	.	.	.	.	.	.	8dJ	mf	8AA	.	8A	.	.	.	.	.	.	.	.	.	.	.	.	.	.	8dJ	mf
=37	=37	=37	=37	=37	=37	=37	=37	=37	=37	=37	=37	=37	=37	=37	=37	=37	=37	=37	=37	=37	=37	=37	=37	=37	=37	=37	=37	=37
*	*	*	*	*	*	*	*	*	*	*	*	*	*	*^	*	*	*	*	*	*	*	*	*	*	*	*	*	*
1r	.	1r	.	1r	.	1r	.	8eL	.	16D'LL	pp	16F#'LL	pp	16Ra/LL 16Rgg	2Rf\	pp	1r	.	1r	.	1r	.	1r	.	1r	1r	.	8eL	.
.	.	.	.	.	.	.	.	.	.	16D'	.	16F#'	.	16Rgg/	.	.	.	.	.	.	.	.	.	.	.	.	.	.	.
.	.	.	.	.	.	.	.	16dL	.	16D'	.	16F#'	.	16Rgg/	.	.	.	.	.	.	.	.	.	.	.	.	.	16dL	.
.	.	.	.	.	.	.	.	[16dJJ	.	16D'JJ	.	16F#'JJ	.	16Rgg/JJ	.	.	.	.	.	.	.	.	.	.	.	.	.	[16dJJ	.
.	.	.	.	.	.	.	.	8dL]	.	16D'LL	.	16F#'LL	.	16Ra/LL 16Rgg	.	.	.	.	.	.	.	.	.	.	.	.	.	8dL]	.
.	.	.	.	.	.	.	.	.	.	16D'	.	16F#'	.	16Rgg/	.	.	.	.	.	.	.	.	.	.	.	.	.	.	.
.	.	.	.	.	.	.	.	8dJ	.	16D'	.	16F#'	.	16Rgg/	.	.	.	.	.	.	.	.	.	.	.	.	.	8dJ	.
.	.	.	.	.	.	.	.	.	.	16D'JJ	.	16F#'JJ	.	16Ra/JJ 16Rgg	.	.	.	.	.	.	.	.	.	.	.	.	.	.	.
.	.	.	.	.	.	.	.	8eL	.	16BB'LL	.	16D'LL	.	16Ra/LL 16Rgg	2Rf\	.	.	.	.	.	.	.	.	.	.	.	.	8eL	.
.	.	.	.	.	.	.	.	.	.	16BB'	.	16D'	.	16Rgg/	.	.	.	.	.	.	.	.	.	.	.	.	.	.	.
.	.	.	.	.	.	.	.	16dL	.	16BB'	.	16D'	.	16Rgg/	.	.	.	.	.	.	.	.	.	.	.	.	.	16dL	.
.	.	.	.	.	.	.	.	[16dJJ	.	16BB'JJ	.	16D'JJ	.	16Rgg/JJ	.	.	.	.	.	.	.	.	.	.	.	.	.	[16dJJ	.
.	.	.	.	.	.	.	.	8dL]	.	16BB'LL	.	16D'LL	.	16Ra/LL 16Rgg	.	.	.	.	.	.	.	.	.	.	.	.	.	8dL]	.
.	.	.	.	.	.	.	.	.	.	16BB'	.	16D'	.	16Rgg/	.	.	.	.	.	.	.	.	.	.	.	.	.	.	.
.	.	.	.	.	.	.	.	8dJ	.	16BB'	.	16D'	.	16Rgg/	.	.	.	.	.	.	.	.	.	.	.	.	.	8dJ	.
.	.	.	.	.	.	.	.	.	.	16BB'JJ	.	16D'JJ	.	16Rgg/JJ	.	.	.	.	.	.	.	.	.	.	.	.	.	.	.
=38	=38	=38	=38	=38	=38	=38	=38	=38	=38	=38	=38	=38	=38	=38	=38	=38	=38	=38	=38	=38	=38	=38	=38	=38	=38	=38	=38	=38	=38
1r	.	1r	.	1r	.	2..r	.	8c#L	.	16C#'LL	.	16E'LL	.	16Ra/LL 16Rgg	4.Rf\	.	1r	.	1r	.	1r	.	1r	.	1r	1r	.	8c#L	.
.	.	.	.	.	.	.	.	.	.	16C#'	.	16E'	.	16Rgg/	.	.	.	.	.	.	.	.	.	.	.	.	.	.	.
.	.	.	.	.	.	.	.	16BL	.	16C#'	.	16E'	.	16Rgg/	.	.	.	.	.	.	.	.	.	.	.	.	.	16BL	.
.	.	.	.	.	.	.	.	[16BJJ	.	16C#'JJ	.	16E'JJ	.	16Rgg/JJ	.	.	.	.	.	.	.	.	.	.	.	.	.	[16BJJ	.
.	.	.	.	.	.	.	.	16BLL]	.	16C#'LL	.	16E'LL	.	16Ra/LL 16Rgg	.	.	.	.	.	.	.	.	.	.	.	.	.	16BLL]	.
.	.	.	.	.	.	.	.	16AJ	.	16C#'	.	16E'	.	16Rgg/	.	.	.	.	.	.	.	.	.	.	.	.	.	16AJ	.
.	.	.	.	.	.	.	.	[8AJ	<	16C#'	.	16E'	.	16Ra/ 16Rgg	8Rf\	.	.	.	.	.	.	.	.	.	.	.	.	[8AJ	<
.	.	.	.	.	.	.	.	.	.	16C#'JJ	.	16E'JJ	.	16Ra/JJ 16Rgg	.	.	.	.	.	.	.	.	.	.	.	.	.	.	.
.	.	.	.	.	.	.	.	4.A]	.	16FF#'LL	.	16AA'LL	.	16Ra/LL 16Rgg	2Rf\	.	.	.	.	.	.	.	.	.	.	.	.	4.A]	.
.	.	.	.	.	.	.	.	.	.	16FF#'	.	16AA'	.	16Rgg/	.	.	.	.	.	.	.	.	.	.	.	.	.	.	.
.	.	.	.	.	.	.	.	.	.	16FF#'	.	16AA'	.	16Ra/ 16Rgg	.	.	.	.	.	.	.	.	.	.	.	.	.	.	.
.	.	.	.	.	.	.	.	.	.	16FF#'JJ	.	16AA'JJ	.	16Rgg/JJ	.	.	.	.	.	.	.	.	.	.	.	.	.	.	.
.	.	.	.	.	.	.	.	.	.	16FF#'LL	.	16AA'LL	.	16Ra/LL 16Rgg	.	.	.	.	.	.	.	.	.	.	.	.	.	.	.
.	.	.	.	.	.	.	.	.	.	16FF#'	.	16AA'	.	16Rgg/	.	.	.	.	.	.	.	.	.	.	.	.	.	.	.
.	.	.	.	.	.	16BLL	p	16dLL	[ f	16FF#'	.	16AA'	.	16Rgg/	.	.	.	.	.	.	.	.	.	.	.	.	.	16dLL	[ f
.	.	.	.	.	.	16c#JJ	.	16eJJ	.	16FF#'JJ	.	16AA'JJ	.	16Rgg/JJ	.	.	.	.	.	.	.	.	.	.	.	.	.	16eJJ	.
=39	=39	=39	=39	=39	=39	=39	=39	=39	=39	=39	=39	=39	=39	=39	=39	=39	=39	=39	=39	=39	=39	=39	=39	=39	=39	=39	=39	=39	=39
1r	.	1r	.	1r	.	8dL	.	8f#L	.	16F#'LL	.	16A'LL	.	16Ra/LL 16Rgg	2Rf\	.	1r	.	1r	.	1r	.	1r	.	1r	1r	.	8f#L	.
.	.	.	.	.	.	.	.	.	.	16F#'	.	16A'	.	16Rgg/	.	.	.	.	.	.	.	.	.	.	.	.	.	.	.
.	.	.	.	.	.	16dL	.	16f#L	.	16F#'	.	16A'	.	16Rgg/	.	.	.	.	.	.	.	.	.	.	.	.	.	16f#L	.
.	.	.	.	.	.	[16dJJ	.	[16f#JJ	.	16F#'JJ	.	16A'JJ	.	16Rgg/JJ	.	.	.	.	.	.	.	.	.	.	.	.	.	[16f#JJ	.
.	.	.	.	.	.	8dL]	.	8f#L]	.	16F#'LL	.	16A'LL	.	16Ra/LL 16Rgg	.	.	.	.	.	.	.	.	.	.	.	.	.	8f#L]	.
.	.	.	.	.	.	.	.	.	.	16F#'	.	16A'	.	16Rgg/	.	.	.	.	.	.	.	.	.	.	.	.	.	.	.
.	.	.	.	.	.	8eJ	.	8gJ	.	16F#'	.	16A'	.	16Rgg/	.	.	.	.	.	.	.	.	.	.	.	.	.	8gJ	.
.	.	.	.	.	.	.	.	.	.	16F#'JJ	.	16A'JJ	.	16Ra/JJ 16Rgg	.	.	.	.	.	.	.	.	.	.	.	.	.	.	.
.	.	.	.	.	.	8d	.	8f#	.	16BB'LL	.	16D'LL	.	16Ra/LL 16Rgg	2Rf\	.	.	.	.	.	.	.	.	.	.	.	.	8f#	.
.	.	.	.	.	.	.	.	.	.	16BB'	.	16D'	.	16Rgg/	.	.	.	.	.	.	.	.	.	.	.	.	.	.	.
.	.	.	.	.	.	4B	.	4d	.	16BB'	.	16D'	.	16Rgg/	.	.	.	.	.	.	.	.	.	.	.	.	.	4d	.
.	.	.	.	.	.	.	.	.	.	16BB'JJ	.	16D'JJ	.	16Rgg/JJ	.	.	.	.	.	.	.	.	.	.	.	.	.	.	.
.	.	.	.	.	.	.	.	.	.	16BB'LL	.	16D'LL	.	16Ra/LL 16Rgg	.	.	.	.	.	.	.	.	.	.	.	.	.	.	.
.	.	.	.	.	.	.	.	.	.	16BB'	.	16D'	.	16Rgg/	.	.	.	.	.	.	.	.	.	.	.	.	.	.	.
.	.	.	.	.	.	8B	.	8d	.	16BB'	.	16D'	.	16Rgg/	.	.	.	.	.	.	.	.	.	.	.	.	.	8d	.
.	.	.	.	.	.	.	.	.	.	16BB'JJ	.	16D'JJ	.	16Rgg/JJ	.	.	.	.	.	.	.	.	.	.	.	.	.	.	.
=40	=40	=40	=40	=40	=40	=40	=40	=40	=40	=40	=40	=40	=40	=40	=40	=40	=40	=40	=40	=40	=40	=40	=40	=40	=40	=40	=40	=40	=40
1r	.	2r	.	1r	.	8AL	.	8c#L	.	16C#'LL	.	16E'LL	.	16Ra/LL 16Rgg	4.Rf\	.	1r	.	1r	.	1r	.	1r	.	1r	1r	.	8c#L	.
.	.	.	.	.	.	.	.	.	.	16C#'	.	16E'	.	16Rgg/	.	.	.	.	.	.	.	.	.	.	.	.	.	.	.
.	.	.	.	.	.	16BL	.	16dL	.	16C#'	.	16E'	.	16Rgg/	.	.	.	.	.	.	.	.	.	.	.	.	.	16dL	.
.	.	.	.	.	.	[16c#JJ	.	[16eJJ	.	16C#'JJ	.	16E'JJ	.	16Rgg/JJ	.	.	.	.	.	.	.	.	.	.	.	.	.	[16eJJ	.
.	.	.	.	.	.	16c#LL]	.	16eLL]	.	16C#'LL	.	16E'LL	.	16Ra/LL 16Rgg	.	.	.	.	.	.	.	.	.	.	.	.	.	16eLL]	.
.	.	.	.	.	.	[16AJJ	.	[16dJJ	.	16C#'	.	16E'	.	16Rgg/	.	.	.	.	.	.	.	.	.	.	.	.	.	[16dJJ	.
.	.	.	.	.	.	2A]	.	2d]	.	16C#'	.	16E'	.	16Ra/ 16Rgg	8Rf\	.	.	.	.	.	.	.	.	.	.	.	.	2d]	.
.	.	.	.	.	.	.	.	.	.	16C#'JJ	.	16E'JJ	.	16Ra/JJ 16Rgg	.	.	.	.	.	.	.	.	.	.	.	.	.	.	.
.	.	8r	.	.	.	.	.	.	.	16D'LL	.	16F#'LL	.	16Ra/LL 16Rgg	2Rf\	.	.	.	.	.	.	.	.	.	.	.	.	.	.
.	.	.	.	.	.	.	.	.	.	16D'	.	16F#'	.	16Rgg/	.	.	.	.	.	.	.	.	.	.	.	.	.	.	.
.	.	8DL	f	.	.	.	.	.	.	16D'	.	16F#'	.	16Ra/ 16Rgg	.	.	.	.	.	.	.	.	.	.	.	.	.	.	.
.	.	.	.	.	.	.	.	.	.	16D'JJ	.	16F#'JJ	.	16Rgg/JJ	.	.	.	.	.	.	.	.	.	.	.	.	.	.	.
.	.	8E	.	.	.	.	.	.	.	16D'LL	.	16F#'LL	.	16Ra/LL 16Rgg	.	.	.	.	.	.	.	.	.	.	.	.	.	.	.
.	.	.	.	.	.	.	.	.	.	16D'	.	16F#'	.	16Rgg/	.	.	.	.	.	.	.	.	.	.	.	.	.	.	.
.	.	8DJ	.	.	.	8B	.	8d	.	16D'	.	16F#'	.	16Rgg/	.	.	.	.	.	.	.	.	.	.	.	.	.	8d	.
.	.	.	.	.	.	.	.	.	.	16D'JJ	.	16F#'JJ	.	16Rgg/JJ	.	.	.	.	.	.	.	.	.	.	.	.	.	.	.
=41	=41	=41	=41	=41	=41	=41	=41	=41	=41	=41	=41	=41	=41	=41	=41	=41	=41	=41	=41	=41	=41	=41	=41	=41	=41	=41	=41	=41	=41
2.D	mf	[2A	.	1r	.	8c#L	.	8eL	.	16D'LL	.	16F#'LL	.	16Ra/LL 16Rgg	2Rf\	.	1r	.	1r	.	1r	.	1r	.	1r	1r	.	8eL	.
.	.	.	.	.	.	.	.	.	.	16D'	.	16F#'	.	16Rgg/	.	.	.	.	.	.	.	.	.	.	.	.	.	.	.
.	.	.	.	.	.	16BL	.	16dL	.	16D'	.	16F#'	.	16Rgg/	.	.	.	.	.	.	.	.	.	.	.	.	.	16dL	.
.	.	.	.	.	.	[16BJJ	.	[16dJJ	.	16D'JJ	.	16F#'JJ	.	16Rgg/JJ	.	.	.	.	.	.	.	.	.	.	.	.	.	[16dJJ	.
.	.	.	.	.	.	8BL]	.	8dL]	.	16D'LL	.	16F#'LL	.	16Ra/LL 16Rgg	.	.	.	.	.	.	.	.	.	.	.	.	.	8dL]	.
.	.	.	.	.	.	.	.	.	.	16D'	.	16F#'	.	16Rgg/	.	.	.	.	.	.	.	.	.	.	.	.	.	.	.
.	.	.	.	.	.	8BJ	.	8dJ	.	16D'	.	16F#'	.	16Rgg/	.	.	.	.	.	.	.	.	.	.	.	.	.	8dJ	.
.	.	.	.	.	.	.	.	.	.	16D'JJ	.	16F#'JJ	.	16Ra/JJ 16Rgg	.	.	.	.	.	.	.	.	.	.	.	.	.	.	.
.	.	8AL]	.	.	.	8c#L	.	8eL	.	16BB'LL	.	16D'LL	.	16Ra/LL 16Rgg	2Rf\	.	.	.	.	.	.	.	.	.	.	.	.	8eL	.
.	.	.	.	.	.	.	.	.	.	16BB'	.	16D'	.	16Rgg/	.	.	.	.	.	.	.	.	.	.	.	.	.	.	.
.	.	16dL	.	.	.	16BL	.	16dL	.	16BB'	.	16D'	.	16Rgg/	.	.	.	.	.	.	.	.	.	.	.	.	.	16dL	.
.	.	16c#JJ	.	.	.	[16BJJ	.	[16dJJ	.	16BB'JJ	.	16D'JJ	.	16Rgg/JJ	.	.	.	.	.	.	.	.	.	.	.	.	.	[16dJJ	.
4F#	.	8AL	.	.	.	8BL]	.	8dL]	.	16BB'LL	.	16D'LL	.	16Ra/LL 16Rgg	.	.	.	.	.	.	.	.	.	.	.	.	.	8dL]	.
.	.	.	.	.	.	.	.	.	.	16BB'	.	16D'	.	16Rgg/	.	.	.	.	.	.	.	.	.	.	.	.	.	.	.
.	.	8DJ	.	.	.	8BJ	.	8dJ	.	16BB'	.	16D'	.	16Rgg/	.	.	.	.	.	.	.	.	.	.	.	.	.	8dJ	.
.	.	.	.	.	.	.	.	.	.	16BB'JJ	.	16D'JJ	.	16Rgg/JJ	.	.	.	.	.	.	.	.	.	.	.	.	.	.	.
=42	=42	=42	=42	=42	=42	=42	=42	=42	=42	=42	=42	=42	=42	=42	=42	=42	=42	=42	=42	=42	=42	=42	=42	=42	=42	=42	=42	=42	=42
[4G	.	4.E	.	2r	.	8AL	.	8c#L	.	16C#'LL	.	16E'LL	.	16Ra/LL 16Rgg	4.Rf\	.	1r	.	1r	.	1r	.	1r	.	1r	1r	.	8c#L	.
.	.	.	.	.	.	.	.	.	.	16C#'	.	16E'	.	16Rgg/	.	.	.	.	.	.	.	.	.	.	.	.	.	.	.
.	.	.	.	.	.	16BL	.	16dL	.	16C#'	.	16E'	.	16Rgg/	.	.	.	.	.	.	.	.	.	.	.	.	.	16dL	.
.	.	.	.	.	.	[16c#JJ	.	[16eJJ	.	16C#'JJ	.	16E'JJ	.	16Rgg/JJ	.	.	.	.	.	.	.	.	.	.	.	.	.	[16eJJ	.
8GL]	.	.	.	.	.	8c#L]	.	8eL]	.	16C#'LL	.	16E'LL	.	16Ra/LL 16Rgg	.	.	.	.	.	.	.	.	.	.	.	.	.	8eL]	.
.	.	.	.	.	.	.	.	.	.	16C#'	.	16E'	.	16Rgg/	.	.	.	.	.	.	.	.	.	.	.	.	.	.	.
[8F#J	.	[8F#	.	.	.	[8dJ	.	[8f#J	.	16C#'	.	16E'	.	16Ra/ 16Rgg	8Rf\	.	.	.	.	.	.	.	.	.	.	.	.	[8f#J	.
.	.	.	.	.	.	.	.	.	.	16C#'JJ	.	16E'JJ	.	16Ra/JJ 16Rgg	.	.	.	.	.	.	.	.	.	.	.	.	.	.	.
4F#]	.	2F#]	.	8r	.	4.d]	.	4.f#]	.	16D'LL	.	16F#'LL	.	16Ra/LL 16Rgg	2Rf\	.	.	.	.	.	.	.	.	.	.	.	.	4.f#]	.
.	.	.	.	.	.	.	.	.	.	16D'	.	16F#'	.	16Rgg/	.	.	.	.	.	.	.	.	.	.	.	.	.	.	.
.	.	.	.	8f#L	f	.	.	.	.	16D'	.	16F#'	.	16Ra/ 16Rgg	.	.	.	.	.	.	.	.	.	.	.	.	.	.	.
.	.	.	.	.	.	.	.	.	.	16D'JJ	.	16F#'JJ	.	16Rgg/JJ	.	.	.	.	.	.	.	.	.	.	.	.	.	.	.
4B	.	.	.	8f#	.	.	.	.	.	16D'LL	.	16F#'LL	.	16Ra/LL 16Rgg	.	.	.	.	.	.	.	.	.	.	.	.	.	.	.
.	.	.	.	.	.	.	.	.	.	16D'	.	16F#'	.	16Rgg/	.	.	.	.	.	.	.	.	.	.	.	.	.	.	.
.	.	.	.	8gJ	.	16dLL	<	16f#LL	<	16D'	.	16F#'	.	16Rgg/	.	.	.	.	.	.	.	.	.	.	.	.	.	16f#LL	<
.	.	.	.	.	.	16eJJ	.	16gJJ	.	16D'JJ	.	16F#'JJ	.	16Rgg/JJ	.	.	.	.	.	.	.	.	.	.	.	.	.	16gJJ	.
=43	=43	=43	=43	=43	=43	=43	=43	=43	=43	=43	=43	=43	=43	=43	=43	=43	=43	=43	=43	=43	=43	=43	=43	=43	=43	=43	=43	=43	=43
[4A	.	[1D	>]	4.a	.	8f#L	.	8aL	.	16F#'LL	.	16A'LL	.	16Ra/LL 16Rgg	2Rf\	.	1r	.	1r	.	1r	.	1r	.	1r	1r	.	8aL	.
.	.	.	.	.	.	.	.	.	.	16F#'	.	16A'	.	16Rgg/	.	.	.	.	.	.	.	.	.	.	.	.	.	.	.
.	.	.	.	.	.	16f#L	.	16aL	.	16F#'	.	16A'	.	16Rgg/	.	.	.	.	.	.	.	.	.	.	.	.	.	16aL	.
.	.	.	.	.	.	[16f#JJ	.	[16aJJ	.	16F#'JJ	.	16A'JJ	.	16Rgg/JJ	.	.	.	.	.	.	.	.	.	.	.	.	.	[16aJJ	.
8AL]	.	.	.	.	.	8f#L]	.	8aL]	.	16F#'LL	.	16A'LL	.	16Ra/LL 16Rgg	.	.	.	.	.	.	.	.	.	.	.	.	.	8aL]	.
.	.	.	.	.	.	.	.	.	.	16F#'	.	16A'	.	16Rgg/	.	.	.	.	.	.	.	.	.	.	.	.	.	.	.
[8F#J	.	.	.	4d	.	8gJ	.	8bJ	.	16F#'	.	16A'	.	16Rgg/	.	.	.	.	.	.	.	.	.	.	.	.	.	8bJ	.
.	.	.	.	.	.	.	.	.	.	16F#'JJ	.	16A'JJ	.	16Ra/JJ 16Rgg	.	.	.	.	.	.	.	.	.	.	.	.	.	.	.
4F#]	.	.	.	.	.	8f#	.	8a	.	16BB'LL	.	16D'LL	.	16Ra/LL 16Rgg	2Rf\	.	.	.	.	.	.	.	.	.	.	.	.	8a	.
.	.	.	.	.	.	.	.	.	.	16BB'	.	16D'	.	16Rgg/	.	.	.	.	.	.	.	.	.	.	.	.	.	.	.
.	.	.	.	8AL	.	4B	.	4d	.	16BB'	.	16D'	.	16Rgg/	.	.	.	.	.	.	.	.	.	.	.	.	.	4d	.
.	.	.	.	.	.	.	.	.	.	16BB'JJ	.	16D'JJ	.	16Rgg/JJ	.	.	.	.	.	.	.	.	.	.	.	.	.	.	.
4A	.	.	.	8d	.	.	.	.	.	16BB'LL	.	16D'LL	.	16Ra/LL 16Rgg	.	.	.	.	.	.	.	.	.	.	.	.	.	.	.
.	.	.	.	.	.	.	.	.	.	16BB'	.	16D'	.	16Rgg/	.	.	.	.	.	.	.	.	.	.	.	.	.	.	.
.	.	.	.	8f#J	.	16c#LL	.	16eLL	.	16BB'	.	16D'	.	16Rgg/	.	.	.	.	.	.	.	.	.	.	.	.	.	16eLL	.
.	.	.	.	.	.	16dJJ	.	16f#JJ	.	16BB'JJ	.	16D'JJ	.	16Rgg/JJ	.	.	.	.	.	.	.	.	.	.	.	.	.	16f#JJ	.
=44	=44	=44	=44	=44	=44	=44	=44	=44	=44	=44	=44	=44	=44	=44	=44	=44	=44	=44	=44	=44	=44	=44	=44	=44	=44	=44	=44	=44	=44
2d	.	2D]	p	8gL	.	8eL	.	8gL	.	16BB'LL	.	16D'LL	.	16Ra/LL 16Rgg	4.Rf\	.	1r	.	1r	.	1r	.	1r	.	1r	1r	.	8gL	.
.	.	.	.	.	.	.	.	.	.	16BB'	.	16D'	.	16Rgg/	.	.	.	.	.	.	.	.	.	.	.	.	.	.	.
.	.	.	.	16f#L	.	16dL	.	16f#L	.	16BB'	.	16D'	.	16Rgg/	.	.	.	.	.	.	.	.	.	.	.	.	.	16f#L	.
.	.	.	.	[16eJJ	.	[16c#JJ	.	[16eJJ	.	16BB'JJ	.	16D'JJ	.	16Rgg/JJ	.	.	.	.	.	.	.	.	.	.	.	.	.	[16eJJ	.
.	.	.	.	16eLL]	.	16c#LL]	.	16eLL]	.	16BB'LL	.	16D'LL	.	16Rgg/LL	.	.	.	.	.	.	.	.	.	.	.	.	.	16eLL]	.
.	.	.	.	16dJ	.	16BJ	.	16dJ	.	16BB'J	.	16D'J	.	16Rgg/J	.	.	.	.	.	.	.	.	.	.	.	.	.	16dJ	.
.	.	.	.	8dJ	.	8BJ	.	8dJ	.	8BB'^J	mp	8D'^J	mp	8Rcc^/J 8Rgg	8Rf\	mp	.	.	.	.	.	.	.	.	.	.	.	8dJ	.
2A	.	2F#	.	8dL	.	8BL	[ mp	8dL	[ ff	8F#L	.	8BBL 8D	.	16Rcc/LL 16Raa	4Rf\	f	.	.	.	.	.	.	.	.	.	.	.	8dL	[ ff
.	.	.	.	.	.	.	.	.	.	.	.	.	.	16Ra/	.	.	.	.	.	.	.	.	.	.	.	.	.	.	.
.	.	.	.	8c#	.	8c#	.	8e	.	8F#	.	8BB 8D	.	16Ra/	.	.	.	.	.	.	.	.	.	.	.	.	.	8e	.
.	.	.	.	.	.	.	.	.	.	.	.	.	.	16Ra/JJ	.	.	.	.	.	.	.	.	.	.	.	.	.	.	.
.	.	.	.	8B	.	8d	.	8f#	.	8E	.	8AA 8C#	.	16Ra/LL	4Rf\	.	.	.	.	.	.	.	.	.	.	.	.	8f#	.
.	.	.	.	.	.	.	.	.	.	.	.	.	.	16Ra/	.	.	.	.	.	.	.	.	.	.	.	.	.	.	.
.	.	.	.	8AJ	.	8eJ	.	8gJ	.	8EJ	.	8AAJ 8C#	.	16Ra/	.	.	.	.	.	.	.	.	.	.	.	.	.	8gJ	.
.	.	.	.	.	.	.	.	.	.	.	.	.	.	16Ra/JJ	.	.	.	.	.	.	.	.	.	.	.	.	.	.	.
=45	=45	=45	=45	=45	=45	=45	=45	=45	=45	=45	=45	=45	=45	=45	=45	=45	=45	=45	=45	=45	=45	=45	=45	=45	=45	=45	=45	=45	=45
1r	.	1r	.	2A	mp	8dL	.	8f#L	.	16F#'LL	p	16AA'LL 16D	p	16Ra/LL 16Raa	4Rf\	mp	1r	.	1r	.	1r	.	1r	.	1r	1r	.	8f#L	.
.	.	.	.	.	.	.	.	.	.	16F#'	.	16AA' 16D	.	16Rgg/	.	.	.	.	.	.	.	.	.	.	.	.	.	.	.
.	.	.	.	.	.	8d	.	8f#	.	16F#'	.	16AA' 16D	.	16Rgg/	.	.	.	.	.	.	.	.	.	.	.	.	.	8f#	.
.	.	.	.	.	.	.	.	.	.	16F#'JJ	.	16AA'JJ 16D	.	16Rgg/JJ	.	.	.	.	.	.	.	.	.	.	.	.	.	.	.
.	.	.	.	.	.	8c#	.	8e	.	16F#'LL	.	16AA'LL 16C#	.	16Ra/LL 16Rgg	4Rf\	.	.	.	.	.	.	.	.	.	.	.	.	8e	.
.	.	.	.	.	.	.	.	.	.	16F#'	.	16AA' 16C#	.	16Rgg/	.	.	.	.	.	.	.	.	.	.	.	.	.	.	.
.	.	.	.	.	.	8c#J	.	8eJ	.	16F#'	.	16AA' 16C#	.	16Rgg/	.	.	.	.	.	.	.	.	.	.	.	.	.	8eJ	.
.	.	.	.	.	.	.	.	.	.	16F#'JJ	.	16AA'JJ 16C#	.	16Rgg/JJ	.	.	.	.	.	.	.	.	.	.	.	.	.	.	.
.	.	.	.	8d	.	8B	.	8d	.	16D'LL	.	16FF#'LL 16BB	.	16Ra/LL 16Rgg	4Rf\	.	.	.	.	.	.	.	.	.	.	.	.	8d	.
.	.	.	.	.	.	.	.	.	.	16D'	.	16FF#' 16BB	.	16Rgg/	.	.	.	.	.	.	.	.	.	.	.	.	.	.	.
.	.	.	.	4A	.	4A	.	4c#	.	16D'	.	16FF#' 16BB	.	16Ra/ 16Rgg	.	.	.	.	.	.	.	.	.	.	.	.	.	4c#	.
.	.	.	.	.	.	.	.	.	.	16D'JJ	.	16FF#'JJ 16BB	.	16Rgg/JJ	.	.	.	.	.	.	.	.	.	.	.	.	.	.	.
.	.	.	.	.	.	.	.	.	.	16D'LL	.	16FF#'LL 16AA	.	16Ra/LL 16Rgg	4Rf\	.	.	.	.	.	.	.	.	.	.	.	.	.	.
.	.	.	.	.	.	.	.	.	.	16D'	.	16FF#' 16AA	.	16Rgg/	.	.	.	.	.	.	.	.	.	.	.	.	.	.	.
.	.	.	.	[8G	.	[8G	.	[8B	.	16D'	.	16FF#' 16AA	.	16Ra/ 16Rgg	.	.	.	.	.	.	.	.	.	.	.	.	.	[8B	.
.	.	.	.	.	.	.	.	.	.	16D'JJ	.	16FF#'JJ 16AA	.	16Ra/JJ 16Rgg	.	.	.	.	.	.	.	.	.	.	.	.	.	.	.
=46	=46	=46	=46	=46	=46	=46	=46	=46	=46	=46	=46	=46	=46	=46	=46	=46	=46	=46	=46	=46	=46	=46	=46	=46	=46	=46	=46	=46	=46
1r	.	2r	.	8G]	.	8G]	.	8B]	.	16C#'LL	.	16EE'LL 16GG	.	16Ra/LL 16Rgg	4Rf\	.	1r	.	1r	.	1r	.	1r	.	1r	1r	.	8B]	.
.	.	.	.	.	.	.	.	.	.	16C#'	.	16EE' 16GG	.	16Rgg/	.	.	.	.	.	.	.	.	.	.	.	.	.	.	.
.	.	.	.	4.F#	.	4A	.	4A	.	16C#'	.	16EE' 16GG	.	16Rgg/	.	.	.	.	.	.	.	.	.	.	.	.	.	4A	.
.	.	.	.	.	.	.	.	.	.	16C#'JJ	.	16EE'JJ 16GG	.	16Ra/JJ 16Rgg	.	.	.	.	.	.	.	.	.	.	.	.	.	.	.
.	.	.	.	.	.	.	.	.	.	16F#'LL	.	16AA'LL 16D	.	16Ra/LL 16Rgg	4Rf\	.	.	.	.	.	.	.	.	.	.	.	.	.	.
.	.	.	.	.	.	.	.	.	.	16F#'	.	16AA' 16D	.	16Rgg/	.	.	.	.	.	.	.	.	.	.	.	.	.	.	.
.	.	.	.	.	.	8A	.	8A	.	16F#'	.	16AA' 16D	.	16Rgg/	.	.	.	.	.	.	.	.	.	.	.	.	.	8A	.
.	.	.	.	.	.	.	.	.	.	16F#'JJ	.	16AA'JJ 16D	.	16Ra/JJ 16Rgg	.	.	.	.	.	.	.	.	.	.	.	.	.	.	.
.	.	8r	.	8dL	.	8BL	.	8dL	.	16G'LL	.	16BB'LL 16E	.	16Ra/LL 16Rgg	4Rf\	.	.	.	.	.	.	.	.	.	.	.	.	8dL	.
.	.	.	.	.	.	.	.	.	.	16G'	.	16BB' 16E	.	16Rgg/	.	.	.	.	.	.	.	.	.	.	.	.	.	.	.
.	.	8GL	f	8c#	.	8c#	.	8e	.	16G'	.	16BB' 16E	.	16Ra/ 16Rgg	.	.	.	.	.	.	.	.	.	.	.	.	.	8e	.
.	.	.	.	.	.	.	.	.	.	16G'JJ	.	16BB'JJ 16E	.	16Rgg/JJ	.	.	.	.	.	.	.	.	.	.	.	.	.	.	.
.	.	8F#	.	8B	.	8d	.	8f#	.	16B'LL	.	16D'LL 16F#	.	16Ra/LL 16Rgg	4Rf\	.	.	.	.	.	.	.	.	.	.	.	.	8f#	.
.	.	.	.	.	.	.	.	.	.	16B'	.	16D' 16F#	.	16Rgg/	.	.	.	.	.	.	.	.	.	.	.	.	.	.	.
.	.	8EJ	.	8AJ	.	8eJ	.	8gJ	.	16B'	.	16D' 16F#	.	16Ra/ 16Rgg	.	.	.	.	.	.	.	.	.	.	.	.	.	8gJ	.
.	.	.	.	.	.	.	.	.	.	16B'JJ	.	16D'JJ 16F#	.	16Ra/JJ 16Rgg	.	.	.	.	.	.	.	.	.	.	.	.	.	.	.
=47	=47	=47	=47	=47	=47	=47	=47	=47	=47	=47	=47	=47	=47	=47	=47	=47	=47	=47	=47	=47	=47	=47	=47	=47	=47	=47	=47	=47	=47
2G	mp	8DL	.	2A	.	8dL	.	8f#L	.	16F#'LL	.	16AA'LL 16D	.	16Ra/LL 16Rgg	4Rf\	.	1r	.	1r	.	1r	.	1r	.	1r	1r	.	8f#L	.
.	.	.	.	.	.	.	.	.	.	16F#'	.	16AA' 16D	.	16Rgg/	.	.	.	.	.	.	.	.	.	.	.	.	.	.	.
.	.	8C#	.	.	.	8d	.	8f#	.	16F#'	.	16AA' 16D	.	16Rgg/	.	.	.	.	.	.	.	.	.	.	.	.	.	8f#	.
.	.	.	.	.	.	.	.	.	.	16F#'JJ	.	16AA'JJ 16D	.	16Rgg/JJ	.	.	.	.	.	.	.	.	.	.	.	.	.	.	.
.	.	8D	.	.	.	8c#	.	8e	.	16F#'LL	.	16AA'LL 16C#	.	16Ra/LL 16Rgg	4Rf\	.	.	.	.	.	.	.	.	.	.	.	.	8e	.
.	.	.	.	.	.	.	.	.	.	16F#'	.	16AA' 16C#	.	16Rgg/	.	.	.	.	.	.	.	.	.	.	.	.	.	.	.
.	.	[8AJ	.	.	.	8c#J	.	8eJ	.	16F#'	.	16AA' 16C#	.	16Rgg/	.	.	.	.	.	.	.	.	.	.	.	.	.	8eJ	.
.	.	.	.	.	.	.	.	.	.	16F#'JJ	.	16AA'JJ 16C#	.	16Rgg/JJ	.	.	.	.	.	.	.	.	.	.	.	.	.	.	.
4.E	.	8A]	.	8B	.	8B	.	8d	.	16D'LL	.	16FF#'LL 16BB	.	16Ra/LL 16Rgg	4Rf\	.	.	.	.	.	.	.	.	.	.	.	.	8d	.
.	.	.	.	.	.	.	.	.	.	16D'	.	16FF#' 16BB	.	16Rgg/	.	.	.	.	.	.	.	.	.	.	.	.	.	.	.
.	.	4AA	.	4c#	.	4c#	.	4c#	.	16D'	.	16FF#' 16BB	.	16Ra/ 16Rgg	.	.	.	.	.	.	.	.	.	.	.	.	.	4c#	.
.	.	.	.	.	.	.	.	.	.	16D'JJ	.	16FF#'JJ 16BB	.	16Rgg/JJ	.	.	.	.	.	.	.	.	.	.	.	.	.	.	.
.	.	.	.	.	.	.	.	.	.	16D'LL	.	16FF#'LL 16AA	.	16Ra/LL 16Rgg	4Rf\	.	.	.	.	.	.	.	.	.	.	.	.	.	.
.	.	.	.	.	.	.	.	.	.	16D'	.	16FF#' 16AA	.	16Rgg/	.	.	.	.	.	.	.	.	.	.	.	.	.	.	.
[8D	.	[8F#	.	[8c#	.	[8A	.	[8c#	.	16D'	.	16FF#' 16AA	.	16Ra/ 16Rgg	.	.	.	.	.	.	.	.	.	.	.	.	.	[8c#	.
.	.	.	.	.	.	.	.	.	.	16D'JJ	.	16FF#'JJ 16AA	.	16Ra/JJ 16Rgg	.	.	.	.	.	.	.	.	.	.	.	.	.	.	.
=48	=48	=48	=48	=48	=48	=48	=48	=48	=48	=48	=48	=48	=48	=48	=48	=48	=48	=48	=48	=48	=48	=48	=48	=48	=48	=48	=48	=48	=48
8D]	.	8F#L]	.	8c#L]	.	8A]	.	8c#]	.	16D'LL	.	16FF#'LL 16BB	.	16Ra/LL 16Rgg	4Rf\	.	1r	.	1r	.	1r	.	1r	.	1r	1r	.	8c#]	.
.	.	.	.	.	.	.	.	.	.	16D'	.	16FF#' 16BB	.	16Rgg/	.	.	.	.	.	.	.	.	.	.	.	.	.	.	.
2E	.	8GJ	.	8d	.	2B	.	2.d	.	16D'	.	16FF#' 16BB	.	16Rgg/	.	.	.	.	.	.	.	.	.	.	.	.	.	2.d	.
.	.	.	.	.	.	.	.	.	.	16D'JJ	.	16FF#'JJ 16BB	.	16Ra/JJ 16Rgg	.	.	.	.	.	.	.	.	.	.	.	.	.	.	.
.	.	4.F#	.	8c#	.	.	.	.	.	16G'LL	.	16B'LL 16d	.	16Ra/LL 16Rgg	4Rf\	.	.	.	.	.	.	.	.	.	.	.	.	.	.
.	.	.	.	.	.	.	.	.	.	16G'	.	16B' 16d	.	16Rgg/	.	.	.	.	.	.	.	.	.	.	.	.	.	.	.
.	.	.	.	8BJ	.	.	.	.	.	16G'	.	16B' 16d	.	16Rgg/	.	.	.	.	.	.	.	.	.	.	.	.	.	.	.
.	.	.	.	.	.	.	.	.	.	16G'JJ	.	16B'JJ 16d	.	16Ra/JJ 16Rgg	.	.	.	.	.	.	.	.	.	.	.	.	.	.	.
.	.	.	.	8AL	.	.	.	.	.	16F#'LL	.	16A'LL 16c#	.	16Ra/LL 16Rgg	4Rf\	.	.	.	.	.	.	.	.	.	.	.	.	.	.
.	.	.	.	.	.	.	.	.	.	16F#'	.	16A' 16c#	.	16Rgg/	.	.	.	.	.	.	.	.	.	.	.	.	.	.	.
8GL	>	8DL	>	8G	.	8dL	<	.	.	16F#'	.	16A' 16c#	.	16Ra/ 16Rgg	.	.	.	.	.	.	.	.	.	.	.	.	.	.	.
.	.	.	.	.	.	.	.	.	.	16F#'JJ	.	16A'JJ 16c#	.	16Rgg/JJ	.	.	.	.	.	.	.	.	.	.	.	.	.	.	.
8F#	.	8C#	.	8F#	.	8c#	.	.	.	16E'LL	.	16G'LL 16B	.	16Ra/LL 16Rgg	4Rf\	.	.	.	.	.	.	.	.	.	.	.	.	.	.
.	.	.	.	.	.	.	.	.	.	16E'	.	16G' 16B	.	16Rgg/	.	.	.	.	.	.	.	.	.	.	.	.	.	.	.
8DJ	]]	8AAJ	]]	8AJ	.	8AJ	[[	16dLL	.	16E'	.	16G' 16B	.	16Ra/ 16Rgg	.	.	.	.	.	.	.	.	.	.	.	.	.	16dLL	.
.	.	.	.	.	.	.	.	16eJJ	.	16E'JJ	.	16G'JJ 16B	.	16Ra/JJ 16Rgg	.	.	.	.	.	.	.	.	.	.	.	.	.	16eJJ	.
*	*	*	*	*	*	*	*	*	*	*	*	*	*	*v	*v	*	*	*	*	*	*	*	*	*	*	*	*	*	*
=49||	=49||	=49||	=49||	=49||	=49||	=49||	=49||	=49||	=49||	=49||	=49||	=49||	=49||	=49||	=49||	=49||	=49||	=49||	=49||	=49||	=49||	=49||	=49||	=49||	=49||	=49||	=49||	=49||
*k[b-]	*	*k[b-]	*	*k[b-]	*	*k[b-]	*	*k[b-]	*	*k[b-]	*	*k[b-]	*	*	*	*	*	*	*	*k[b-]	*	*k[b-]	*	*k[b-]	*k[b-]	*	*k[b-]	*
*	*	*	*	*	*	*	*	*	*	*	*	*	*	*^	*	*	*	*	*	*	*	*	*	*	*	*	*	*
1BB-	mp	1BB-	mp	1B-	mp	2B-	mp	6f	.	[2F	.	[2B-	.	16Ra^/LL 16Rgg	2Rf\	pp	1r	.	1r	.	1r	.	1r	.	1r	1r	.	6f	.
.	.	.	.	.	.	.	.	.	.	.	.	.	.	16Rgg/	.	.	.	.	.	.	.	.	.	.	.	.	.	.	.
.	.	.	.	.	.	.	.	.	.	.	.	.	.	16Rgg/	.	.	.	.	.	.	.	.	.	.	.	.	.	.	.
.	.	.	.	.	.	.	.	6e	.	.	.	.	.	.	.	.	.	.	.	.	.	.	.	.	.	.	.	6e	.
.	.	.	.	.	.	.	.	.	.	.	.	.	.	16Rgg/JJ	.	.	.	.	.	.	.	.	.	.	.	.	.	.	.
.	.	.	.	.	.	.	.	.	.	.	.	.	.	16Rgg/LL	.	.	.	.	.	.	.	.	.	.	.	.	.	.	.
.	.	.	.	.	.	.	.	.	.	.	.	.	.	16Rgg/	.	.	.	.	.	.	.	.	.	.	.	.	.	.	.
.	.	.	.	.	.	.	.	[6d	.	.	.	.	.	.	.	.	.	.	.	.	.	.	.	.	.	.	.	[6d	.
.	.	.	.	.	.	.	.	.	.	.	.	.	.	16Rgg/	.	.	.	.	.	.	.	.	.	.	.	.	.	.	.
.	.	.	.	.	.	.	.	.	.	.	.	.	.	16Ra/JJ 16Rgg	.	.	.	.	.	.	.	.	.	.	.	.	.	.	.
.	.	.	.	.	.	6f^	f	4.d]	.	4.F]	.	16B-LL]	.	16Ra/LL 16Rgg	4Rf\	.	.	.	.	.	.	.	.	.	.	.	.	4.d]	.
.	.	.	.	.	.	.	.	.	.	.	.	16G	mf	16Rgg/	.	.	.	.	.	.	.	.	.	.	.	.	.	.	.
.	.	.	.	.	.	.	.	.	.	.	.	16A	.	16Ra/ 16Rgg	.	.	.	.	.	.	.	.	.	.	.	.	.	.	.
.	.	.	.	.	.	6e^	.	.	.	.	.	.	.	.	.	.	.	.	.	.	.	.	.	.	.	.	.	.	.
.	.	.	.	.	.	.	.	.	.	.	.	16B-JJ	.	16Rgg/JJ	.	.	.	.	.	.	.	.	.	.	.	.	.	.	.
.	.	.	.	.	.	.	.	.	.	.	.	8AL	.	16Ra/LL 16Rgg	4Rf\	.	.	.	.	.	.	.	.	.	.	.	.	.	.
.	.	.	.	.	.	.	.	.	.	.	.	.	.	16Rgg/	.	.	.	.	.	.	.	.	.	.	.	.	.	.	.
.	.	.	.	.	.	6d^	.	.	.	.	.	.	.	.	.	.	.	.	.	.	.	.	.	.	.	.	.	.	.
.	.	.	.	.	.	.	.	16eLL	.	16ELL	.	16B-L	mp	16Ra^/ 16Rgg	.	.	.	.	.	.	.	.	.	.	.	.	.	16eLL	.
.	.	.	.	.	.	.	.	16fJJ	.	16DJJ	.	16cJJ	.	16Ra^/JJ 16Rgg	.	.	.	.	.	.	.	.	.	.	.	.	.	16fJJ	.
=50	=50	=50	=50	=50	=50	=50	=50	=50	=50	=50	=50	=50	=50	=50	=50	=50	=50	=50	=50	=50	=50	=50	=50	=50	=50	=50	=50	=50	=50
1C	.	1C	.	1c	.	2c	mp	6g	.	[2G	.	[2c	.	16Ra^/LL 16Rgg	2Rf\	pp	1r	.	1r	.	1r	.	1r	.	1r	1r	.	6g	.
.	.	.	.	.	.	.	.	.	.	.	.	.	.	16Rgg/	.	.	.	.	.	.	.	.	.	.	.	.	.	.	.
.	.	.	.	.	.	.	.	.	.	.	.	.	.	16Rgg/	.	.	.	.	.	.	.	.	.	.	.	.	.	.	.
.	.	.	.	.	.	.	.	6f	.	.	.	.	.	.	.	.	.	.	.	.	.	.	.	.	.	.	.	6f	.
.	.	.	.	.	.	.	.	.	.	.	.	.	.	16Rgg/JJ	.	.	.	.	.	.	.	.	.	.	.	.	.	.	.
.	.	.	.	.	.	.	.	.	.	.	.	.	.	16Rgg/LL	.	.	.	.	.	.	.	.	.	.	.	.	.	.	.
.	.	.	.	.	.	.	.	.	.	.	.	.	.	16Rgg/	.	.	.	.	.	.	.	.	.	.	.	.	.	.	.
.	.	.	.	.	.	.	.	[6e	.	.	.	.	.	.	.	.	.	.	.	.	.	.	.	.	.	.	.	[6e	.
.	.	.	.	.	.	.	.	.	.	.	.	.	.	16Rgg/	.	.	.	.	.	.	.	.	.	.	.	.	.	.	.
.	.	.	.	.	.	.	.	.	.	.	.	.	.	16Ra/JJ 16Rgg	.	.	.	.	.	.	.	.	.	.	.	.	.	.	.
.	.	.	.	.	.	6g^	f	4.e]	.	4.G]	.	16cLL]	.	16Ra/LL 16Rgg	4Rf\	.	.	.	.	.	.	.	.	.	.	.	.	4.e]	.
.	.	.	.	.	.	.	.	.	.	.	.	16B-	mf	16Rgg/	.	.	.	.	.	.	.	.	.	.	.	.	.	.	.
.	.	.	.	.	.	.	.	.	.	.	.	16c	.	16Ra/ 16Rgg	.	.	.	.	.	.	.	.	.	.	.	.	.	.	.
.	.	.	.	.	.	6f^	.	.	.	.	.	.	.	.	.	.	.	.	.	.	.	.	.	.	.	.	.	.	.
.	.	.	.	.	.	.	.	.	.	.	.	16B-JJ	.	16Rgg/JJ	.	.	.	.	.	.	.	.	.	.	.	.	.	.	.
.	.	.	.	.	.	.	.	.	.	.	.	8AL	.	16Ra/LL 16Rgg	4Rf\	.	.	.	.	.	.	.	.	.	.	.	.	.	.
.	.	.	.	.	.	.	.	.	.	.	.	.	.	16Rgg/	.	.	.	.	.	.	.	.	.	.	.	.	.	.	.
.	.	.	.	.	.	6e^	.	.	.	.	.	.	.	.	.	.	.	.	.	.	.	.	.	.	.	.	.	.	.
.	.	.	.	.	.	.	.	16fLL	<	16FLL	.	16dL	mp	16Ra^/ 16Rgg	.	.	.	.	.	.	.	.	.	.	.	.	.	16fLL	<
.	.	.	.	.	.	.	.	16gJJ	.	16EJJ	.	16eJJ	.	16Ra^/JJ 16Rgg	.	.	.	.	.	.	.	.	.	.	.	.	.	16gJJ	.
=51	=51	=51	=51	=51	=51	=51	=51	=51	=51	=51	=51	=51	=51	=51	=51	=51	=51	=51	=51	=51	=51	=51	=51	=51	=51	=51	=51	=51	=51
1G	.	1G	.	2d	mf	8fL	mf	8aL	.	8AL	.	4f	.	16Ra/LL 16Rgg	4Rf\	<	1r	.	1r	.	1r	.	1r	.	1r	1r	.	8aL	.
.	.	.	.	.	.	.	.	.	.	.	.	.	.	16Rgg/	.	.	.	.	.	.	.	.	.	.	.	.	.	.	.
.	.	.	.	.	.	8e	.	8g	.	8G	.	.	.	16Rgg/	.	.	.	.	.	.	.	.	.	.	.	.	.	8g	.
.	.	.	.	.	.	.	.	.	.	.	.	.	.	16Ra/JJ 16Rgg	.	.	.	.	.	.	.	.	.	.	.	.	.	.	.
.	.	.	.	.	.	8e	.	8g	.	8FJ	.	4e	.	16Ra/LL 16Rgg	4Rf\	.	.	.	.	.	.	.	.	.	.	.	.	8g	.
.	.	.	.	.	.	.	.	.	.	.	.	.	.	16Rgg/	.	.	.	.	.	.	.	.	.	.	.	.	.	.	.
.	.	.	.	.	.	8dJ	.	8fJ	.	4E	.	.	.	16Rgg/	.	.	.	.	.	.	.	.	.	.	.	.	.	8fJ	.
.	.	.	.	.	.	.	.	.	.	.	.	.	.	16Ra/JJ 16Rgg	.	.	.	.	.	.	.	.	.	.	.	.	.	.	.
.	.	.	.	4.c	.	8eL	.	8gL	.	.	.	8dL	.	16Ra/LL 16Rgg	4Rf\	.	.	.	.	.	.	.	.	.	.	.	.	8gL	.
.	.	.	.	.	.	.	.	.	.	.	.	.	.	16Rgg/	.	.	.	.	.	.	.	.	.	.	.	.	.	.	.
.	.	.	.	.	.	8f	.	8a	.	8EL	.	8e	.	16Ra/ 16Rgg	.	.	.	.	.	.	.	.	.	.	.	.	.	8a	.
.	.	.	.	.	.	.	.	.	.	.	.	.	.	16Rgg/JJ	.	.	.	.	.	.	.	.	.	.	.	.	.	.	.
.	.	.	.	.	.	8g	.	8b-	.	8F	.	8f	.	16Ra/LL 16Rgg	4Rf\	.	.	.	.	.	.	.	.	.	.	.	.	8b-	.
.	.	.	.	.	.	.	.	.	.	.	.	.	.	16Rgg/J	.	.	.	.	.	.	.	.	.	.	.	.	.	.	.
.	.	.	.	[8d	.	[8aJ	.	[8ccJ	.	[8GJ	.	[8gJ	.	8Ra/J 8Raa	.	.	.	.	.	.	.	.	.	.	.	.	.	[8ccJ	.
=52	=52	=52	=52	=52	=52	=52	=52	=52	=52	=52	=52	=52	=52	=52	=52	=52	=52	=52	=52	=52	=52	=52	=52	=52	=52	=52	=52	=52	=52
1E	.	1c	.	8dL]	.	8aL]	.	8ccL]	.	4G]	.	8gL]	.	8Ra/L 8Rgg	4Rf\	[ mp	1r	.	1r	.	1r	.	1r	.	1r	1r	.	8ccL]	.
.	.	.	.	16eL	.	8ddJ	.	8b-	.	.	.	16fL	.	8Ra/ 8Rgg	.	.	.	.	.	.	.	.	.	.	.	.	.	8b-	.
.	.	.	.	16fJJ	.	.	.	.	.	.	.	16eJJ	.	.	.	.	.	.	.	.	.	.	.	.	.	.	.	.	.
.	.	.	.	2.g	>]	16eeLL	f	[8gJ	.	2.c	.	[4c	.	8Rcc/ 8Raa	4Rf\	.	.	.	.	.	.	.	.	.	.	.	.	[8gJ	.
.	.	.	.	.	.	16ffJ	.	.	.	.	.	.	.	.	.	.	.	.	.	.	.	.	.	.	.	.	.	.	.
.	.	.	.	.	.	8ggJ	.	2g]	.	.	.	.	.	8Ra/J	.	.	.	.	.	.	.	.	.	.	.	.	.	2g]	.
.	.	.	.	.	.	16ffLL	.	.	.	.	.	2c]	.	8Rcc/L 8Raa	4Rf\	.	.	.	.	.	.	.	.	.	.	.	.	.	.
.	.	.	.	.	.	16gg	.	.	.	.	.	.	.	.	.	.	.	.	.	.	.	.	.	.	.	.	.	.	.
.	.	.	.	.	.	16aa	.	.	.	.	.	.	.	16Ra/L	.	.	.	.	.	.	.	.	.	.	.	.	.	.	.
.	.	.	.	.	.	16bb-JJ	.	.	.	.	.	.	.	16Ra/JJ	.	.	.	.	.	.	.	.	.	.	.	.	.	.	.
.	.	.	.	.	.	4ccc	.	.	.	.	.	.	.	24Ra/LL 24Rcc	4Rf\	.	.	.	.	.	.	.	.	.	.	.	.	.	.
.	.	.	.	.	.	.	.	.	.	.	.	.	.	24Ra/	.	.	.	.	.	.	.	.	.	.	.	.	.	.	.
.	.	.	.	.	.	.	.	.	.	.	.	.	.	24Ra/	.	.	.	.	.	.	.	.	.	.	.	.	.	.	.
.	.	.	.	.	.	.	.	16gLL	[ ff	.	.	.	.	24Ra/	.	.	.	.	.	.	.	.	.	.	.	.	.	16gLL	[ ff
.	.	.	.	.	.	.	.	.	.	.	.	.	.	24Ra/	.	.	.	.	.	.	.	.	.	.	.	.	.	.	.
.	.	.	.	.	.	.	.	16aJJ	.	.	.	.	.	.	.	.	.	.	.	.	.	.	.	.	.	.	.	16aJJ	.
.	.	.	.	.	.	.	.	.	.	.	.	.	.	24Ra/JJ	.	.	.	.	.	.	.	.	.	.	.	.	.	.	.
*	*	*	*	*	*	*	*	*	*	*	*	*	*	*v	*v	*	*	*	*	*	*	*	*	*	*	*	*	*	*
=53||	=53||	=53||	=53||	=53||	=53||	=53||	=53||	=53||	=53||	=53||	=53||	=53||	=53||	=53||	=53||	=53||	=53||	=53||	=53||	=53||	=53||	=53||	=53||	=53||	=53||	=53||	=53||	=53||
*k[f#]	*	*k[f#]	*	*k[f#]	*	*k[f#]	*	*k[f#]	*	*k[f#]	*	*k[f#]	*	*	*	*	*	*	*	*k[f#]	*	*k[f#]	*	*k[f#]	*k[f#]	*	*k[f#]	*
*	*	*	*	*	*	*	*	*	*	*	*	*	*	*^	*	*	*	*	*	*	*	*	*	*	*	*	*	*
1D	.	1G	p	1d	p	2g	mp	8.bL	.	1G	mp	2B	mp	8Ra/L 8Raa	4Rf\	p	1r	.	1r	.	1r	.	1r	.	1r	1r	.	8.bL	.
.	.	.	.	.	.	.	.	.	.	.	.	.	.	8Ra/ 8Rgg	.	.	.	.	.	.	.	.	.	.	.	.	.	.	.
.	.	.	.	.	.	.	.	16aJk	.	.	.	.	.	.	.	.	.	.	.	.	.	.	.	.	.	.	.	16aJk	.
.	.	.	.	.	.	.	.	8gL	.	.	.	.	.	8Rcc/ 8Rgg	4Rf\	.	.	.	.	.	.	.	.	.	.	.	.	8gL	.
.	.	.	.	.	.	.	.	[8ccJ	.	.	.	.	.	8Ra/J 8Rgg	.	.	.	.	.	.	.	.	.	.	.	.	.	[8ccJ	.
.	.	.	.	.	.	2f#	.	8ccL]	.	.	.	8dL	.	8Ra/L 8Rgg	4Rf\	.	.	.	.	.	.	.	.	.	.	.	.	8ccL]	.
.	.	.	.	.	.	.	.	8b	.	.	.	8d	.	8Ra/ 8Rgg	.	.	.	.	.	.	.	.	.	.	.	.	.	8b	.
.	.	.	.	.	.	.	.	8a	.	.	.	8g	.	8Rcc/ 8Rgg	4Rf\	.	.	.	.	.	.	.	.	.	.	.	.	8a	.
.	.	.	.	.	.	.	.	[8gJ	.	.	.	8gJ	.	8Ra/J 8Rgg	.	.	.	.	.	.	.	.	.	.	.	.	.	[8gJ	.
=54	=54	=54	=54	=54	=54	=54	=54	=54	=54	=54	=54	=54	=54	=54	=54	=54	=54	=54	=54	=54	=54	=54	=54	=54	=54	=54	=54	=54	=54
4.C	.	4.E	.	4.c	.	2e	.	8gL]	.	1C	.	2g	.	8Ra/L 8Raa	4Rf\	.	1r	.	1r	.	1r	.	1r	.	1r	1r	.	8gL]	.
.	.	.	.	.	.	.	.	8g	.	.	.	.	.	8Ra/ 8Rgg	.	.	.	.	.	.	.	.	.	.	.	.	.	8g	.
.	.	.	.	.	.	.	.	8f#	.	.	.	.	.	8Rcc/ 8Rgg	4Rf\	.	.	.	.	.	.	.	.	.	.	.	.	8f#	.
[8BB	.	[8D	.	[8B	.	.	.	[8dJ	.	.	.	.	.	8Ra/J 8Rgg	.	.	.	.	.	.	.	.	.	.	.	.	.	[8dJ	.
2BB]	.	2D]	.	2B]	.	8ddL	f	4.d]	.	.	.	8f#L	.	8Ra/L 8Rgg	4Rf\	.	.	.	.	.	.	.	.	.	.	.	.	4.d]	.
.	.	.	.	.	.	8cc	.	.	.	.	.	8e	.	8Ra/ 8Rgg	.	.	.	.	.	.	.	.	.	.	.	.	.	.	.
.	.	.	.	.	.	8b	.	.	.	.	.	8d	.	8Ra/ 8Raa	4Rf\	.	.	.	.	.	.	.	.	.	.	.	.	.	.
.	.	.	.	.	.	8aJ	.	16gLL	.	.	.	8cJ	.	8Ra/J 8Raa	.	.	.	.	.	.	.	.	.	.	.	.	.	16gLL	.
.	.	.	.	.	.	.	.	16aJJ	.	.	.	.	.	.	.	.	.	.	.	.	.	.	.	.	.	.	.	16aJJ	.
=55	=55	=55	=55	=55	=55	=55	=55	=55	=55	=55	=55	=55	=55	=55	=55	=55	=55	=55	=55	=55	=55	=55	=55	=55	=55	=55	=55	=55	=55
1D	.	1G	.	1G	.	4.g	mp	8.bL	.	1E	.	4.B	.	8Ra/L 8Raa	4Rf\	.	1r	.	1r	.	1r	.	1r	.	1r	1r	.	8.bL	.
.	.	.	.	.	.	.	.	.	.	.	.	.	.	8Ra/ 8Rgg	.	.	.	.	.	.	.	.	.	.	.	.	.	.	.
.	.	.	.	.	.	.	.	16aJk	.	.	.	.	.	.	.	.	.	.	.	.	.	.	.	.	.	.	.	16aJk	.
.	.	.	.	.	.	.	.	8gL	.	.	.	.	.	8Rcc/ 8Raa	4Rf\	.	.	.	.	.	.	.	.	.	.	.	.	8gL	.
.	.	.	.	.	.	[8f#	.	[8ccJ	.	.	.	4.c	.	8Ra/J 8Rgg	.	.	.	.	.	.	.	.	.	.	.	.	.	[8ccJ	.
.	.	.	.	.	.	2f#]	.	8ccL]	.	.	.	.	.	8Ra/L 8Rgg	4Rf\	.	.	.	.	.	.	.	.	.	.	.	.	8ccL]	.
.	.	.	.	.	.	.	.	8b	.	.	.	.	.	8Ra/ 8Rgg	.	.	.	.	.	.	.	.	.	.	.	.	.	8b	.
.	.	.	.	.	.	.	.	8a	.	.	.	8BL	.	8Rcc/ 8Rgg	4Rf\	.	.	.	.	.	.	.	.	.	.	.	.	8a	.
.	.	.	.	.	.	.	.	[8gJ	.	.	.	8AJ	.	8Ra/J 8Rgg	.	.	.	.	.	.	.	.	.	.	.	.	.	[8gJ	.
=56	=56	=56	=56	=56	=56	=56	=56	=56	=56	=56	=56	=56	=56	=56	=56	=56	=56	=56	=56	=56	=56	=56	=56	=56	=56	=56	=56	=56	=56
4.F#	.	4.F#	.	4.A	.	8gL	f	8gL]	.	1D	.	8GL	.	8Ra/L 8Raa	4Rf\	.	1r	.	1r	.	1r	.	1r	.	1r	1r	.	8gL]	.
.	.	.	.	.	.	8cc	.	8g	.	.	.	8A	.	8Ra/ 8Rgg	.	.	.	.	.	.	.	.	.	.	.	.	.	8g	.
.	.	.	.	.	.	8dd	.	8f#	.	.	.	8B	.	8Rcc/ 8Rgg	4Rf\	.	.	.	.	.	.	.	.	.	.	.	.	8f#	.
[8B	.	[8D	.	[8d	.	8bJ	.	[8gJ	.	.	.	8GJ	.	8Ra/J 8Rgg	.	.	.	.	.	.	.	.	.	.	.	.	.	[8gJ	.
2B]	.	2D]	.	2d]	.	8ccL	.	4.g]	.	.	.	8AL	.	8Ra/L 8Raa	4Rf\	.	.	.	.	.	.	.	.	.	.	.	.	4.g]	.
.	.	.	.	.	.	8b	.	.	.	.	.	8B	.	8Ra/ 8Rgg	.	.	.	.	.	.	.	.	.	.	.	.	.	.	.
.	.	.	.	.	.	8g	.	.	.	.	.	8c	.	8Rcc/ 8Rgg	4Rf\	.	.	.	.	.	.	.	.	.	.	.	.	.	.
.	.	.	.	.	.	8eJ	.	16gLL	.	.	.	8BJ	.	8Ra/J 8Rgg	.	.	.	.	.	.	.	.	.	.	.	.	.	16gLL	.
.	.	.	.	.	.	.	.	16gJJ	.	.	.	.	.	.	.	.	.	.	.	.	.	.	.	.	.	.	.	16gJJ	.
=57	=57	=57	=57	=57	=57	=57	=57	=57	=57	=57	=57	=57	=57	=57	=57	=57	=57	=57	=57	=57	=57	=57	=57	=57	=57	=57	=57	=57	=57
2D	.	2D	.	2G	.	2d	mf	8gL	.	2G	.	2G	.	8Ra/L 8Raa	4Rf\	.	1r	.	1r	.	1r	.	1r	.	1r	1r	.	8gL	.
.	.	.	.	.	.	.	.	16f#L	.	.	.	.	.	8Ra/ 8Rgg	.	.	.	.	.	.	.	.	.	.	.	.	.	16f#L	.
.	.	.	.	.	.	.	.	[16dJJ	.	.	.	.	.	.	.	.	.	.	.	.	.	.	.	.	.	.	.	[16dJJ	.
.	.	.	.	.	.	.	.	8dL]	.	.	.	.	.	8Rcc/ 8Rgg	4Rf\	.	.	.	.	.	.	.	.	.	.	.	.	8dL]	.
.	.	.	.	.	.	.	.	8dJ	.	.	.	.	.	8Ra/J 8Rgg	.	.	.	.	.	.	.	.	.	.	.	.	.	8dJ	.
2C	.	2E	.	2c	.	4.g	.	8c	.	2C	.	8BL	.	8Ra/L 8Rgg	4Rf\	.	.	.	.	.	.	.	.	.	.	.	.	8c	.
.	.	.	.	.	.	.	.	4d	.	.	.	8c	.	8Ra/ 8Rgg	.	.	.	.	.	.	.	.	.	.	.	.	.	4d	.
.	.	.	.	.	.	.	.	.	.	.	.	8d	.	8Rcc/ 8Rgg	4Rf\	.	.	.	.	.	.	.	.	.	.	.	.	.	.
.	.	.	.	.	.	[8cc	f	[8g	.	.	.	[8BJ	.	8Ra/J 8Raa	.	.	.	.	.	.	.	.	.	.	.	.	.	[8g	.
=58	=58	=58	=58	=58	=58	=58	=58	=58	=58	=58	=58	=58	=58	=58	=58	=58	=58	=58	=58	=58	=58	=58	=58	=58	=58	=58	=58	=58	=58
4.BB	.	4.D	.	4.B	.	8ccL]	.	8gL]	.	4.BB	.	8B]	.	8Ra/L 8Raa	4Rf\	.	1r	.	1r	.	1r	.	1r	.	1r	1r	.	8gL]	.
.	.	.	.	.	.	8b	.	8f#	.	.	.	4c	.	8Ra/ 8Rgg	.	.	.	.	.	.	.	.	.	.	.	.	.	8f#	.
.	.	.	.	.	.	8cc	.	8f#J	.	.	.	.	.	8Rcc/ 8Rgg	4Rf\	.	.	.	.	.	.	.	.	.	.	.	.	8f#J	.
[8C	.	[8C	.	[8G	.	[8bJ	.	2g	.	[8C	.	8B	.	8Ra/J 8Rgg	.	.	.	.	.	.	.	.	.	.	.	.	.	2g	.
2C]	.	2C]	.	2G]	.	16bLL]	.	.	.	2C]	.	8cL	.	8Ra/L 8Rgg	4Rf\	.	.	.	.	.	.	.	.	.	.	.	.	.	.
.	.	.	.	.	.	16aJ	.	.	.	.	.	.	.	.	.	.	.	.	.	.	.	.	.	.	.	.	.	.	.
.	.	.	.	.	.	[8gJ	.	.	.	.	.	8A	.	8Ra/ 8Rgg	.	.	.	.	.	.	.	.	.	.	.	.	.	.	.
.	.	.	.	.	.	8gL]	.	.	.	.	.	8G	.	8Rcc/ 8Raa	4Rf\	.	.	.	.	.	.	.	.	.	.	.	.	.	.
.	.	.	.	.	.	8eJ	.	16gLL	.	.	.	8EJ	.	8Ra/J 8Rgg	.	.	.	.	.	.	.	.	.	.	.	.	.	16gLL	.
.	.	.	.	.	.	.	.	16aJJ	.	.	.	.	.	.	.	.	.	.	.	.	.	.	.	.	.	.	.	16aJJ	.
*	*	*	*	*	*	*	*	*	*	*	*	*	*	*v	*v	*	*	*	*	*	*	*	*	*	*	*	*	*	*
=59||	=59||	=59||	=59||	=59||	=59||	=59||	=59||	=59||	=59||	=59||	=59||	=59||	=59||	=59||	=59||	=59||	=59||	=59||	=59||	=59||	=59||	=59||	=59||	=59||	=59||	=59||	=59||	=59||
*k[b-]	*	*k[b-]	*	*k[b-]	*	*k[b-]	*	*k[b-]	*	*k[b-]	*	*k[b-]	*	*	*	*	*	*	*	*k[b-]	*	*k[b-]	*	*k[b-]	*k[b-]	*	*k[b-]	*
*	*	*	*	*	*	*	*	*	*	*	*	*	*	*^	*	*	*	*	*	*	*	*	*	*	*	*	*	*
4.D	.	4.D	.	4.d	.	4.d	mf	8b-L	.	4.BB-	.	4.G	.	8Ra/L 8Raa	4Rf\	.	1r	.	1r	.	1r	.	1r	.	1r	1r	.	8b-L	.
.	.	.	.	.	.	.	.	8a	.	.	.	.	.	8Ra/ 8Rgg	.	.	.	.	.	.	.	.	.	.	.	.	.	8a	.
.	.	.	.	.	.	.	.	8g	.	.	.	.	.	8Rcc/ 8Rgg	4Rf\	.	.	.	.	.	.	.	.	.	.	.	.	8g	.
[8G	.	[8E	.	[8A	.	16eLL	.	[8gJ	.	[8AA	.	8B-	.	8Ra/J 8Rgg	.	.	.	.	.	.	.	.	.	.	.	.	.	[8gJ	.
.	.	.	.	.	.	16fJJ	.	.	.	.	.	.	.	.	.	.	.	.	.	.	.	.	.	.	.	.	.	.	.
2G]	.	2E]	.	2A]	.	8gL	.	4.g]	.	2AA]	.	8cL	.	8Ra/L 8Rgg	4Rf\	.	.	.	.	.	.	.	.	.	.	.	.	4.g]	.
.	.	.	.	.	.	8fJ	.	.	.	.	.	8d	.	8Ra/ 8Rgg	.	.	.	.	.	.	.	.	.	.	.	.	.	.	.
.	.	.	.	.	.	8eL	.	.	.	.	.	8B-	.	8Rcc/ 8Rgg	4Rf\	.	.	.	.	.	.	.	.	.	.	.	.	.	.
.	.	.	.	.	.	16fL	.	16fLL	.	.	.	8AJ	.	8Ra/J 8Rgg	.	.	.	.	.	.	.	.	.	.	.	.	.	16fLL	.
.	.	.	.	.	.	16eJJ	.	16gJJ	.	.	.	.	.	.	.	.	.	.	.	.	.	.	.	.	.	.	.	16gJJ	.
=60	=60	=60	=60	=60	=60	=60	=60	=60	=60	=60	=60	=60	=60	=60	=60	=60	=60	=60	=60	=60	=60	=60	=60	=60	=60	=60	=60	=60	=60
4.A	.	4.D	.	4.A	.	4.d	.	8aL	.	4.AA	.	8AL	.	8Ra/L 8Raa	4Rf\	.	1r	.	1r	.	1r	.	1r	.	1r	1r	.	8aL	.
.	.	.	.	.	.	.	.	8g	.	.	.	8G	.	8Ra/ 8Rgg	.	.	.	.	.	.	.	.	.	.	.	.	.	8g	.
.	.	.	.	.	.	.	.	8f	.	.	.	8F	.	8Rcc/ 8Rgg	4Rf\	.	.	.	.	.	.	.	.	.	.	.	.	8f	.
[8c	.	[8C	.	[8F	.	[8c	.	[8fJ	.	[8FF	.	8AJ	.	8Ra/J 8Rgg	.	.	.	.	.	.	.	.	.	.	.	.	.	[8fJ	.
8cL]	.	8CL]	.	8FL]	.	8cL]	.	8fL]	.	8FFL]	.	8B-L	.	8Ra/L 8Rgg	4Rf\	.	.	.	.	.	.	.	.	.	.	.	.	8fL]	.
[8F	.	[8AA	.	[8A	.	[8d	.	[8d	.	[8FF	.	8A	.	8Ra/ 8Rgg	.	.	.	.	.	.	.	.	.	.	.	.	.	[8d	.
8F]	.	8AA]	.	8A]	.	8d]	.	8d]	.	8FF]	.	8A	.	8Rcc/ 8Rgg	4Rf\	.	.	.	.	.	.	.	.	.	.	.	.	8d]	.
[8AJ	.	[8AAJ	.	[8AJ	.	[8cJ	.	[8cJ	.	[8AAJ	.	8FJ	.	8Ra/J 8Raa	.	.	.	.	.	.	.	.	.	.	.	.	.	[8cJ	.
=61	=61	=61	=61	=61	=61	=61	=61	=61	=61	=61	=61	=61	=61	=61	=61	=61	=61	=61	=61	=61	=61	=61	=61	=61	=61	=61	=61	=61	=61
4.A]	.	4.AA]	.	4.A]	.	8cL]	.	8cL]	.	4.AA]	.	8B-L	.	8Ra/L 8Rgg	4Rf\	.	1r	.	1r	.	1r	.	1r	.	1r	1r	.	8cL]	.
.	.	.	.	.	.	[8dJ	.	[8dJ	.	.	.	8F	.	8Ra/ 8Raa	.	.	.	.	.	.	.	.	.	.	.	.	.	[8dJ	.
.	.	.	.	.	.	2d]	>	2.d_	>	.	.	8B-	.	8Rcc/ 8Rgg	4Rf\	.	.	.	.	.	.	.	.	.	.	.	.	2.d_	>
[8D	.	[8BB-	.	[8D	.	.	.	.	.	[8BB-	.	8B-J	.	8Ra/J 8Rgg	.	.	.	.	.	.	.	.	.	.	.	.	.	.	.
2D]	.	2BB-]	.	2D]	.	.	.	.	.	2BB-]	.	8AL	.	8Ra/L 8Rgg	4Rf\	.	.	.	.	.	.	.	.	.	.	.	.	.	.
.	.	.	.	.	.	.	.	.	.	.	.	8F	.	8Ra/ 8Rgg	.	.	.	.	.	.	.	.	.	.	.	.	.	.	.
.	.	.	.	.	.	4aa	] pp p	.	.	.	.	8B-	.	8Rcc/ 8Rgg	4Rf\	.	.	.	.	.	.	.	.	.	.	.	.	.	.
.	.	.	.	.	.	.	.	.	.	.	.	8B-J	.	8Ra/J 8Rgg	.	.	.	.	.	.	.	.	.	.	.	.	.	.	.
*	*	*	*	*	*	*	*	*	*	*	*	*	*	*v	*v	*	*	*	*	*	*	*	*	*	*	*	*	*	*
=62	=62	=62	=62	=62	=62	=62	=62	=62	=62	=62	=62	=62	=62	=62	=62	=62	=62	=62	=62	=62	=62	=62	=62	=62	=62	=62	=62	=62
*k[f#]	*	*k[f#]	*	*k[f#]	*	*k[f#]	*	*k[f#]	*	*k[f#]	*	*k[f#]	*	*	*	*	*	*	*	*k[f#]	*	*k[f#]	*	*k[f#]	*k[f#]	*	*k[f#]	*
1D	.	1GG	.	1G	.	1bb	<[	1d]	]]	1D	.	1G	.	1r	.	1r	.	1r	.	1r	.	1r	.	1r	1r	.	1d]	]]
=63	=63	=63	=63	=63	=63	=63	=63	=63	=63	=63	=63	=63	=63	=63	=63	=63	=63	=63	=63	=63	=63	=63	=63	=63	=63	=63	=63	=63
1r	.	1r	.	1r	.	1r	f	1r	ppp	2c	p	8gL	.	8r	.	1r	.	1r	.	1r	.	1r	.	1r	2ee 2gg	mp >	1r	ppp
.	.	.	.	.	.	.	.	.	.	.	.	8G	.	16Rgg/LL	pp	.	.	.	.	.	.	.	.	.	.	.	.	.
.	.	.	.	.	.	.	.	.	.	.	.	.	.	16Rgg/JJ	.	.	.	.	.	.	.	.	.	.	.	.	.	.
.	.	.	.	.	.	.	.	.	.	.	.	8B	.	16Rgg/LL	.	.	.	.	.	.	.	.	.	.	.	.	.	.
.	.	.	.	.	.	.	.	.	.	.	.	.	.	16Rgg/J	.	.	.	.	.	.	.	.	.	.	.	.	.	.
.	.	.	.	.	.	.	.	.	.	.	.	8gJ	.	8Rgg/J	.	.	.	.	.	.	.	.	.	.	.	.	.	.
.	.	.	.	.	.	.	.	.	.	2B	.	8f#L	.	8r	.	.	.	.	.	.	.	.	.	.	2dd 2ff#	.	.	.
.	.	.	.	.	.	.	.	.	.	.	.	8F# 8d	.	16Rgg/LL	.	.	.	.	.	.	.	.	.	.	.	.	.	.
.	.	.	.	.	.	.	.	.	.	.	.	.	.	16Rgg/JJ	.	.	.	.	.	.	.	.	.	.	.	.	.	.
.	.	.	.	.	.	.	.	.	.	.	.	8A	.	16Rgg/LL	.	.	.	.	.	.	.	.	.	.	.	.	.	.
.	.	.	.	.	.	.	.	.	.	.	.	.	.	16Rgg/J	.	.	.	.	.	.	.	.	.	.	.	.	.	.
.	.	.	.	.	.	.	.	.	.	.	.	8dJ 8f#	.	8Rgg/J	.	.	.	.	.	.	.	.	.	.	.	.	.	.
=64	=64	=64	=64	=64	=64	=64	=64	=64	=64	=64	=64	=64	=64	=64	=64	=64	=64	=64	=64	=64	=64	=64	=64	=64	=64	=64	=64	=64
1r	.	1r	.	1r	.	1r	.	1r	.	4.A	.	8eL 8cc	.	8r	.	1r	.	1r	.	1r	.	1r	.	1r	4.a 4.cc 4.ee	.	1r	.
.	.	.	.	.	.	.	.	.	.	.	.	8G 8g	.	16Rgg/LL	.	.	.	.	.	.	.	.	.	.	.	.	.	.
.	.	.	.	.	.	.	.	.	.	.	.	.	.	16Rgg/JJ	.	.	.	.	.	.	.	.	.	.	.	.	.	.
.	.	.	.	.	.	.	.	.	.	.	.	8e 8a	.	16Rgg/LL	.	.	.	.	.	.	.	.	.	.	.	.	.	.
.	.	.	.	.	.	.	.	.	.	.	.	.	.	16Rgg/J	.	.	.	.	.	.	.	.	.	.	.	.	.	.
.	.	.	.	.	.	.	.	.	.	[8D	.	[8dJ [8b	.	8Rgg/J	.	.	.	.	.	.	.	.	.	.	[8f# [8b [8dd [8ff#	] p	.	.
.	.	.	.	.	.	.	.	.	.	2D]	.	2d] 2b]	.	2r	.	.	.	.	.	.	.	.	.	.	2f#_ 2b_ 2dd_ 2ff#_	.	.	.
=65	=65	=65	=65	=65	=65	=65	=65	=65	=65	=65	=65	=65	=65	=65	=65	=65	=65	=65	=65	=65	=65	=65	=65	=65	=65	=65	=65	=65
*	*	*	*	*	*	*	*	*	*	*	*	*	*	*^	*	*	*	*	*	*	*	*	*	*	*	*	*	*
1BB	mf	1BB	mf	1B	mf	[2b	p <	2.r	.	8BBL	mp <	8BBL	mp <	16Ra^/LL 16Rcc	4Rf\	mf <	1r	.	1r	.	1r	.	1r	.	8EEL 8GG 8BB	2f#] 2b] 2dd] 2ff#]	mf <	2.r	.
.	.	.	.	.	.	.	.	.	.	.	.	.	.	16Ra^/J	.	.	.	.	.	.	.	.	.	.	.	.	.	.	.
.	.	.	.	.	.	.	.	.	.	8E	.	8E	.	8Ra/J	.	.	.	.	.	.	.	.	.	.	8E	.	.	.	.
.	.	.	.	.	.	.	.	.	.	8G	.	8G	.	8Ra^/L 8Rcc	4Rf\	.	.	.	.	.	.	.	.	.	8D 8G	.	.	.	.
.	.	.	.	.	.	.	.	.	.	8BJ	.	8BJ	.	8Ra/J	.	.	.	.	.	.	.	.	.	.	8BJ	.	.	.	.
.	.	.	.	.	.	8bL]	.	.	.	8EL	.	8EL	.	16Ra^/LL 16Rcc	4Rf\	.	.	.	.	.	.	.	.	.	8GGL 8BB 8E	8gL	.	.	.
.	.	.	.	.	.	.	.	.	.	.	.	.	.	16Ra^/J	.	.	.	.	.	.	.	.	.	.	.	.	.	.	.
.	.	.	.	.	.	16cccL	[ mf	.	.	8G	.	8G	.	8Ra/J	.	.	.	.	.	.	.	.	.	.	8G	8bJ	.	.	.
.	.	.	.	.	.	[16bbJJ	.	.	.	.	.	.	.	.	.	.	.	.	.	.	.	.	.	.	.	.	.	.	.
.	.	.	.	.	.	4bb]	.	16gLL	fff	8B	.	8B	.	16Ra^/LL 16Rcc	4Rf\	.	.	.	.	.	.	.	.	.	8F# 8B	16ddLL	.	16gLL	fff
.	.	.	.	.	.	.	.	16f#	.	.	.	.	.	16Ra/	.	.	.	.	.	.	.	.	.	.	.	16gg	.	16f#	.
.	.	.	.	.	.	.	.	16g	.	8dJ	[[	8dJ	[[	16Ra/	.	.	.	.	.	.	.	.	.	.	8dJ	16aa	[[	16g	.
.	.	.	.	.	.	.	.	16aJJ	.	.	.	.	.	16Ra/JJ	.	.	.	.	.	.	.	.	.	.	.	16bbJJ	.	16aJJ	.
=66	=66	=66	=66	=66	=66	=66	=66	=66	=66	=66	=66	=66	=66	=66	=66	=66	=66	=66	=66	=66	=66	=66	=66	=66	=66	=66	=66	=66	=66
1r	.	1r	.	1r	.	4bb	.	4g	.	4G	mf	8gL	mf	8Ra/L 8Raa	4Rf\	[ f	1Re	.	4Re\	.	1r	.	1r	.	4E 4G 4c	2gg 2ddd	ff	4g	.
.	.	.	.	.	.	.	.	.	.	.	.	8g	.	8Ra/ 8Rgg	.	.	.	.	.	.	.	.	.	.	.	.	.	.	.
.	.	.	.	.	.	4gg	.	16gLL	.	4D	.	8g	.	8Rcc/ 8Rgg	4Rf\	.	.	.	4Re\	.	.	.	.	.	4F# 4A 4c	.	.	16gLL	.
.	.	.	.	.	.	.	.	16f#	.	.	.	.	.	.	.	.	.	.	.	.	.	.	.	.	.	.	.	16f#	.
.	.	.	.	.	.	.	.	16g	.	.	.	8gJ	.	8Ra/J 8Rgg	.	.	.	.	.	.	.	.	.	.	.	.	.	16g	.
.	.	.	.	.	.	.	.	16aJJ	.	.	.	.	.	.	.	.	.	.	.	.	.	.	.	.	.	.	.	16aJJ	.
.	.	.	.	.	.	4.eee	.	4g	.	4G	.	8eL	.	8Ra/L 8Rgg	4Rf\	.	.	.	4Re\	.	.	.	.	.	4D 4G 4B	2dd 2bb	.	4g	.
.	.	.	.	.	.	.	.	.	.	.	.	8e	.	8Ra/ 8Rgg	.	.	.	.	.	.	.	.	.	.	.	.	.	.	.
.	.	.	.	.	.	.	.	16gLL	.	8DL	.	8e	.	8Rcc/ 8Rgg	4Rf\	.	.	.	4Re\	.	.	.	.	.	4D 4F# 4A	.	.	16gLL	.
.	.	.	.	.	.	.	.	16f#	.	.	.	.	.	.	.	.	.	.	.	.	.	.	.	.	.	.	.	16f#	.
.	.	.	.	.	.	16dddLL	.	16g	.	8F#J	.	8eJ	.	8Ra/J 8Rgg	.	.	.	.	.	.	.	.	.	.	.	.	.	16g	.
.	.	.	.	.	.	16cccJJ	.	16aJJ	.	.	.	.	.	.	.	.	.	.	.	.	.	.	.	.	.	.	.	16aJJ	.
=67	=67	=67	=67	=67	=67	=67	=67	=67	=67	=67	=67	=67	=67	=67	=67	=67	=67	=67	=67	=67	=67	=67	=67	=67	=67	=67	=67	=67	=67
1r	.	1r	.	1r	.	4.ddd	.	8bL	.	[8DL	.	8eL	.	8Ra/L 8Rgg	4Rf\	.	1r	.	4Re\	.	1r	.	1r	.	2BB 2D 2G	[8bL [8dd	.	8bL	.
.	.	.	.	.	.	.	.	16ccL	.	16DL]	.	16eL	.	8Ra/ 8Rgg	.	.	.	.	.	.	.	.	.	.	.	16bL] 16dd]	.	16ccL	.
.	.	.	.	.	.	.	.	[16aJJ	.	[16GJJ	.	16eJJ	.	.	.	.	.	.	.	.	.	.	.	.	.	[16aJJ [16cc	.	[16aJJ	.
.	.	.	.	.	.	.	.	8aL]	.	8GL]	.	8dL	.	8Rcc/ 8Rgg	4Rf\	.	.	.	4Re\	.	.	.	.	.	.	8aL] 8cc]	.	8aL]	.
.	.	.	.	.	.	8ccc	.	8gJ	.	8BJ	.	8cJ	.	8Ra/J 8Rgg	.	.	.	.	.	.	.	.	.	.	.	8gJ 8b	.	8gJ	.
.	.	.	.	.	.	4.bb	.	4.b	.	4.d	.	8BL	.	8Ra/L 8Rgg	4Rf\	.	.	.	4Re\	.	.	.	.	.	8.DL	[4e [4g [4b	.	4.b	.
.	.	.	.	.	.	.	.	.	.	.	.	8BJ	.	8Ra/ 8Rgg	.	.	.	.	.	.	.	.	.	.	.	.	.	.	.
.	.	.	.	.	.	.	.	.	.	.	.	.	.	.	.	.	.	.	.	.	.	.	.	.	8.C	.	.	.	.
.	.	.	.	.	.	.	.	.	.	.	.	8AL	.	8Rcc/ 8Raa	4Rf\	.	.	.	4Re\	.	.	.	.	.	.	16eLL] 16g] 16b]	.	.	.
.	.	.	.	.	.	.	.	.	.	.	.	.	.	.	.	.	.	.	.	.	.	.	.	.	.	16b	.	.	.
.	.	.	.	.	.	8ff#	.	16bLL	.	8G	.	16dL	.	8Ra/J 8Rgg	.	.	.	.	.	.	.	.	.	.	8BBJ	16b	.	16bLL	.
.	.	.	.	.	.	.	.	16ccJJ	.	.	.	16f#JJ	.	.	.	.	.	.	.	.	.	.	.	.	.	16ccJJ	.	16ccJJ	.
=68	=68	=68	=68	=68	=68	=68	=68	=68	=68	=68	=68	=68	=68	=68	=68	=68	=68	=68	=68	=68	=68	=68	=68	=68	=68	=68	=68	=68	=68
1r	.	1r	.	1r	.	4.gg	.	8ddL	.	[8eL	.	8gL	.	8Ra/L 8Rgg	4Rf\	.	2.r	.	4Re\	.	1r	.	1r	.	8.EL 8.A 8.c	16ggLL	.	8ddL	.
.	.	.	.	.	.	.	.	.	.	.	.	.	.	.	.	.	.	.	.	.	.	.	.	.	.	16ff#	.	.	.
.	.	.	.	.	.	.	.	16ddL	.	16eL]	.	16gL	.	8Ra/ 8Rgg	.	.	.	.	.	.	.	.	.	.	.	16ee	.	16ddL	.
.	.	.	.	.	.	.	.	[16ddJJ	.	[16dJJ	.	16gJJ	.	.	.	.	.	.	.	.	.	.	.	.	16GJk 16B	16ddJJ	.	[16ddJJ	.
.	.	.	.	.	.	.	.	8ddL]	.	8dL]	.	8aL	.	8Rcc/ 8Rgg	4Rf\	.	.	.	4Re\	.	.	.	.	.	8AL 8d	16ccLL	.	8ddL]	.
.	.	.	.	.	.	.	.	.	.	.	.	.	.	.	.	.	.	.	.	.	.	.	.	.	.	16b	.	.	.
.	.	.	.	.	.	8aa	.	8eeJ	.	8cJ	.	8gJ	.	8Ra/J 8Rgg	.	.	.	.	.	.	.	.	.	.	8GJ 8c	16cc	.	8eeJ	.
.	.	.	.	.	.	.	.	.	.	.	.	.	.	.	.	.	.	.	.	.	.	.	.	.	.	16eeJJ	.	.	.
.	.	.	.	.	.	8bbL	.	8ddL	.	8dL	.	8f#L	.	8Ra/L 8Rgg	4Rf\	.	.	.	4Re\	.	.	.	.	.	8GL 8B	8ddL	.	8ddL	.
.	.	.	.	.	.	8gg	.	8g	.	8c	.	8d	.	8Ra/ 8Rgg	.	.	.	.	.	.	.	.	.	.	8E 8A	8g	.	8g	.
.	.	.	.	.	.	8ccc^	.	8gg^	.	8B	.	8g	.	8Rcc/ 8Raa	4Rf\	.	8Re\L	.	4Re\	.	.	.	.	.	8D^ 8F# 8A	8cc^ 8ee 8gg	???	8gg^	.
.	.	.	.	.	.	[8bb^J	.	[8ff#^J	.	[8cJ	.	[8f#J	.	8Ra/J 8Raa	.	.	8Re\J	.	.	.	.	.	.	.	[8BB^J [8E [8G	[8b^J [8dd [8ff#	.	[8ff#^J	.
=69	=69	=69	=69	=69	=69	=69	=69	=69	=69	=69	=69	=69	=69	=69	=69	=69	=69	=69	=69	=69	=69	=69	=69	=69	=69	=69	=69	=69	=69
1r	.	1r	.	1r	.	4bb]	.	8ff#L]	.	8cL]	.	8f#L]	.	8Ra/L 8Rgg	4Rf\	.	1r	.	4Re\	.	1r	.	1r	.	8BBL] 8E] 8G]	8bL] 8dd] 8ff#]	.	8ff#L]	.
.	.	.	.	.	.	.	.	8ddJ	.	[8B	.	8eJ	.	8Ra/ 8Rgg	.	.	.	.	.	.	.	.	.	.	8CJ 8E	8ccJ 8ee	f f	8ddJ	.
.	.	.	.	.	.	16aaLL	.	16aLL	.	8B]	.	16dLL	.	8Rcc/ 8Rgg	4Rf\	.	.	.	4Re\	.	.	.	.	.	16DLL	4b 4dd	.	16aLL	.
.	.	.	.	.	.	16ggJ	.	16ddJ	.	.	.	16c	.	.	.	.	.	.	.	.	.	.	.	.	16G	.	.	16ddJ	.
.	.	.	.	.	.	[8ff#J	.	[8bJ	.	[8AJ	.	16B	.	8Ra/J 8Rgg	.	.	.	.	.	.	.	.	.	.	16A	.	.	[8bJ	.
.	.	.	.	.	.	.	.	.	.	.	.	16AJJ	.	.	.	.	.	.	.	.	.	.	.	.	16BJJ	.	.	.	.
.	.	.	.	.	.	4ff#]	.	4b]	.	4A]	.	8BL	.	8Ra/L 8Rgg	4Rf\	.	.	.	4Re\	.	.	.	.	.	8GL	16dLL	.	4b]	.
.	.	.	.	.	.	.	.	.	.	.	.	.	.	.	.	.	.	.	.	.	.	.	.	.	.	16g	.	.	.
.	.	.	.	.	.	.	.	.	.	.	.	8B	.	8Ra/J 8Rgg	.	.	.	.	.	.	.	.	.	.	8F#J	16a	.	.	.
.	.	.	.	.	.	.	.	.	.	.	.	.	.	.	.	.	.	.	.	.	.	.	.	.	.	16bJJ	.	.	.
.	.	.	.	.	.	8ggL	.	16gLL	.	8GL	.	8d	.	16Rcc/LL 16Raa	4Rf\	.	.	.	4Re\	.	.	.	.	.	4D 4G 4B	8ddL	.	16gLL	.
.	.	.	.	.	.	.	.	16f#	.	.	.	.	.	16Ra/	.	.	.	.	.	.	.	.	.	.	.	.	.	16f#	.
.	.	.	.	.	.	8aaJ	.	16g	.	8F#J	.	8f#J	.	16Ra/	.	.	.	.	.	.	.	.	.	.	.	8ccJ	.	16g	.
.	.	.	.	.	.	.	.	16aJJ	.	.	.	.	.	16Ra/JJ	.	.	.	.	.	.	.	.	.	.	.	.	.	16aJJ	.
=70	=70	=70	=70	=70	=70	=70	=70	=70	=70	=70	=70	=70	=70	=70	=70	=70	=70	=70	=70	=70	=70	=70	=70	=70	=70	=70	=70	=70	=70
1r	.	1r	.	1r	.	4bb	mf	4g	.	4G	.	8gL	.	8Ra/L 8Raa	4Rf\	.	1r	.	4Re\	.	1r	.	1r	.	4BB 4E 4G	2e 2g 2b	.	4g	.
.	.	.	.	.	.	.	.	.	.	.	.	8g	.	8Ra/ 8Rgg	.	.	.	.	.	.	.	.	.	.	.	.	.	.	.
.	.	.	.	.	.	4gg	.	16gLL	.	4D	.	8g	.	8Rcc/ 8Rgg	4Rf\	.	.	.	4Re\	.	.	.	.	.	4BB 4D 4F#	.	.	16gLL	.
.	.	.	.	.	.	.	.	16f#	.	.	.	.	.	.	.	.	.	.	.	.	.	.	.	.	.	.	.	16f#	.
.	.	.	.	.	.	.	.	16g	.	.	.	8gJ	.	8Ra/J 8Rgg	.	.	.	.	.	.	.	.	.	.	.	.	.	16g	.
.	.	.	.	.	.	.	.	16aJJ	.	.	.	.	.	.	.	.	.	.	.	.	.	.	.	.	.	.	.	16aJJ	.
.	.	.	.	.	.	4.eee	.	4.b	.	4G	.	8f#L	.	8Ra/L 8Rgg	4Rf\	.	.	.	4Re\	.	.	.	.	.	4D 4G 4B	2f# 2a 2dd	.	4.b	.
.	.	.	.	.	.	.	.	.	.	.	.	8f#	.	8Ra/ 8Rgg	.	.	.	.	.	.	.	.	.	.	.	.	.	.	.
.	.	.	.	.	.	.	.	.	.	8DL	.	8f#	.	8Rcc/ 8Rgg	4Rf\	.	.	.	4Re\	.	.	.	.	.	4E 4G 4B	.	.	.	.
.	.	.	.	.	.	16dddLL	.	16bLL	.	8F#J	.	8f#J	.	8Ra/J 8Rgg	.	.	.	.	.	.	.	.	.	.	.	.	.	16bLL	.
.	.	.	.	.	.	16cccJJ	.	16ccJJ	.	.	.	.	.	.	.	.	.	.	.	.	.	.	.	.	.	.	.	16ccJJ	.
=71	=71	=71	=71	=71	=71	=71	=71	=71	=71	=71	=71	=71	=71	=71	=71	=71	=71	=71	=71	=71	=71	=71	=71	=71	=71	=71	=71	=71	=71
1r	.	1r	.	1r	.	4.ddd	.	8ddL	.	[8GL	.	8eL	.	8Ra/L 8Rgg	4Rf\	.	2.r	.	4Re\	.	1r	.	1r	.	2G 2B 2d	[8BL [8e	.	8ddL	.
.	.	.	.	.	.	.	.	16ddL	.	16GL]	.	16dL	.	16Ra/L 16Rgg	.	.	.	.	.	.	.	.	.	.	.	16BL] 16e]	.	16ddL	.
.	.	.	.	.	.	.	.	[16ddJJ	.	[16AJJ	.	16eJJ	.	16Ra/JJ	.	.	.	.	.	.	.	.	.	.	.	[16eJJ [16g	.	[16ddJJ	.
.	.	.	.	.	.	.	.	8ddL]	.	8AL]	.	8c	.	8Rcc/L 8Rgg	4Rf\	.	.	.	4Re\	.	.	.	.	.	.	8eL] 8g]	.	8ddL]	.
.	.	.	.	.	.	8ggg	.	8ddJ	.	8BJ	.	4B	.	16Ra/L 16Rgg	.	.	.	.	.	.	.	.	.	.	.	8gJ 8b	.	8ddJ	.
.	.	.	.	.	.	.	.	.	.	.	.	.	.	16Ra/JJ	.	.	.	.	.	.	.	.	.	.	.	.	.	.	.
.	.	.	.	.	.	4gg	.	8ddL	.	8G	.	.	.	8Ra/L 8Rgg	4Rf\	.	.	.	4Re\	.	.	.	.	.	8F#L 8A	8ddL	.	8ddL	.
.	.	.	.	.	.	.	.	8ee	.	4F#	.	8cL	.	24Ra/L 24Rcc	.	.	.	.	.	.	.	.	.	.	8E 8G	8ee	.	8ee	.
.	.	.	.	.	.	.	.	.	.	.	.	.	.	24Ra/	.	.	.	.	.	.	.	.	.	.	.	.	.	.	.
.	.	.	.	.	.	.	.	.	.	.	.	.	.	24Ra/JJ	.	.	.	.	.	.	.	.	.	.	.	.	.	.	.
.	.	.	.	.	.	16dddLL	.	8ff#^	.	.	.	8B	.	8Rcc/L 8Raa	4Rf\	.	8Re\L	.	4Re\	.	.	.	.	.	8BB^ 8D 8F#	8a^ 8dd 8ff#	mp mp	8ff#^	.
.	.	.	.	.	.	16cccJ	.	.	.	.	.	.	.	.	.	.	.	.	.	.	.	.	.	.	.	.	.	.	.
.	.	.	.	.	.	[8bbJ	.	[8gg^J	.	[8D	.	8GJ	.	8Ra/J 8Raa	.	.	8Re\J	.	.	.	.	.	.	.	[8D^J [8G [8B	[8b^J [8dd [8gg	.	[8gg^J	.
=72	=72	=72	=72	=72	=72	=72	=72	=72	=72	=72	=72	=72	=72	=72	=72	=72	=72	=72	=72	=72	=72	=72	=72	=72	=72	=72	=72	=72	=72
1r	.	1r	.	1r	.	8bbL]	.	8ggL]	.	8DL]	.	8GL	.	8Ra/L 8Rgg	4Rf\	.	1r	.	4Re\	.	1r	.	1r	.	8DL] 8G] 8B]	8bL] 8dd] 8gg]	.	8ggL]	.
.	.	.	.	.	.	8ccc	mp	8ee	.	8D	.	8G	.	16Ra/L 16Rgg	.	.	.	.	.	.	.	.	.	.	8F# 8A	8ccJ 8ee	f f	8ee	.
.	.	.	.	.	.	.	.	.	.	.	.	.	.	16Ra/JJ	.	.	.	.	.	.	.	.	.	.	.	.	.	.	.
.	.	.	.	.	.	8bb	.	8dd	.	8E	.	8G	.	8Rcc/L 8Rgg	4Rf\	.	.	.	4Re\	.	.	.	.	.	8D 8G	4dd	.	8dd	.
.	.	.	.	.	.	8aaJ	.	8ccJ	.	8F#J	.	8GJ	.	16Ra/L 16Rgg	.	.	.	.	.	.	.	.	.	.	8DJ 8F#	.	.	8ccJ	.
.	.	.	.	.	.	.	.	.	.	.	.	.	.	16Ra/JJ	.	.	.	.	.	.	.	.	.	.	.	.	.	.	.
.	.	.	.	.	.	[8ggL	.	8ddL	.	4G	.	8BL	.	8Ra/L 8Rgg	4Rf\	.	.	.	4Re\	.	.	.	.	.	4BB 4E	8bL	.	8ddL	.
.	.	.	.	.	.	16ggL]	.	16gL	.	.	.	8B	.	8Ra/J 8Rgg	.	.	.	.	.	.	.	.	.	.	.	8eeJ	.	16gL	.
.	.	.	.	.	.	[16ddJJ	.	[16gJJ	.	.	.	.	.	.	.	.	.	.	.	.	.	.	.	.	.	.	.	[16gJJ	.
.	.	.	.	.	.	8ddL]	.	8gL]	.	4C	.	8c	.	16Rcc/LL 16Rgg	4Rf\	.	.	.	4Re\	.	.	.	.	.	4D 4G	4g 4b 4dd	.	8gL]	.
.	.	.	.	.	.	.	.	.	.	.	.	.	.	16Ra/	.	.	.	.	.	.	.	.	.	.	.	.	.	.	.
.	.	.	.	.	.	8bJ	.	8gJ	.	.	.	8dJ	.	16Ra/	.	.	.	.	.	.	.	.	.	.	.	.	.	8gJ	.
.	.	.	.	.	.	.	.	.	.	.	.	.	.	16Ra/JJ	.	.	.	.	.	.	.	.	.	.	.	.	.	.	.
=73	=73	=73	=73	=73	=73	=73	=73	=73	=73	=73	=73	=73	=73	=73	=73	=73	=73	=73	=73	=73	=73	=73	=73	=73	=73	=73	=73	=73	=73
1r	.	1r	.	1r	.	[8ddL	.	8aL	.	8AL	.	8BL	.	8Ra/L 8Raa	4Rf\	.	8Re\	.	4Re\	.	1r	.	1r	.	[4BB [4D [4F#	[4dd [4ff#	.	8aL	.
.	.	.	.	.	.	16ddL]	.	16bL	.	16GL	.	16BL	.	16Ra/L 16Rgg	.	.	8r	.	.	.	.	.	.	.	.	.	.	16bL	.
.	.	.	.	.	.	[16eeJJ	.	[16ccJJ	.	[16F#JJ	.	16cJJ	.	16Ra/JJ	.	.	.	.	.	.	.	.	.	.	.	.	.	[16ccJJ	.
.	.	.	.	.	.	8eeL]	.	16ccLL]	.	8F#L]	.	16dLL	.	8Rcc/L 8Rgg	4Rf\	.	8r	.	4Re\	.	.	.	.	.	8BBL] 8D] 8F#]	8ddL] 8ff#]	.	16ccLL]	.
.	.	.	.	.	.	.	.	16bJ	.	.	.	16c	.	.	.	.	.	.	.	.	.	.	.	.	.	.	.	16bJ	.
.	.	.	.	.	.	[8ddJ	.	[8bJ	.	8DJ	.	16B	.	8Ra/J 8Raa	.	.	8Re\	.	.	.	.	.	.	.	[8BBJ [8E [8G	[8eeJ [8gg	.	[8bJ	.
.	.	.	.	.	.	.	.	.	.	.	.	16AJJ	.	.	.	.	.	.	.	.	.	.	.	.	.	.	.	.	.
.	.	.	.	.	.	2dd_	.	2b_	.	[8GL	.	[8BL	.	8Ra/L 8Rgg	4Rf\	.	2r	.	4Re\	.	.	.	.	.	4BB] 4E] 4G]	4ee] 4gg]	.	2b_	.
.	.	.	.	.	.	.	.	.	.	16GL]	.	16BL]	.	8Ra/J 8Rgg	.	.	.	.	.	.	.	.	.	.	.	.	.	.	.
.	.	.	.	.	.	.	.	.	.	[16F#JJ	.	[16cJJ	.	.	.	.	.	.	.	.	.	.	.	.	.	.	.	.	.
.	.	.	.	.	.	.	.	.	.	8F#L]	.	8cL]	.	24Rcc/LL 24Rgg	4Rf\	.	.	.	4Re\	.	.	.	.	.	8BBL 8D 8G	8ddL 8gg	.	.	.
.	.	.	.	.	.	.	.	.	.	.	.	.	.	24Ra/	.	.	.	.	.	.	.	.	.	.	.	.	.	.	.
.	.	.	.	.	.	.	.	.	.	.	.	.	.	24Ra/	.	.	.	.	.	.	.	.	.	.	.	.	.	.	.
.	.	.	.	.	.	.	.	.	.	8DJ	.	16BL	.	24Ra/	.	.	.	.	.	.	.	.	.	.	16F#L	16ff#L	.	.	.
.	.	.	.	.	.	.	.	.	.	.	.	.	.	24Ra/	.	.	.	.	.	.	.	.	.	.	.	.	.	.	.
.	.	.	.	.	.	.	.	.	.	.	.	16AJJ	.	.	.	.	.	.	.	.	.	.	.	.	16EJJ	16eeJJ	.	.	.
.	.	.	.	.	.	.	.	.	.	.	.	.	.	24Ra/JJ	.	.	.	.	.	.	.	.	.	.	.	.	.	.	.
=74	=74	=74	=74	=74	=74	=74	=74	=74	=74	=74	=74	=74	=74	=74	=74	=74	=74	=74	=74	=74	=74	=74	=74	=74	=74	=74	=74	=74	=74
1r	.	1r	.	1r	.	8ddL]	.	8bL]	.	4E	.	8GL	.	8Ra/L 8Rgg	4Rf\	.	1r	.	4Re\	.	1r	.	1r	.	2GG 2BB 2D	8dd	.	8bL]	.
.	.	.	.	.	.	8ccc	.	8ee	.	.	.	8G	.	16Ra/L 16Rgg	.	.	.	.	.	.	.	.	.	.	.	4e 4g	.	8ee	.
.	.	.	.	.	.	.	.	.	.	.	.	.	.	16Ra/JJ	.	.	.	.	.	.	.	.	.	.	.	.	.	.	.
.	.	.	.	.	.	8bb	.	8dd	.	4C	.	8G	.	8Rcc/L 8Rgg	4Rf\	.	.	.	4Re\	.	.	.	.	.	.	.	.	8dd	.
.	.	.	.	.	.	8aaJ	.	8ccJ	.	.	.	8GJ	.	16Ra/L 16Rgg	.	.	.	.	.	.	.	.	.	.	.	8b 8dd	.	8ccJ	.
.	.	.	.	.	.	.	.	.	.	.	.	.	.	16Ra/JJ	.	.	.	.	.	.	.	.	.	.	.	.	.	.	.
.	.	.	.	.	.	[8ggL	.	8ddL	.	4D	.	8AL	.	8Ra/L 8Rgg	4Rf\	.	.	.	4Re\	.	.	.	.	.	2D 2G	4g 4cc	.	8ddL	.
.	.	.	.	.	.	16ggL]	.	16gL	.	.	.	8B	.	16Ra/L 16Rgg	.	.	.	.	.	.	.	.	.	.	.	.	.	16gL	.
.	.	.	.	.	.	16ddJJ	.	[16gJJ	.	.	.	.	.	16Ra/JJ	.	.	.	.	.	.	.	.	.	.	.	.	.	[16gJJ	.
.	.	.	.	.	.	8ddL	.	8gL]	.	4E	.	8c	.	8Rcc/L 8Rgg	4Rf\	.	.	.	4Re\	.	.	.	.	.	.	4f# 4a	.	8gL]	.
.	.	.	.	.	.	8ggJ	.	8gJ	.	.	.	8AJ	.	16Ra/L 16Rgg	.	.	.	.	.	.	.	.	.	.	.	.	.	8gJ	.
.	.	.	.	.	.	.	.	.	.	.	.	.	.	16Ra/JJ	.	.	.	.	.	.	.	.	.	.	.	.	.	.	.
=75	=75	=75	=75	=75	=75	=75	=75	=75	=75	=75	=75	=75	=75	=75	=75	=75	=75	=75	=75	=75	=75	=75	=75	=75	=75	=75	=75	=75	=75
1r	.	1r	.	1r	.	4.ff#	.	8aL	.	4.BB	.	4G	.	8Ra/L 8Raa	4Rf\	.	8Re\	.	4Re\	.	1r	.	1r	.	[8BBL [8D	[8gL [8b	.	8aL	.
.	.	.	.	.	.	.	.	16bL	.	.	.	.	.	8Ra/ 8Rgg	.	.	8r	.	.	.	.	.	.	.	16BBL] 16D]	16gL] 16b]	.	16bL	.
.	.	.	.	.	.	.	.	[16aJJ	.	.	.	.	.	.	.	.	.	.	.	.	.	.	.	.	[16AAJJ [16F#	[16ccJJ [16gg	.	[16aJJ	.
.	.	.	.	.	.	.	.	16aLL]	.	.	.	8dL	.	8Rcc/ 8Rgg	4Rf\	.	8r	.	4Re\	.	.	.	.	.	8AAL] 8F#]	8ccL] 8gg]	.	16aLL]	.
.	.	.	.	.	.	.	.	16gJ	.	.	.	.	.	.	.	.	.	.	.	.	.	.	.	.	.	.	.	16gJ	.
.	.	.	.	.	.	[8gg	.	[8bJ	.	[8E	.	[8gJ	.	8Ra/J 8Raa	.	.	8Re\	.	.	.	.	.	.	.	[8BBJ [8E	[8ddJ [8ff#	.	[8bJ	.
.	.	.	.	.	.	8ggL]	.	2b_	.	8EL]	.	8gL]	.	8Ra/L 8Rgg	4Rf\	.	2r	.	4Re\	.	.	.	.	.	2BB] 2E]	8ddL] 8ff#]	.	2b_	.
.	.	.	.	.	.	[8ff#	.	.	.	[8D	.	[8f#	.	8Ra/J 8Rgg	.	.	.	.	.	.	.	.	.	.	.	8ee	.	.	.
.	.	.	.	.	.	8ff#]	.	.	.	8D]	.	8f#]	.	16Ra/LL 16Rcc	4Rf\	.	.	.	4Re\	.	.	.	.	.	.	8dd	.	.	.
.	.	.	.	.	.	.	.	.	.	.	.	.	.	16Ra/	.	.	.	.	.	.	.	.	.	.	.	.	.	.	.
.	.	.	.	.	.	[8eeJ	.	.	.	[8GGJ	.	[8BJ	.	16Ra/	.	.	.	.	.	.	.	.	.	.	.	8ccJ	.	.	.
.	.	.	.	.	.	.	.	.	.	.	.	.	.	16Ra/JJ	.	.	.	.	.	.	.	.	.	.	.	.	.	.	.
=76	=76	=76	=76	=76	=76	=76	=76	=76	=76	=76	=76	=76	=76	=76	=76	=76	=76	=76	=76	=76	=76	=76	=76	=76	=76	=76	=76	=76	=76
1r	.	1r	.	1r	.	8eeL]	.	8bL]	.	8GGL]	.	8BL]	.	8Ra/L 8Rgg	4Rf\	.	1r	.	4Re\	.	1r	.	1r	.	2BB 2D 2F#	8b	.	8bL]	.
.	.	.	.	.	.	8gg	.	8cc	.	8C	.	8eJ	.	16Ra/L 16Rgg	.	.	.	.	.	.	.	.	.	.	.	4g 4ee	.	8cc	.
.	.	.	.	.	.	.	.	.	.	.	.	.	.	16Ra/JJ	.	.	.	.	.	.	.	.	.	.	.	.	.	.	.
.	.	.	.	.	.	8ff#	.	8b	.	8BB	.	4d	.	8Rcc/L 8Rgg	4Rf\	.	.	.	4Re\	.	.	.	.	.	.	.	.	8b	.
.	.	.	.	.	.	8eeJ	.	8aJ	.	8AAJ	.	.	.	16Ra/L 16Rgg	.	.	.	.	.	.	.	.	.	.	.	8a 8cc	.	8aJ	.
.	.	.	.	.	.	.	.	.	.	.	.	.	.	16Ra/JJ	.	.	.	.	.	.	.	.	.	.	.	.	.	.	.
.	.	.	.	.	.	8ff#	.	8bL	.	8BB	.	8c	.	8Ra/L 8Rgg	4Rf\	.	.	.	4Re\	.	.	.	.	.	2FF# 2AA 2D	4d 4a	.	8bL	.
.	.	.	.	.	.	4ee	.	16gL	.	4FF#	.	4B	.	16Ra/L 16Rgg	.	.	.	.	.	.	.	.	.	.	.	.	.	16gL	.
.	.	.	.	.	.	.	.	[16gJJ	.	.	.	.	.	16Ra/JJ	.	.	.	.	.	.	.	.	.	.	.	.	.	[16gJJ	.
.	.	.	.	.	.	.	.	8gL]	.	.	.	.	.	8Rcc/L 8Rgg	4Rf\	.	.	.	4Re\	.	.	.	.	.	.	4e 4g	.	8gL]	.
.	.	.	.	.	.	8dd	.	8gJ	.	8GG	.	8G	.	16Ra/L 16Rgg	.	.	.	.	.	.	.	.	.	.	.	.	.	8gJ	.
.	.	.	.	.	.	.	.	.	.	.	.	.	.	16Ra/JJ	.	.	.	.	.	.	.	.	.	.	.	.	.	.	.
=77	=77	=77	=77	=77	=77	=77	=77	=77	=77	=77	=77	=77	=77	=77	=77	=77	=77	=77	=77	=77	=77	=77	=77	=77	=77	=77	=77	=77	=77
1r	.	1r	.	1r	.	4dd	.	8aL	.	[4AA	.	4B	.	8Ra/L 8Rgg	4Rf\	.	1r	.	4Re\	.	1r	.	1r	.	2AA 2D 2F#	4f# 4a	.	8aL	.
.	.	.	.	.	.	.	.	8gJ	.	.	.	.	.	16Ra/L 16Rgg	.	.	.	.	.	.	.	.	.	.	.	.	.	8gJ	.
.	.	.	.	.	.	.	.	.	.	.	.	.	.	16Ra/JJ	.	.	.	.	.	.	.	.	.	.	.	.	.	.	.
.	.	.	.	.	.	8ccL	.	16f#LL	.	8AAL]	.	8AL	.	8Rcc/L 8Rgg	4Rf\	.	.	.	4Re\	.	.	.	.	.	.	8bL	.	16f#LL	.
.	.	.	.	.	.	.	.	16gJ	.	.	.	.	.	.	.	.	.	.	.	.	.	.	.	.	.	.	.	16gJ	.
.	.	.	.	.	.	[8bJ	.	[8gJ	.	[8BBJ	.	[8GJ	.	8Ra/J 8Raa	.	.	.	.	.	.	.	.	.	.	.	8ddJ	.	[8gJ	.
.	.	.	.	.	.	4.b]	.	4.g]	.	4BB]	.	8GL]	.	8Ra/L 8Rgg	4Rf\	.	.	.	4Re\	.	.	.	.	.	2C 2E 2G	8ccL	.	4.g]	.
.	.	.	.	.	.	.	.	.	.	.	.	8EJ	.	16Ra/L 16Rgg	.	.	.	.	.	.	.	.	.	.	.	8eeJ	.	.	.
.	.	.	.	.	.	.	.	.	.	.	.	.	.	16Ra/JJ	.	.	.	.	.	.	.	.	.	.	.	.	.	.	.
.	.	.	.	.	.	.	.	.	.	4C	.	4D	.	8Rcc/L 8Rgg	4Rf\	.	.	.	4Re\	.	.	.	.	.	.	16ddLL	.	.	.
.	.	.	.	.	.	.	.	.	.	.	.	.	.	.	.	.	.	.	.	.	.	.	.	.	.	16cc	.	.	.
.	.	.	.	.	.	16bLL	.	16bLL	.	.	.	.	.	16Ra/L 16Rgg	.	.	.	.	.	.	.	.	.	.	.	16b	.	16bLL	.
.	.	.	.	.	.	16aJJ	.	16aJJ	.	.	.	.	.	16Ra/JJ	.	.	.	.	.	.	.	.	.	.	.	16aJJ	.	16aJJ	.
=78	=78	=78	=78	=78	=78	=78	=78	=78	=78	=78	=78	=78	=78	=78	=78	=78	=78	=78	=78	=78	=78	=78	=78	=78	=78	=78	=78	=78	=78
1r	.	1r	.	1r	.	4.g	.	4.g	.	[4D	.	8EL	.	8Ra/L 8Rgg	4Rf\	>	1r	.	4Re\	>	1r	.	1r	.	2D 2G 2B	4.B 4.d 4.g	.	4.g	.
.	.	.	.	.	.	.	.	.	.	.	.	8C	.	16Ra/L 16Rgg	.	.	.	.	.	.	.	.	.	.	.	.	.	.	.
.	.	.	.	.	.	.	.	.	.	.	.	.	.	16Ra/JJ	.	.	.	.	.	.	.	.	.	.	.	.	.	.	.
.	.	.	.	.	.	.	.	.	.	8DL]	.	8E	.	8Rcc/L 8Rgg	4Rf\	.	.	.	4Re\	.	.	.	.	.	.	.	.	.	.
.	.	.	.	.	.	8a	>	8cc	>	[8EJ	.	[8cJ	.	16Ra/L 16Rgg	.	.	.	.	.	.	.	.	.	.	.	8a 8cc	.	8cc	>
.	.	.	.	.	.	.	.	.	.	.	.	.	.	16Ra/JJ	.	.	.	.	.	.	.	.	.	.	.	.	.	.	.
.	.	.	.	.	.	8gL	.	8bL	.	4E]	.	8cL]	.	8Ra/L 8Rgg	4Rf\	.	.	.	4Re\	.	.	.	.	.	4C 4E 4A	4e 4g 4b	.	8bL	.
.	.	.	.	.	.	8eJ	.	8gJ	.	.	.	8BB	.	16Ra/L 16Rgg	.	.	.	.	.	.	.	.	.	.	.	.	.	8gJ	.
.	.	.	.	.	.	.	.	.	.	.	.	.	.	16Ra/JJ	.	.	.	.	.	.	.	.	.	.	.	.	.	.	.
.	.	.	.	.	.	4f#	]]	4a	]]	4F#	.	8D	.	8Ra/L 8Rgg	4Rf\	.	.	.	4Re\	]]	.	.	.	.	4AA 4D 4F#	4f# 4a	.	4a	]]
.	.	.	.	.	.	.	.	.	.	.	.	8BJ	.	8Ra/J 8Rgg	.	.	.	.	.	.	.	.	.	.	.	.	.	.	.
*	*	*	*	*	*	*	*	*	*	*	*	*	*	*v	*v	*	*	*	*	*	*	*	*	*	*	*	*	*	*
=79	=79	=79	=79	=79	=79	=79	=79	=79	=79	=79	=79	=79	=79	=79	=79	=79	=79	=79	=79	=79	=79	=79	=79	=79	=79	=79	=79	=79
1r	.	1r	.	1r	.	4.g	mf	4.b	ff >	2B	mp	2g	mp	1r	] p	1r	.	1r	p	2g 2gg	p	2g 2gg	mf	[4BB [4D [4G	[4d [4g [4b	.	4.b	ff >
.	.	.	.	.	.	.	.	.	.	.	.	.	.	.	.	.	.	.	.	.	.	.	.	8BBL] 8D] 8G]	8dL] 8g] 8b]	.	.	.
.	.	.	.	.	.	[8dd	.	[8dd	.	.	.	.	.	.	.	.	.	.	.	.	.	.	.	[8DJ [8F#	[8aJ [8dd	.	[8dd	.
.	.	.	.	.	.	4.dd]	.	4.dd]	.	2A	.	2f#	.	.	.	.	.	.	.	2f# 2ff#	.	2f# 2ff#	.	4D] 4F#]	4a] 4dd]	.	4.dd]	.
.	.	.	.	.	.	.	.	.	.	.	.	.	.	.	.	.	.	.	.	.	.	.	.	4BB 4E	4ff#	.	.	.
.	.	.	.	.	.	8cc	.	8f#	]]	.	.	.	.	.	.	.	.	.	.	.	.	.	.	.	.	.	8f#	]]
=80	=80	=80	=80	=80	=80	=80	=80	=80	=80	=80	=80	=80	=80	=80	=80	=80	=80	=80	=80	=80	=80	=80	=80	=80	=80	=80	=80	=80
1r	.	1r	.	1r	.	[2b	>	[2g	f	4.G	.	4.e	.	1r	.	1r	.	1r	.	4.e 4.ee	.	4.e 4.ee	.	4.D 4.G 4.B	4.dd 4.gg	.	[2g	f
.	.	.	.	.	.	.	.	.	.	[8F#	.	[8d	.	.	.	.	.	.	.	[8d [8dd	.	[8d [8dd	.	[8D [8A	[8ff#	.	.	.
.	.	.	.	.	.	8bL]	.	8gL]	.	2F#]	.	2d]	.	.	.	.	.	.	.	2d] 2dd]	.	2d] 2dd]	.	4.D] 4.A]	4ff#]	.	8gL]	.
.	.	.	.	.	.	8cc	] p	8g	.	.	.	.	.	.	.	.	.	.	.	.	.	.	.	.	.	.	8g	.
.	.	.	.	.	.	8dd	.	8f#	.	.	.	.	.	.	.	.	.	.	.	.	.	.	.	.	16eeLL	.	8f#	.
.	.	.	.	.	.	.	.	.	.	.	.	.	.	.	.	.	.	.	.	.	.	.	.	.	16dd	.	.	.
.	.	.	.	.	.	[8ggJ	.	[8dJ	.	.	.	.	.	.	.	.	.	.	.	.	.	.	.	8GG 8BB 8D	16cc	.	[8dJ	.
.	.	.	.	.	.	.	.	.	.	.	.	.	.	.	.	.	.	.	.	.	.	.	.	.	16bJJ	.	.	.
=81	=81	=81	=81	=81	=81	=81	=81	=81	=81	=81	=81	=81	=81	=81	=81	=81	=81	=81	=81	=81	=81	=81	=81	=81	=81	=81	=81	=81
1r	.	1r	.	1r	.	2gg_	<	1d_	>	2B	.	2g	.	2r	.	1r	.	1r	.	2g 2gg	.	2g 2gg	.	8BBL 8E 8G	4d 4g	.	1d_	>
.	.	.	.	.	.	.	.	.	.	.	.	.	.	.	.	.	.	.	.	.	.	.	.	8BB	.	.	.	.
.	.	.	.	.	.	.	.	.	.	.	.	.	.	.	.	.	.	.	.	.	.	.	.	8D	8bL	.	.	.
.	.	.	.	.	.	.	.	.	.	.	.	.	.	.	.	.	.	.	.	.	.	.	.	8GJ	[8gJ [8cc	.	.	.
.	.	.	.	.	.	8ggL]	.	.	.	2A	.	2f#	.	8r	.	.	.	.	.	2f# 2ff#	.	2f# 2ff#	.	8AAL 8D 8F#	4g] 4cc]	.	.	.
.	.	.	.	.	.	8ff#	[ f	.	.	.	.	.	.	8Rgg/	.	.	.	.	.	.	.	.	.	8AA	.	.	.	.
.	.	.	.	.	.	8gg	.	.	.	.	.	.	.	8r	.	.	.	.	.	.	.	.	.	8BB	4g 4b	.	.	.
.	.	.	.	.	.	8dddJ	.	.	.	.	.	.	.	8Rgg/	.	.	.	.	.	.	.	.	.	8F#J	.	.	.	.
=82	=82	=82	=82	=82	=82	=82	=82	=82	=82	=82	=82	=82	=82	=82	=82	=82	=82	=82	=82	=82	=82	=82	=82	=82	=82	=82	=82	=82
1r	.	1r	.	1r	.	8cccL	.	1d]	]]	8GL	.	8eL	.	8Rgg/	.	1r	.	1r	.	4.e 4.ee	.	4.e 4.ee	.	8GGL 8C 8E	4.c 4.e	.	1d]	]]
.	.	.	.	.	.	8bbJ	.	.	.	8D	.	8G	.	8r	.	.	.	.	.	.	.	.	.	8GG	.	.	.	.
.	.	.	.	.	.	16ggLL	.	.	.	8E	.	8e	.	8r	.	.	.	.	.	.	.	.	.	8C 8E	.	.	.	.
.	.	.	.	.	.	16aaJ	.	.	.	.	.	.	.	.	.	.	.	.	.	.	.	.	.	.	.	.	.	.
.	.	.	.	.	.	[8bbJ	.	.	.	[8F#J	.	[8dJ	.	8Rgg/	.	.	.	.	.	[8d [8dd	.	[8d [8dd	.	[8AAJ [8D [8F#	[8A [8d	.	.	.
.	.	.	.	.	.	8bbL]	.	.	.	2F#]	.	2d]	.	8r	.	.	.	.	.	2d] 2dd]	.	2d] 2dd]	.	2AA] 2D] 2F#]	8AL] 8d]	.	.	.
.	.	.	.	.	.	[8gg	>	.	.	.	.	.	.	8Rgg/	.	.	.	.	.	.	.	.	.	.	8c	>	.	.
.	.	.	.	.	.	8gg]	.	.	.	.	.	.	.	4r	.	.	.	.	.	.	.	.	.	.	8B	.	.	.
.	.	.	.	.	.	8ddJ	]]	.	.	.	.	.	.	.	.	.	.	.	.	.	.	.	.	.	8GJ	.	.	.
=83||	=83||	=83||	=83||	=83||	=83||	=83||	=83||	=83||	=83||	=83||	=83||	=83||	=83||	=83||	=83||	=83||	=83||	=83||	=83||	=83||	=83||	=83||	=83||	=83||	=83||	=83||	=83||	=83||
*k[f#c#]	*	*k[f#c#]	*	*k[f#c#]	*	*k[f#c#]	*	*k[f#c#]	*	*k[f#c#]	*	*k[f#c#]	*	*	*	*	*	*	*	*k[f#c#]	*	*k[f#c#]	*	*k[f#c#]	*k[f#c#]	*	*k[f#c#]	*
*	*	*	*	*	*	*	*	*	*	*	*	*	*	*^	*	*	*	*	*	*	*	*	*	*	*	*	*	*
1r	.	1r	.	1r	.	2dd	mp	2d	f p	2B	>	2g	>	8Ra/L 8Rgg	2Rf\	pp	1r	.	1r	.	2b 2dd	.	2b 2dd	.	8BBL 8D 8F#	2B 2d 2f#	] mf	2d	f p
.	.	.	.	.	.	.	.	.	.	.	.	.	.	8Ra/ 8Rgg	.	.	.	.	.	.	.	.	.	.	8FF#	.	.	.	.
.	.	.	.	.	.	.	.	.	.	.	.	.	.	8Rcc/ 8Rgg	.	.	.	.	.	.	.	.	.	.	8AA	.	.	.	.
.	.	.	.	.	.	.	.	.	.	.	.	.	.	8Ra/J 8Rgg	.	.	.	.	.	.	.	.	.	.	8DJ	.	.	.	.
.	.	.	.	.	.	2cc#	.	2c#	.	2A	.	2f#	.	8Ra/L 8Rgg	2Rf\	.	.	.	.	.	2a 2cc#	.	2a 2cc#	.	8AAL 8C# 8E	2A 2c# 2e	.	2c#	.
.	.	.	.	.	.	.	.	.	.	.	.	.	.	8Ra/ 8Rgg	.	.	.	.	.	.	.	.	.	.	8EE	.	.	.	.
.	.	.	.	.	.	.	.	.	.	.	.	.	.	8Rcc/ 8Rgg	.	.	.	.	.	.	.	.	.	.	8AA	.	.	.	.
.	.	.	.	.	.	.	.	.	.	.	.	.	.	8Ra/J 8Rgg	.	.	.	.	.	.	.	.	.	.	8C#J	.	.	.	.
=84	=84	=84	=84	=84	=84	=84	=84	=84	=84	=84	=84	=84	=84	=84	=84	=84	=84	=84	=84	=84	=84	=84	=84	=84	=84	=84	=84	=84	=84
1r	.	1r	.	1r	.	4.b	.	4.B	.	8GL	.	8eL	.	8Ra/L 8Rgg	4.Rf\	.	4.r	.	1r	.	4.f# 4.b	.	4.f# 4.b	.	8GGL 8BB 8D	4.B 4.d 4.g	.	4.B	.
.	.	.	.	.	.	.	.	.	.	8D	.	8G	.	8Ra/ 8Rgg	.	.	.	.	.	.	.	.	.	.	8EE	.	.	.	.
.	.	.	.	.	.	.	.	.	.	8E	.	8e	.	8Rcc/ 8Rgg	.	.	.	.	.	.	.	.	.	.	8EE 8GG 8BB	.	.	.	.
.	.	.	.	.	.	[8a	>	[8A	>	[8F#J	.	[8dJ	.	[8Ra/J [8Raa	[8Rf\	.	[8Re\	p	.	.	[8d [8f# [8a	.	[8d [8f# [8a	.	[8FF#J [8AA [8D [8F#	[8A [8d [8f# [8a	.	[8A	>
.	.	.	.	.	.	2a_	.	2A_	.	2F#_	.	2d_	.	2Ra/] 2Raa]	2Rf\]	.	2Re\_	.	.	.	2d_ 2f#_ 2a_	.	2d_ 2f#_ 2a_	.	2FF#_ 2AA_ 2D_ 2F#_	2A_ 2d_ 2f#_ 2a_	.	2A_	.
*	*	*	*	*	*	*	*	*	*	*	*	*	*	*v	*v	*	*	*	*	*	*	*	*	*	*	*	*	*	*
=85	=85	=85	=85	=85	=85	=85	=85	=85	=85	=85	=85	=85	=85	=85	=85	=85	=85	=85	=85	=85	=85	=85	=85	=85	=85	=85	=85	=85
1r	.	1r	.	1r	.	2a]	.	2A]	.	2F#]	.	2d]	.	1r	.	2Re\]	.	1r	.	2d] 2f#] 2a]	.	2d] 2f#] 2a]	.	2FF#] 2AA] 2D] 2F#]	2A] 2d] 2f#] 2a]	.	2A]	.
.	.	.	.	.	.	2r	] p	2r	] p	2r	] p	2r	] p	.	.	2r	.	.	.	2r	.	2r	.	2r	2r	.	2r	]
==	==	==	==	==	==	==	==	==	==	==	==	==	==	==	==	==	==	==	==	==	==	==	==	==	==	==	==	==
*-	*-	*-	*-	*-	*-	*-	*-	*-	*-	*-	*-	*-	*-	*-	*-	*-	*-	*-	*-	*-	*-	*-	*-	*-	*-	*-	*-	*-
!!!YEM: Sony Music Entertainment (Japan) Inc. (on behalf of (P)2020 Sony Music Labels Inc.)
